<?xml version="1.0" encoding="UTF-8"?>
<map version="1.10" tiledversion="1.12.1" orientation="orthogonal" renderorder="right-down" width="15" height="15" tilewidth="16" tileheight="16" infinite="0" nextlayerid="12" nextobjectid="51">
 <tileset firstgid="1" source="tileset/tileset4g.tsx"/>
 <tileset firstgid="21001" source="tileset/interieur1.tsx"/>
 <tileset firstgid="25625" source="tileset/indoor.tsx"/>
 <layer id="1" name="Calque de Tuiles 1" width="15" height="15">
  <data encoding="csv">
21019,21019,21019,21019,21019,21019,21019,21019,21019,21019,21019,21019,21019,21019,21019,
21019,21019,21019,21019,21019,21019,21019,21019,21019,21019,21019,21019,21019,21019,21019,
21019,21019,21019,21019,21019,21019,21019,21019,21019,21019,21019,21019,21019,21019,21019,
21019,21019,21019,21019,21019,21019,21019,21019,21019,21019,21019,21019,21019,21019,21019,
21019,21019,21019,21019,21019,21019,21019,21019,21019,21019,21019,21019,21019,21019,21019,
21019,21019,21019,21019,21019,21019,21019,21019,21019,21019,21019,21019,21019,21019,21019,
21019,21019,21019,21019,21019,21019,21019,21019,21019,21019,21019,21019,21019,21019,21019,
21019,21019,21019,21019,21019,21019,21019,21019,21019,21019,21019,21019,21019,21019,21019,
21019,21019,21019,21019,21019,21019,21019,21019,21019,21019,21019,21019,21019,21019,21019,
21019,21019,21019,21019,21019,21019,21019,21019,21019,21019,21019,21019,21019,21019,21019,
0,0,0,0,0,0,0,21019,21019,21019,21019,21019,21019,21019,21019,
0,0,0,0,0,0,0,21019,21019,21019,21019,21019,21019,21019,21019,
0,0,0,0,0,0,0,21019,21019,21019,21019,21019,21019,21019,21019,
0,0,0,0,0,0,0,21019,21019,21019,21019,21019,21019,21019,21019,
0,0,0,0,0,0,0,21019,21019,21019,21019,21019,21019,21019,21019
</data>
 </layer>
 <layer id="3" name="wall" width="15" height="15">
  <data encoding="csv">
21038,21039,21039,21039,21039,21039,21039,21039,21039,21039,21039,21039,21039,21039,21040,
21046,21047,21047,21047,21047,21047,21047,21047,21047,21047,21047,21047,21047,21047,21048,
0,0,0,0,0,0,0,0,0,0,0,0,0,0,0,
0,0,0,0,0,0,0,0,0,0,0,0,0,0,0,
0,0,0,0,0,0,0,0,0,0,0,0,0,0,0,
0,0,0,0,0,0,0,0,0,0,0,0,0,0,0,
0,0,0,0,0,0,0,0,0,0,0,0,0,0,0,
0,0,0,0,0,0,0,0,0,0,0,0,0,0,0,
0,0,0,0,0,0,0,0,0,0,0,0,0,0,0,
0,0,0,0,0,0,0,0,0,0,0,0,0,0,0,
0,0,0,0,0,0,0,0,0,0,0,0,0,0,0,
0,0,0,0,0,0,0,0,0,0,0,0,0,0,0,
0,0,0,0,0,0,0,0,0,0,0,0,0,0,0,
0,0,0,0,0,0,0,0,0,0,0,0,0,0,0,
0,0,0,0,0,0,0,0,0,0,0,0,0,0,0
</data>
 </layer>
 <layer id="4" name="Calque de Tuiles 3" width="15" height="15">
  <data encoding="csv">
0,0,0,0,24084,24085,24206,24206,0,28642,24898,0,0,0,0,
0,24100,24101,0,29212,29213,24214,24214,28649,28650,28651,21143,21144,0,30041,
0,24108,24109,30051,29220,29221,24214,24214,28657,28658,28659,21151,21152,0,30049,
0,0,0,0,0,0,0,0,28665,28666,28667,0,0,0,0,
0,29230,29229,29230,0,0,0,0,0,0,0,0,0,0,0,
0,0,0,0,0,0,0,0,0,0,0,0,0,0,0,
0,0,0,0,0,0,0,0,0,0,0,0,21839,21840,0,
0,0,0,0,0,0,0,0,0,0,0,0,21847,21848,0,
0,0,0,0,0,0,0,0,0,0,0,0,21855,21856,0,
24251,0,0,0,0,22183,22184,0,0,0,0,0,0,0,0,
0,0,0,0,0,0,0,0,0,0,29177,29178,29179,0,0,
0,0,0,0,0,0,0,0,0,0,29185,29186,29187,0,0,
0,0,0,0,0,0,0,0,0,0,0,0,0,0,0,
0,0,0,0,0,0,0,0,0,0,29598,29599,29600,0,0,
0,0,0,0,0,0,0,24251,0,29895,29606,29607,29608,0,24251
</data>
 </layer>
 <layer id="5" name="Calque de Tuiles 4" width="15" height="15">
  <data encoding="csv">
0,0,0,0,0,0,0,0,0,0,0,0,0,0,0,
0,0,0,0,24092,24093,0,0,0,0,0,0,0,0,0,
0,0,0,0,0,0,0,0,0,0,0,0,0,0,0,
0,0,0,0,0,0,0,0,0,0,0,0,0,0,0,
0,28614,28615,28616,0,0,0,0,29228,0,29228,0,0,0,0,
29231,28622,28623,28624,0,0,0,0,29313,29314,29315,0,0,0,0,
0,29230,29230,29229,0,0,0,29228,29321,29322,29323,29228,0,0,0,
0,0,0,0,0,0,0,29228,29329,29330,29331,0,0,0,0,
0,0,0,0,0,0,0,0,0,29228,29228,0,0,0,0,
0,0,0,0,0,0,0,0,0,0,0,0,0,0,0,
0,0,0,0,0,0,0,0,0,0,0,0,0,0,0,
0,0,0,0,0,0,0,0,0,0,0,0,0,0,0,
0,0,0,0,0,0,0,0,0,0,0,0,0,0,0,
0,0,0,0,0,0,0,0,0,0,0,0,0,0,0,
0,0,0,0,0,0,0,0,0,0,0,0,0,0,0
</data>
 </layer>
 <layer id="6" name="Calque de Tuiles 5" width="15" height="15">
  <data encoding="csv">
0,0,0,0,0,0,0,0,0,0,0,0,0,0,0,
0,0,0,0,0,0,0,0,0,0,0,0,0,0,0,
0,0,0,0,0,0,0,0,0,0,0,0,0,0,0,
0,0,0,0,0,0,0,0,0,0,0,0,0,0,0,
0,0,0,0,0,0,0,0,0,0,0,0,0,0,0,
0,0,0,0,0,0,0,0,0,0,0,0,0,0,0,
0,0,0,0,0,0,0,0,0,0,0,0,0,0,0,
0,0,0,0,0,0,0,0,0,0,0,0,0,0,0,
0,0,0,0,0,0,0,0,0,0,0,0,0,0,0,
0,0,0,0,0,0,0,0,0,0,0,0,0,0,0,
0,0,0,0,0,0,0,0,0,0,0,0,0,0,0,
0,0,0,0,0,0,0,0,0,0,0,0,0,0,0,
0,0,0,0,0,0,0,0,0,0,0,0,0,0,0,
0,0,0,0,0,0,0,0,0,0,0,0,0,0,0,
0,0,0,0,0,0,0,0,0,0,0,0,0,0,0
</data>
 </layer>
 <layer id="7" name="Calque de Tuiles 6" width="15" height="15">
  <data encoding="csv">
0,0,0,0,0,0,0,0,0,0,0,0,0,0,0,
0,0,0,0,0,0,0,0,0,0,0,0,0,0,0,
0,0,0,0,0,0,0,0,0,0,0,0,0,0,0,
0,0,0,0,0,0,0,0,0,0,0,0,0,0,0,
0,0,0,0,0,0,0,0,0,0,0,0,0,0,0,
0,0,0,0,0,0,0,0,0,0,0,0,0,0,0,
0,0,0,0,0,0,0,0,0,0,0,0,0,0,0,
0,0,0,0,0,0,0,0,0,0,0,0,0,0,0,
0,0,0,0,0,0,0,0,0,0,0,0,0,0,0,
0,0,0,0,0,0,0,0,0,0,0,0,0,0,0,
0,0,0,0,0,0,0,0,0,0,0,0,0,0,0,
0,0,0,0,0,0,0,0,0,0,0,0,0,0,0,
0,0,0,0,0,0,0,0,0,0,0,0,0,0,0,
0,0,0,0,0,0,0,0,0,0,0,0,0,0,0,
0,0,0,0,0,0,0,0,0,0,0,0,0,0,0
</data>
 </layer>
 <layer id="8" name="Calque de Tuiles 7" width="15" height="15">
  <data encoding="csv">
0,0,0,0,0,0,0,0,0,0,0,0,0,0,0,
0,0,0,0,0,0,0,0,0,0,0,0,0,0,0,
0,0,0,0,0,0,0,0,0,0,0,0,0,0,0,
0,0,0,0,0,0,0,0,0,0,0,0,0,0,0,
0,0,0,0,0,0,0,0,0,0,0,0,0,0,0,
0,0,0,0,0,0,0,0,0,0,0,0,0,0,0,
0,0,0,0,0,0,0,0,0,0,0,0,21839,21840,0,
0,0,0,0,0,0,0,0,0,0,0,0,0,0,0,
24243,0,0,0,0,0,0,0,0,0,0,0,0,0,0,
0,0,0,0,0,0,0,0,0,0,0,0,0,0,0,
0,0,0,0,0,0,0,0,0,0,0,0,0,0,0,
0,0,0,0,0,0,0,0,0,0,0,0,0,0,0,
0,0,0,0,0,0,0,0,0,0,0,0,0,0,0,
0,0,0,0,0,0,0,24243,0,0,0,0,0,0,24243,
0,0,0,0,0,0,0,0,0,0,0,0,0,0,0
</data>
 </layer>
 <group id="9" name="object">
  <objectgroup id="11" name="collisions">
   <object id="32" name="collision" type="collision" x="0.617499" y="2.69436" width="7" height="157.667"/>
   <object id="33" name="collision" type="collision" x="238.59" y="-3.90998" width="7" height="247.651"/>
   <object id="34" name="collision" type="collision" x="130.911" y="83.0616" width="42.0145" height="39.446"/>
   <object id="35" name="collision" type="collision" x="96.8373" y="7.76151" width="30.343" height="38.693"/>
   <object id="36" name="collision" type="collision" x="193.033" y="100.381" width="30.343" height="38.693"/>
   <object id="37" name="collision" type="collision" x="159.525" y="161.75" width="48.415" height="30.41"/>
   <object id="38" name="collision" type="collision" x="158.395" y="218.602" width="49.5445" height="19.115"/>
   <object id="39" name="collision" type="collision" x="15.5133" y="68.7545" width="46.5325" height="24.0095"/>
   <object id="40" name="collision" type="collision" x="16.2663" y="27.3395" width="28.4605" height="17.2325"/>
   <object id="41" name="collision" type="collision" x="246.335" y="28.0685" width="7" height="247.274" rotation="90"/>
   <object id="42" name="collision" type="collision" x="176.844" y="20.5625" width="30.343" height="25.5155"/>
   <object id="43" name="collision" type="collision" x="224.659" y="13.7855" width="23.566" height="24.386"/>
   <object id="44" name="collision" type="collision" x="65.3995" y="18.3035" width="30.343" height="22.88"/>
   <object id="45" name="collision" type="collision" x="42.433" y="20.939" width="30.343" height="24.386"/>
   <object id="46" name="collision" type="collision" x="31.138" y="39.0111" width="7" height="247.274" rotation="90"/>
   <object id="47" name="collision" type="collision" x="79.4164" y="153.479" width="7" height="80.4844" rotation="90"/>
   <object id="48" name="collision" type="collision" x="244.841" y="229.05" width="7" height="137.712" rotation="90"/>
   <object id="49" name="collision" type="collision" x="128.828" y="26.4737" width="9.67633" height="32.0527"/>
   <object id="50" name="collision" type="collision" x="166.162" y="25.307" width="9.67633" height="35.7194"/>
  </objectgroup>
  <objectgroup id="10" name="interface">
   <object id="28" name="spawn hermite_0 0" x="83.583" y="158.507">
    <point/>
   </object>
   <object id="29" name="switch teepe_1 2" x="80.0075" y="152.013" width="32" height="16"/>
   <object id="30" name="switch map_0 8" x="139.828" y="42.2592" width="25.976" height="12.6115"/>
   <object id="31" name="spawn hermite_0 1" x="143.823" y="58.3575">
    <point/>
   </object>
  </objectgroup>
 </group>
</map>
