<?xml version="1.0" encoding="UTF-8"?>
<map version="1.10" tiledversion="1.12.1" orientation="orthogonal" renderorder="right-down" width="105" height="60" tilewidth="16" tileheight="16" infinite="0" nextlayerid="31" nextobjectid="1098">
 <tileset firstgid="1" source="tileset/tileset_pokemon_sdk.tsx"/>
 <tileset firstgid="4257" source="tileset/tileset4g.tsx"/>
 <group id="13" name="layer0">
  <layer id="1" name="ground" width="105" height="60">
   <data encoding="csv">
8183,8183,8183,8183,8183,8183,8183,8183,8183,8183,8183,8183,8183,8183,8183,8183,8183,8183,8183,8183,8183,8183,8183,8183,8183,8183,8183,8183,8183,8183,8183,8183,8183,8183,8183,8183,8183,8183,8183,8183,8183,8183,8183,8183,8183,8183,8183,8183,8183,8183,8183,8183,8183,8183,8183,8183,8183,8183,8183,8183,8183,8183,8183,8183,8183,8183,8183,8183,8183,8183,8183,8183,8183,8183,8183,8183,8183,8183,8183,8183,8183,8183,8183,8183,8183,8183,8183,8183,8183,8183,8183,8183,8183,8183,8183,8183,8183,8183,8183,8183,8183,8183,8183,8183,8183,
8183,8183,8183,8183,8183,8183,8183,8183,8183,8183,8183,8183,8183,8183,8183,8183,8183,8183,8183,8183,8183,8183,8183,8183,8183,8183,8183,8183,8183,8183,8183,8183,8183,8183,8183,8183,8183,8183,8183,8183,8183,8183,8183,8183,8183,8183,8183,8183,8183,8183,8183,8183,8183,8183,8183,8183,8183,8183,8183,8183,8183,8183,8183,8183,8183,8183,8183,8183,8183,8183,8183,8183,8183,8183,8183,8183,8183,8183,8183,8183,8183,8183,8183,8183,8183,8183,8183,8183,8183,8183,8183,8183,8183,8183,8183,8183,8183,8183,8183,8183,8183,8183,8183,8183,8183,
8183,8183,8183,8183,8183,8183,8183,8183,8183,8183,8183,8183,8183,8183,8183,8183,8183,8183,8183,8183,8183,8183,8183,8183,8183,8183,8183,8183,8183,8183,8183,8183,8183,8183,8183,8183,8183,8183,8183,8183,8183,8183,8183,8183,8183,8183,8183,8183,8183,8183,8183,8183,8183,8183,8183,8183,8183,8183,8183,8183,8183,8183,8183,8183,8183,8183,8183,8183,8183,8183,8183,8183,8183,8183,8183,8183,8183,8183,8183,8183,8183,8183,8183,8183,8183,8183,8183,8183,8183,8183,8183,8183,8183,8183,8183,8183,8183,8183,8183,8183,8183,8183,8183,8183,8183,
8183,8183,8183,8183,8183,8183,8183,8183,8183,8183,8183,8183,8183,8183,8183,8183,8183,8183,8183,8183,8183,8183,8183,8183,8183,8183,8183,8183,8183,8183,8183,8183,8183,8183,8183,8183,8183,8183,8183,8183,8183,8183,8183,8183,8183,8183,8183,8183,8183,8183,8183,8183,8183,8183,8183,8183,8183,8183,8183,8183,8183,8183,8183,8183,8183,8183,8183,8183,8183,8183,8183,8183,8183,8183,8183,8183,8183,8183,8183,8183,8183,8183,8183,8183,8183,8183,8183,8183,8183,8183,8183,8183,8183,8183,8183,8183,8183,8183,8183,8183,8183,8183,8183,8183,8183,
8183,8183,8183,8183,8183,8183,8183,8183,8183,8183,8183,8183,8183,8183,8183,8183,8183,8183,8183,8183,8183,8183,8183,8183,8183,8183,8183,8183,8183,8183,8183,8183,8183,8183,8183,8183,8183,8183,8183,8183,8183,8183,8183,8183,8183,8183,8183,8183,8183,8183,8183,8183,8183,8183,8183,8183,8183,8183,8183,8183,8183,8183,8183,8183,8183,8183,8183,8183,8183,8183,8183,8183,8183,8183,8183,8183,8183,8183,8183,8183,8183,8183,8183,8183,8183,8183,8183,8183,8183,8183,8183,8183,8183,8183,8183,8183,8183,8183,8183,8183,8183,8183,8183,8183,8183,
8183,8183,8183,8183,8183,8183,8183,8183,8183,8183,8183,8183,8183,8183,8183,8183,8183,8183,8183,8183,8183,8183,7761,7762,7762,7763,8183,8183,8183,8183,8183,8183,8183,8183,8183,8183,8183,8183,8183,8183,8183,8183,8183,8183,8183,8183,8183,8183,8183,8183,8183,8183,8183,8183,8183,8183,8183,8183,8183,8183,8183,8183,8183,8183,8183,8183,8183,8183,8183,8183,8183,8183,8183,8183,8183,8183,8183,8183,8183,8183,8183,8183,8183,8183,8183,8183,8183,8183,8183,8183,8183,8183,8183,8183,8183,8183,8183,8183,8183,8183,8183,8183,8183,8183,8183,
8183,8183,8183,8183,8183,8183,8183,8183,8183,8183,8183,8183,8183,8183,8183,8183,8183,8183,8183,8183,8183,8183,7901,7902,7902,8322,7763,8183,8183,8183,8183,8183,8183,8183,8183,8183,8183,8183,8183,8183,8183,8183,8183,8183,8183,8183,8183,8183,8183,8183,8183,8183,8183,8183,8183,8183,8183,8183,8183,8183,8183,8183,8183,8183,8183,8183,8183,8183,8183,8183,8183,8183,8183,8183,8183,8183,8183,8183,8183,8183,8183,8183,8183,8183,8183,8183,8183,8183,8183,8183,8183,8183,8183,8183,8183,8183,8183,8183,8183,8183,8183,8183,8183,8183,8183,
8183,8183,8183,8183,8183,8183,8183,8183,8183,8183,8183,8183,8183,8183,8183,8183,8183,8183,8183,8183,8183,8183,7901,7902,7902,7902,7903,8183,8183,8183,8183,8183,8183,8183,8183,8183,8183,8183,8183,8183,8183,8183,8183,8183,8183,8183,8183,8183,8183,8183,8183,8183,8183,8183,8183,8183,8183,8183,8183,8183,8183,8183,8183,8183,8183,8183,8183,8183,8183,8183,8183,8183,8183,8183,8183,8183,8183,8183,8183,8183,8183,8183,8183,8183,8183,8183,8183,8183,8183,8183,8183,8183,8183,8183,8183,8183,8183,8183,8183,8183,8183,8183,8183,8183,8183,
8183,8183,8183,8183,8183,8183,8183,8183,8183,8183,8183,8183,8183,8183,8183,8183,8183,8183,8183,8183,8183,8183,8041,8181,7902,8182,8043,8183,8183,8183,8183,8183,8183,8183,8183,8183,8183,8183,8183,8183,8183,8183,8183,8183,8183,7761,7762,7763,8183,8183,8183,8183,8183,8183,8183,8183,8183,8183,8183,8183,8183,8183,8183,8183,8183,8183,8183,8183,8183,8183,8183,8183,8183,8183,8183,8183,8183,8183,8183,8183,8183,8183,8183,8183,8183,8183,8183,8183,8183,8183,8183,8183,8183,8183,8183,8183,8183,8183,8183,8183,8183,8183,8183,8183,8183,
8183,8183,8183,8183,8183,8183,8183,8183,8183,8183,8183,8183,8183,8183,8183,8183,8183,8183,8183,8183,8183,8183,8183,7901,7902,7903,8183,8183,8183,8183,8183,8183,8183,8183,8183,8183,8183,8183,8183,8183,8183,8183,8183,8183,8183,7901,7902,7903,8183,8183,8183,8183,8183,8183,8183,8183,8183,8183,8183,8183,8183,8183,8183,8183,8183,8183,8183,8183,8183,8183,8183,8183,8183,8183,8183,8183,8183,8183,8183,8183,8183,8183,8183,8183,8183,8183,8183,8183,8183,8183,8183,8183,8183,8183,8183,8183,8183,8183,8183,8183,8183,8183,8183,8183,8183,
8183,8183,8183,8183,8183,8183,8183,8183,8183,8183,8183,8183,8183,8183,8183,8183,8183,8183,8183,8183,8183,8183,8183,7901,7902,7903,8183,8183,8183,8183,8183,8183,8183,8183,8183,8183,8183,8183,8183,8183,8183,8183,8183,8183,8183,7901,7902,7903,8183,8183,8183,8183,8183,8183,8183,8183,8183,8183,8183,8183,8183,8183,8183,8183,8183,8183,8183,8183,8183,8183,8183,8183,8183,8183,8183,8183,8183,8183,8183,8183,8183,8183,8183,8183,8183,8183,8183,8183,8183,8183,8183,8183,8183,8183,8183,8183,8183,8183,8183,8183,8183,8183,8183,8183,8183,
8183,8183,8183,8183,8183,8183,8183,8183,8183,8183,8183,8183,8183,8183,8183,8183,8183,8183,8183,8183,8183,8183,7761,8321,7902,8322,7763,8183,8183,8183,8183,8183,8183,8183,8183,8183,8183,8183,8183,8183,8183,8183,8183,8183,8183,7901,7902,7903,8183,8183,8183,8183,8183,8183,8183,8183,8183,8183,8183,8183,8183,8183,8183,8183,8183,8183,8183,8183,8183,8183,8183,8183,8183,8183,8183,8183,8183,8183,8183,8183,8183,8183,8183,8183,8183,8183,8183,8183,8183,8183,8183,8183,8183,8183,8183,8183,8183,8183,8183,8183,8183,8183,8183,8183,8183,
8183,8183,8183,8183,8183,8183,8183,8183,8183,8183,8183,8183,8183,8183,8183,8183,8183,8183,8183,8183,8183,8183,7901,7902,7902,7902,7903,8183,8183,8183,8183,8183,8183,8183,8183,8183,8183,8183,8183,8183,8183,8183,8183,8183,8183,7901,7902,7903,8183,8183,8183,8183,8183,8183,8183,8183,8183,8183,8183,8183,8183,8183,8183,8183,8183,8183,8183,8183,8183,8183,8183,8183,8183,8183,8183,8183,8183,8183,8183,8183,8183,8183,8183,8183,8183,8183,8183,8183,8183,8183,8183,8183,8183,8183,8183,8183,8183,8183,8183,8183,8183,8183,8183,8183,8183,
8183,8183,8183,8183,8183,8183,8183,8183,8183,8183,8183,8183,8183,8183,8183,8183,8183,8183,8183,8183,8183,8183,7901,7902,7902,7902,7903,8183,8183,8183,8183,8183,8183,8183,8183,8183,8183,8183,8183,8183,8183,8183,8183,8183,8183,7901,7902,7903,8183,8183,8183,8183,8183,8183,8183,8183,8183,8183,8183,8183,8183,8183,8183,8183,8183,8183,8183,8183,8183,8183,8183,8183,8183,8183,8183,8183,8183,8183,8183,8183,8183,8183,8183,8183,8183,8183,8183,8183,8183,8183,8183,8183,8183,8183,8183,8183,8183,8183,8183,8183,8183,8183,8183,8183,8183,
8183,8183,8183,8183,8183,8183,8183,8183,8183,8183,8183,8183,8183,8183,8183,8183,8183,8183,8183,8183,8183,8183,8041,8181,7902,8182,8043,8183,8183,8183,8183,8183,8183,8183,8183,8183,8183,8183,8183,8183,8183,8183,8183,8183,8183,7901,7902,7903,8183,8183,8183,8183,8183,8183,8183,8183,8183,8183,8183,8183,8183,8183,8183,8183,8183,8183,8183,8183,8183,8183,8183,8183,8183,8183,8183,8183,8183,8183,8183,8183,8183,8183,8183,8183,8183,8183,8183,8183,8183,8183,8183,8183,8183,8183,8183,8183,8183,8183,8183,8183,8183,8183,8183,8183,8183,
8183,8183,8183,8183,8183,8183,8183,8183,8183,8183,8183,8183,8183,8183,8183,8183,8183,8183,8183,8183,8183,8183,8183,7901,7902,7903,8183,8183,8183,8183,8183,8183,8183,8183,8183,8183,8183,8183,8183,8183,8183,8183,8183,8183,8183,7901,7902,7903,8183,8183,8183,8183,8183,8183,8183,8183,8183,8183,8183,8183,8183,8183,8183,8183,8183,8183,8183,8183,8183,8183,8183,8183,8183,8183,8183,8183,8183,8183,8183,8183,8183,8183,8183,8183,8183,8183,8183,8183,8183,8183,8183,8183,8183,8183,8183,8183,8183,8183,8183,8183,8183,8183,8183,8183,8183,
8183,8183,8183,8183,8183,8183,8183,8183,8183,8183,8183,8183,8183,8183,8183,8183,8183,8183,8183,8183,8183,8183,8183,7901,7902,7903,8183,8183,8183,8183,8183,7761,7762,7763,8183,8183,8183,8183,8183,8183,8183,8183,8183,8183,8183,7901,7902,7903,8183,8183,8183,8183,8183,8183,8183,8183,8183,8183,8183,8183,8183,8183,8183,8183,8183,8183,8183,8183,8183,8183,8183,8183,8183,8183,8183,8183,8183,8183,8183,8183,8183,8183,8183,8183,8183,8183,8183,8183,8183,8183,8183,8183,8183,8183,8183,8183,8183,8183,8183,8183,8183,8183,8183,8183,8183,
8183,8183,8183,8183,8183,8183,8183,8183,8183,8183,8183,8183,8183,8183,8183,8183,8183,8183,8183,8183,8183,8183,7761,8321,7902,8322,7763,8183,8183,8183,8183,7901,7902,7903,8183,8183,8183,8183,8183,8183,8183,8183,8183,8183,8183,7901,7902,7903,8183,8183,8183,8183,8183,8183,8183,8183,8183,8183,8183,8183,8183,8183,8183,8183,8183,8183,8183,8183,8183,8183,8183,8183,8183,8183,8183,8183,8183,8183,8183,8183,8183,8183,8183,8183,8183,8183,8183,8183,8183,8183,8183,8183,8183,8183,8183,8183,8183,8183,8183,8183,8183,8183,8183,8183,8183,
8183,8183,8183,8183,8183,8183,8183,8183,7761,7762,7762,7762,7762,7762,7762,7762,7762,7762,7762,7762,7762,7762,8321,7902,7902,7902,8322,7762,7762,7762,7762,8321,7902,8322,7762,7762,7762,7763,8183,8183,8183,8183,8183,8183,8183,7901,7902,7903,8183,8183,8183,8183,8183,8183,8183,8183,8183,8183,8183,8183,8183,8183,8183,8183,8183,8183,8183,8183,8183,8183,8183,8183,8183,8183,8183,8183,8183,8183,8183,8183,8183,8183,8183,8183,8183,8183,8183,8183,8183,8183,8183,8183,8183,8183,8183,8183,8183,8183,8183,8183,8183,8183,8183,8183,8183,
8183,8183,8183,8183,8183,8183,8183,8183,7901,7902,7902,7902,7902,7902,7902,7902,7902,7902,7902,7902,7902,7902,7902,7902,7902,7902,7902,7902,7902,7902,7902,7902,7902,7902,7902,7902,7902,8322,7763,8183,8183,8183,8183,8183,8183,7901,7902,7903,8183,8183,8183,8183,8183,8183,8183,8183,8183,8183,8183,8183,8183,8183,8183,8183,8183,8183,8183,8183,8183,8183,8183,8183,8183,8183,8183,8183,8183,8183,8183,8183,8183,8183,8183,8183,8183,8183,8183,8183,8183,8183,8183,8183,8183,8183,8183,8183,8183,8183,8183,8183,8183,8183,8183,8183,8183,
8183,8183,8183,8183,8183,8183,8183,8183,8041,8042,8042,8042,8042,8042,8042,8042,8042,8042,8042,8042,8042,8042,8181,7902,7902,7902,8182,8042,8042,8042,8042,8042,8042,8042,8042,8181,7902,7902,8322,7762,7763,8183,8183,8183,7761,8321,7902,7903,8183,8183,8183,8183,8183,8183,8183,8183,8183,8183,8183,8183,8183,7761,7762,7762,7762,7762,7762,7763,8183,8183,8183,8183,8183,8183,8183,8183,8183,8183,8183,8183,8183,8183,8183,8183,8183,8183,8183,8183,8183,8183,8183,8183,8183,8183,8183,8183,8183,8183,8183,8183,8183,8183,8183,8183,8183,
8183,8183,8183,8183,8183,8183,8183,8183,8183,8183,8183,8183,8183,8183,8183,8183,8183,8183,8183,8183,8183,8183,8041,8181,7902,7902,7903,8183,8183,8183,8183,8183,8183,8183,8183,8041,8181,7902,7902,7902,8322,7762,7763,7761,8321,7902,7902,8322,7762,7763,8183,8183,8183,8183,8183,8183,8183,8183,8183,7761,7762,8321,7902,7902,7902,7902,7902,8322,7763,8183,8183,8183,8183,8183,8183,8183,8183,8183,8183,8183,8183,8183,8183,8183,8183,8183,8183,8183,8183,8183,8183,8183,8183,8183,8183,8183,8183,8183,8183,8183,8183,8183,8183,8183,8183,
8183,8183,8183,8183,8183,8183,8183,8183,8183,8183,8183,8183,8183,8183,8183,8183,8183,8183,8183,8183,8183,8183,8183,8041,8181,7902,7903,8183,8183,8183,8183,8183,8183,8183,8183,8183,8041,8042,8181,7902,7902,7902,8322,8321,7902,7902,7902,7902,7902,8322,7762,7762,7762,7762,7762,7763,8183,8183,7761,8321,7902,7902,7902,8182,8042,8181,7902,7902,7903,8183,8183,8183,8183,8183,8183,8183,8183,8183,8183,8183,8183,8183,8183,8183,8183,8183,8183,8183,8183,8183,8183,8183,8183,8183,8183,8183,8183,8183,8183,8183,8183,8183,8183,8183,8183,
8183,8183,8183,8183,8183,8183,8183,8183,8183,8183,8183,8183,8183,8183,8183,8183,8183,8183,8183,8183,8183,8183,8183,8183,7901,7902,7903,8183,8183,8183,8183,8183,8183,8183,8183,8183,8183,8183,8041,8042,8181,7902,7902,7902,7902,8182,8042,8181,7902,7902,7902,7902,7902,7902,7902,8322,7762,7762,8321,7902,7902,8182,8042,8043,8183,8041,8042,8042,8043,8183,8183,8183,8183,8183,8183,8183,8183,8183,8183,8183,8183,8183,8183,8183,8183,8183,8183,8183,8183,8183,8183,8183,8183,8183,8183,8183,8183,8183,8183,8183,8183,8183,8183,8183,8183,
8183,8183,8183,8183,8183,8183,8183,8183,8183,8183,8183,8183,8183,8183,8183,8183,8183,8183,8183,8183,8183,8183,8183,8183,7901,7902,7903,8183,8183,8183,8183,8183,8183,8183,8183,8183,8183,8183,8183,8183,8041,8042,8042,8042,8042,8043,8183,8041,8042,8042,8042,8042,8042,8042,8181,7902,7902,7902,7902,7902,8182,8043,8183,8183,8183,8183,8183,8183,8183,8183,8183,8183,8183,8183,8183,8183,8183,8183,8183,8183,8183,8183,8183,8183,8183,8183,8183,8183,8183,8183,8183,8183,8183,8183,8183,8183,8183,8183,8183,8183,8183,8183,8183,8183,8183,
8183,8183,8183,8183,8183,8183,8183,8183,8183,8183,8183,8183,8183,8183,7761,7762,7763,8183,8183,8183,8183,8183,8183,8183,7901,7902,7903,8183,8183,8183,8183,8183,8183,8183,8183,8183,8183,8183,8183,8183,8183,8183,8183,8183,8183,8183,8183,8183,8183,8183,8183,8183,8183,8183,8041,8181,7902,7902,8182,8042,8043,8183,8183,8183,8183,8183,8183,8183,8183,8183,8183,8183,8183,8183,8183,8183,8183,8183,8183,8183,8183,8183,8183,8183,8183,8183,8183,8183,8183,8183,8183,8183,8183,8183,8183,8183,8183,8183,8183,8183,8183,8183,8183,8183,8183,
8183,8183,8183,8183,8183,8183,8183,8183,8183,8183,8183,8183,8183,8183,7901,7902,7903,8183,8183,8183,8183,8183,8183,8183,7901,7902,7903,8183,8183,7761,7762,7763,8183,8183,8183,8183,8183,8183,8183,8183,8183,8183,8183,8183,8183,8183,8183,8183,8183,8183,8183,8183,8183,8183,8183,8041,8181,7902,7903,8183,8183,8183,8183,8183,8183,8183,8183,8183,8183,8183,8183,8183,8183,8183,8183,8183,8183,8183,8183,8183,8183,8183,8183,8183,8183,8183,8183,8183,8183,8183,8183,8183,8183,8183,8183,8183,8183,8183,8183,8183,8183,8183,8183,8183,8183,
8183,8183,8183,8183,8183,8183,8183,8183,8183,8183,8183,8183,8183,8183,7901,7902,8322,7763,8183,8183,8183,8183,8183,8183,7901,7902,7903,8183,8183,7901,7902,7903,8183,8183,8183,8183,8183,8183,8183,8183,8183,8183,8183,8183,8183,8183,8183,8183,8183,8183,8183,8183,8183,8183,8183,8183,7901,7902,8322,7763,8183,8183,7761,7762,7763,8183,8183,8183,8183,8183,8183,8183,8183,8183,8183,8183,8183,8183,8183,8183,8183,8183,8183,8183,8183,8183,8183,8183,8183,8183,8183,8183,8183,8183,8183,8183,8183,8183,8183,8183,8183,8183,8183,8183,8183,
8183,8183,8183,8183,8183,8183,8183,8183,8183,8183,8183,8183,8183,8183,7901,7902,7902,7903,8183,8183,8183,8183,8183,8183,7901,7902,7903,8183,8183,7901,7902,7903,8183,8183,8183,8183,8183,8183,8183,8183,8183,8183,8183,8183,8183,8183,8183,8183,8183,8183,8183,8183,8183,8183,8183,8183,8041,8181,7902,7903,8183,7761,8321,7902,7903,8183,8183,8183,8183,8183,8183,8183,8183,8183,8183,8183,8183,8183,8183,8183,8183,8183,8183,8183,8183,8183,8183,8183,8183,8183,8183,8183,8183,8183,8183,8183,8183,8183,8183,8183,8183,8183,8183,8183,8183,
8183,8183,8183,8183,8183,8183,8183,8183,8183,8183,8183,8183,8183,8183,8041,8042,8181,7903,8183,8183,8183,8183,8183,8183,7901,7902,7903,8183,7761,8321,7902,7903,8183,8183,8183,8183,8183,8183,8183,8183,8183,8183,8183,8183,8183,8183,8183,8183,8183,8183,8183,8183,8183,8183,8183,8183,8183,7901,7902,8322,7762,8321,7902,7902,8322,7763,8183,8183,8183,8183,8183,8183,8183,8183,8183,8183,8183,8183,8183,8183,8183,8183,8183,8183,8183,8183,8183,8183,8183,8183,8183,8183,8183,8183,8183,8183,8183,8183,8183,8183,8183,8183,8183,8183,8183,
8183,8183,8183,8183,8183,8183,8183,8183,8183,8183,8183,8183,8183,8183,8183,8183,7901,8322,7762,7762,7762,7762,7762,7762,8321,7902,8322,7763,7901,7902,7902,7903,8183,8183,8183,8183,8183,8183,8183,8183,8183,8183,8183,8183,8183,8183,8183,8183,8183,8183,8183,8183,8183,8183,8183,8183,8183,7901,7902,7902,7902,7902,7902,7902,7902,7903,8183,8183,8183,8183,8183,8183,8183,8183,8183,8183,8183,8183,8183,8183,8183,8183,8183,8183,8183,8183,8183,8183,8183,8183,8183,8183,8183,8183,8183,8183,8183,8183,8183,8183,8183,8183,8183,8183,8183,
8183,8183,8183,8183,8183,8183,8183,8183,8183,8183,8183,8183,8183,8183,8183,8183,8041,8181,7902,7902,7902,7902,7902,7902,7902,7902,7902,8322,8321,7902,8182,8043,8183,8183,8183,8183,8183,8183,8183,8183,8183,8183,8183,8183,8183,8183,8183,8183,8183,8183,8183,8183,8183,8183,8183,8183,8183,7901,7902,8182,8042,8042,8042,8042,8042,8043,8183,8183,8183,8183,8183,8183,8183,8183,8183,8183,8183,8183,8183,8183,8183,8183,8183,8183,8183,8183,8183,8183,8183,8183,8183,8183,8183,8183,8183,8183,8183,8183,8183,8183,8183,8183,8183,8183,8183,
8183,8183,8183,8183,8183,8183,8183,8183,8183,8183,8183,8183,8183,8183,8183,8183,8183,7901,7902,7902,8182,8042,8042,8042,8042,8042,8042,8181,7902,7902,7903,8183,8183,8183,8183,8183,8183,8183,8183,8183,8183,8183,8183,8183,8183,8183,8183,8183,8183,8183,8183,8183,8183,8183,8183,8183,8183,7901,7902,7903,8183,8183,8183,8183,8183,8183,8183,8183,8183,8183,8183,8183,8183,8183,8183,8183,8183,8183,8183,8183,8183,8183,8183,8183,8183,8183,8183,8183,8183,8183,8183,8183,8183,8183,8183,8183,8183,8183,8183,8183,8183,8183,8183,8183,8183,
8183,8183,8183,8183,8183,8183,8183,8183,8183,8183,8183,8183,8183,8183,8183,7761,7762,8321,7902,8182,8043,8183,8183,8183,8183,8183,8183,8041,8181,7902,7903,8183,8183,8183,8183,8183,8183,8183,8183,8183,8183,8183,8183,8183,8183,8183,8183,8183,8183,8183,8183,8183,8183,8183,8183,8183,8183,7901,7902,8322,7762,7763,8183,8183,8183,8183,8183,8183,8183,8183,8183,8183,8183,8183,8183,8183,8183,8183,8183,8183,8183,8183,8183,8183,8183,8183,8183,8183,8183,8183,8183,8183,8183,8183,8183,8183,8183,8183,8183,8183,8183,8183,8183,8183,8183,
8183,8183,8183,8183,8183,8183,8183,8183,8183,8183,8183,8183,8183,8183,8183,8041,8042,8181,7902,7903,8183,8183,8183,8183,8183,8183,8183,8183,7901,7902,7903,8183,8183,8183,8183,8183,8183,8183,8183,8183,8183,8183,8183,8183,8183,8183,8183,8183,8183,8183,8183,8183,8183,8183,8183,8183,8183,7901,7902,7902,7902,7903,8183,8183,8183,8183,8183,8183,8183,8183,8183,8183,8183,8183,8183,8183,8183,8183,8183,8183,8183,8183,8183,8183,8183,8183,8183,8183,8183,8183,8183,8183,8183,8183,8183,8183,8183,8183,8183,8183,8183,8183,8183,8183,8183,
8183,8183,8183,8183,8183,8183,8183,8183,8183,8183,8183,8183,8183,8183,8183,8183,8183,7901,7902,7903,8183,8183,8183,8183,8183,8183,8183,8183,7901,7902,7903,8183,8183,8183,8183,8183,8183,8183,8183,8183,8183,8183,8183,8183,8183,8183,8183,8183,8183,8183,8183,8183,8183,8183,8183,8183,8183,8041,8042,8181,7902,7903,8183,8183,8183,8183,8183,8183,8183,8183,8183,8183,8183,8183,8183,8183,8183,8183,8183,8183,8183,8183,8183,8183,8183,8183,8183,8183,8183,8183,8183,8183,8183,8183,8183,8183,8183,8183,8183,8183,8183,8183,8183,8183,8183,
8183,8183,8183,8183,8183,8183,8183,8183,8183,8183,8183,8183,8183,8183,8183,8183,8183,7901,7902,7903,8183,8183,8183,8183,8183,8183,8183,8183,7901,7902,7903,8183,8183,8183,8183,8183,8183,8183,8183,8183,8183,8183,8183,8183,8183,8183,8183,8183,8183,8183,8183,8183,8183,8183,8183,8183,8183,8183,8183,7901,7902,8322,7763,8183,8183,8183,8183,8183,8183,8183,8183,8183,8183,8183,8183,8183,8183,8183,8183,8183,8183,8183,8183,8183,8183,8183,8183,8183,8183,8183,8183,8183,8183,8183,8183,8183,8183,8183,8183,8183,8183,8183,8183,8183,8183,
8183,8183,8183,8183,8183,8183,8183,8183,8183,8183,8183,8183,8183,8183,8183,8183,8183,7901,7902,7903,8183,8183,8183,8183,8183,8183,8183,8183,7901,7902,7903,8183,8183,8183,8183,8183,8183,8183,8183,8183,8183,8183,8183,8183,8183,8183,8183,8183,8183,8183,8183,8183,8183,8183,8183,8183,8183,8183,8183,7901,7902,7902,7903,8183,8183,8183,8183,8183,8183,8183,8183,8183,8183,8183,8183,8183,8183,8183,8183,8183,8183,8183,8183,8183,8183,8183,8183,8183,8183,8183,8183,8183,8183,8183,8183,8183,8183,8183,8183,8183,8183,8183,8183,8183,8183,
8183,8183,8183,8183,8183,8183,8183,8183,8183,8183,8183,8183,8183,8183,8183,8183,8183,8041,8181,8322,7763,8183,8183,8183,8183,8183,8183,7761,8321,7902,8322,7763,8183,8183,8183,8183,8183,8183,8183,8183,8183,8183,8183,8183,8183,8183,8183,8183,8183,8183,8183,8183,8183,8183,8183,8183,8183,8183,8183,8041,8181,7902,7903,8183,8183,8183,8183,8183,8183,8183,8183,8183,8183,8183,8183,8183,8183,8183,8183,8183,8183,8183,8183,8183,8183,8183,8183,8183,8183,8183,8183,8183,8183,8183,8183,8183,8183,8183,8183,8183,8183,8183,8183,8183,8183,
8183,8183,8183,8183,8183,8183,8183,8183,8183,8183,8183,8183,8183,8183,8183,8183,8183,8183,7901,7902,8322,7762,7762,7762,7762,7762,7762,8321,7902,7902,7902,8322,7762,7763,8183,8183,8183,8183,8183,8183,8183,8183,8183,8183,8183,8183,8183,8183,8183,8183,8183,8183,8183,8183,8183,8183,8183,8183,8183,8183,7901,7902,7903,8183,8183,8183,8183,8183,8183,8183,8183,8183,8183,8183,8183,8183,8183,8183,8183,8183,8183,8183,8183,8183,8183,8183,8183,8183,8183,8183,8183,8183,8183,8183,8183,8183,8183,8183,8183,8183,8183,8183,8183,8183,8183,
8183,8183,8183,8183,8183,8183,8183,8183,8183,8183,8183,8183,8183,8183,8183,8183,8183,8183,8041,8042,8181,7902,7902,7902,7902,7902,7902,8182,8042,8181,7902,7902,7902,7903,8183,8183,8183,8183,8183,8183,8183,8183,8183,8183,8183,8183,8183,8183,8183,8183,8183,8183,8183,8183,8183,8183,8183,8183,8183,8183,7901,7902,7903,8183,8183,8183,8183,8183,8183,8183,8183,8183,8183,8183,8183,8183,8183,8183,8183,8183,8183,8183,8183,8183,8183,8183,8183,8183,8183,8183,8183,8183,8183,8183,8183,8183,8183,8183,8183,8183,8183,8183,8183,8183,8183,
8183,8183,8183,8183,8183,8183,8183,8183,8183,8183,8183,8183,8183,8183,8183,8183,8183,8183,8183,8183,8041,8042,8042,8042,8042,8042,8042,8043,8183,8041,7902,7902,7902,7903,8183,8183,8183,8183,8183,8183,8183,8183,8183,8183,8183,8183,8183,8183,8183,8183,8183,8183,8183,8183,8183,8183,8183,8183,8183,8183,7901,7902,7903,8183,8183,8183,8183,8183,8183,8183,8183,8183,8183,8183,8183,8183,8183,8183,8183,8183,8183,8183,8183,8183,8183,8183,8183,8183,8183,8183,8183,8183,8183,8183,8183,8183,8183,8183,8183,8183,8183,8183,8183,8183,8183,
8183,8183,8183,8183,8183,8183,8183,8183,8183,8183,8183,8183,8183,8183,8183,8183,8183,8183,8183,8183,8183,8183,8183,8183,8183,8183,8183,8183,8183,8183,8183,8041,8042,8043,8183,8183,8183,8183,8183,8183,8183,8183,8183,8183,8183,8183,8183,8183,8183,8183,8183,8183,8183,8183,8183,8183,8183,8183,8183,8183,8041,8042,8043,8183,8183,8183,8183,8183,8183,8183,8183,8183,8183,8183,8183,8183,8183,8183,8183,8183,8183,8183,8183,8183,8183,8183,8183,8183,8183,8183,8183,8183,8183,8183,8183,8183,8183,8183,8183,8183,8183,8183,8183,8183,8183,
8183,8183,8183,8183,8183,8183,8183,8183,8183,8183,8183,8183,8183,8183,8183,8183,8183,8183,8183,8183,8183,8183,8183,8183,8183,8183,8183,8183,8183,8183,8183,8183,8183,8183,8183,8183,8183,8183,8183,8183,8183,8183,8183,8183,8183,8183,8183,8183,8183,8183,8183,8183,8183,8183,8183,8183,8183,8183,8183,8183,8183,8183,8183,8183,8183,8183,8183,8183,8183,8183,8183,8183,8183,8183,8183,8183,8183,8183,8183,8183,8183,8183,8183,8183,8183,8183,8183,8183,8183,8183,8183,8183,8183,8183,8183,8183,8183,8183,8183,8183,8183,8183,8183,8183,8183,
8183,8183,8183,8183,8183,8183,8183,8183,8183,8183,8183,8183,8183,8183,8183,8183,8183,8183,8183,8183,8183,8183,8183,8183,8183,8183,8183,8183,8183,8183,8183,8183,8183,8183,8183,8183,8183,8183,8183,8183,8183,8183,8183,8183,8183,8183,8183,8183,8183,8183,8183,8183,8183,8183,8183,8183,8183,8183,8183,8183,8183,8183,8183,8183,8183,8183,8183,8183,8183,8183,8183,8183,8183,8183,8183,8183,8183,8183,8183,8183,8183,8183,8183,8183,8183,8183,8183,8183,8183,8183,8183,8183,8183,8183,8183,8183,8183,8183,8183,8183,8183,8183,8183,8183,8183,
8183,8183,8183,8183,8183,8183,8183,8183,8183,8183,8183,8183,8183,8183,8183,8183,8183,8183,8183,8183,8183,8183,8183,8183,8183,8183,8183,8183,8183,8183,8183,8183,8183,8183,8183,8183,8183,8183,8183,8183,8183,8183,8183,8183,8183,8183,8183,8183,8183,8183,8183,8183,8183,8183,8183,8183,8183,8183,8183,8183,8183,8183,8183,8183,8183,8183,8183,8183,8183,8183,8183,8183,8183,8183,8183,8183,8183,8183,8183,8183,8183,8183,8183,8183,8183,8183,8183,8183,8183,8183,8183,8183,8183,8183,8183,8183,8183,8183,8183,8183,8183,8183,8183,8183,8183,
8183,8183,8183,8183,8183,8183,8183,8183,8183,8183,8183,8183,8183,8183,8183,8183,8183,8183,8183,8183,8183,8183,8183,8183,8183,8183,8183,8183,8183,8183,8183,8183,8183,8183,8183,8183,8183,8183,8183,8183,8183,8183,8183,8183,8183,8183,8183,8183,8183,8183,8183,8183,8183,8183,8183,8183,8183,8183,8183,8183,8183,8183,8183,8183,8183,8183,8183,8183,8183,8183,8183,8183,8183,8183,8183,8183,8183,8183,8183,8183,8183,8183,8183,8183,8183,8183,8183,8183,8183,8183,8183,8183,8183,8183,8183,8183,8183,8183,8183,8183,8183,8183,8183,8183,8183,
8183,8183,8183,8183,8183,8183,8183,8183,8183,8183,8183,8183,8183,8183,8183,8183,8183,8183,8183,8183,8183,8183,8183,8183,8183,8183,8183,8183,8183,8183,8183,8183,8183,8183,8183,8183,8183,8183,8183,8183,8183,8183,8183,8183,8183,8183,8183,8183,8183,8183,8183,8183,8183,8183,8183,8183,8183,8183,8183,8183,8183,8183,8183,8183,8183,8183,8183,8183,8183,8183,8183,8183,8183,8183,8183,8183,8183,8183,8183,8183,8183,8183,8183,8183,8183,8183,8183,8183,8183,8183,8183,8183,8183,8183,8183,8183,8183,8183,8183,8183,8183,8183,8183,8183,8183,
8183,8183,8183,8183,8183,8183,8183,8183,8183,8183,8183,8183,8183,8183,8183,8183,8183,8183,8183,8183,8183,8183,8183,8183,8183,8183,8183,8183,8183,8183,8183,8183,8183,8183,8183,8183,8183,8183,8183,8183,8183,8183,8183,8183,8183,8183,8183,8183,8183,8183,8183,8183,8183,8183,8183,8183,8183,8183,8183,8183,8183,8183,8183,8183,8183,8183,8183,8183,8183,8183,8183,8183,8183,8183,8183,8183,8183,8183,8183,8183,8183,8183,8183,8183,8183,8183,8183,8183,8183,8183,8183,8183,8183,8183,8183,8183,8183,8183,8183,8183,8183,8183,8183,8183,8183,
8183,8183,8183,8183,8183,8183,8183,8183,8183,8183,8183,8183,8183,8183,8183,8183,8183,8183,8183,8183,8183,8183,8183,8183,8183,8183,8183,8183,8183,8183,8183,8183,8183,8183,8183,8183,8183,8183,8183,8183,8183,8183,8183,8183,8183,8183,8183,8183,8183,8183,8183,8183,8183,8183,8183,8183,8183,8183,8183,8183,8183,8183,8183,8183,8183,8183,8183,8183,8183,8183,8183,8183,8183,8183,8183,8183,8183,8183,8183,8183,8183,8183,8183,8183,8183,8183,8183,8183,8183,8183,8183,8183,8183,8183,8183,8183,8183,8183,8183,8183,8183,8183,8183,8183,8183,
8183,8183,8183,8183,8183,8183,8183,8183,8183,8183,8183,8183,8183,8183,8183,8183,8183,8183,8183,8183,8183,8183,8183,8183,8183,8183,8183,8183,8183,8183,8183,8183,8183,8183,8183,8183,8183,8183,8183,8183,8183,8183,8183,8183,8183,8183,8183,8183,8183,8183,8183,8183,8183,8183,8183,8183,8183,8183,8183,8183,8183,8183,8183,8183,8183,8183,8183,8183,8183,8183,8183,8183,8183,8183,8183,8183,8183,8183,8183,8183,8183,8183,8183,8183,8183,8183,8183,8183,8183,8183,8183,8183,8183,8183,8183,8183,8183,8183,8183,8183,8183,8183,8183,8183,8183,
8183,8183,8183,8183,8183,8183,8183,8183,8183,8183,8183,8183,8183,8183,8183,8183,8183,8183,8183,8183,8183,8183,8183,8183,8183,8183,8183,8183,8183,8183,8183,8183,8183,8183,8183,8183,8183,8183,8183,8183,8183,8183,8183,8183,8183,8183,8183,8183,8183,8183,8183,8183,8183,8183,8183,8183,8183,8183,8183,8183,8183,8183,8183,8183,8183,8183,8183,8183,8183,8183,8183,8183,8183,8183,8183,8183,8183,8183,8183,8183,8183,8183,8183,8183,8183,8183,8183,8183,8183,8183,8183,8183,8183,8183,8183,8183,8183,8183,8183,8183,8183,8183,8183,8183,8183,
8183,8183,8183,8183,8183,8183,8183,8183,8183,8183,8183,8183,8183,8183,8183,8183,8183,8183,8183,8183,8183,8183,8183,8183,8183,8183,8183,8183,8183,8183,8183,8183,8183,8183,8183,8183,8183,8183,8183,8183,8183,8183,8183,8183,8183,8183,8183,8183,8183,8183,8183,8183,8183,8183,8183,8183,8183,8183,8183,8183,8183,8183,8183,8183,8183,8183,8183,8183,8183,8183,8183,8183,8183,8183,8183,8183,8183,8183,8183,8183,8183,8183,8183,8183,8183,8183,8183,8183,8183,8183,8183,8183,8183,8183,8183,8183,8183,8183,8183,8183,8183,8183,8183,8183,8183,
8183,8183,8183,8183,8183,8183,8183,8183,8183,8183,8183,8183,8183,8183,8183,8183,8183,8183,8183,8183,8183,8183,8183,8183,8183,8183,8183,8183,8183,8183,8183,8183,8183,8183,8183,8183,8183,8183,8183,8183,8183,8183,8183,8183,8183,8183,8183,8183,8183,8183,8183,8183,8183,8183,8183,8183,8183,8183,8183,8183,8183,8183,8183,8183,8183,8183,8183,8183,8183,8183,8183,8183,8183,8183,8183,8183,8183,8183,8183,8183,8183,8183,8183,8183,8183,8183,8183,8183,8183,8183,8183,8183,8183,8183,8183,8183,8183,8183,8183,8183,8183,8183,8183,8183,8183,
8183,8183,8183,8183,8183,8183,8183,8183,8183,8183,8183,8183,8183,8183,8183,8183,8183,8183,8183,8183,8183,8183,8183,8183,8183,8183,8183,8183,8183,8183,8183,8183,8183,8183,8183,8183,8183,8183,8183,8183,8183,8183,8183,8183,8183,8183,8183,8183,8183,8183,8183,8183,8183,8183,8183,8183,8183,8183,8183,8183,8183,8183,8183,8183,8183,8183,8183,8183,8183,8183,8183,8183,8183,8183,8183,8183,8183,8183,8183,8183,8183,8183,8183,8183,8183,8183,8183,8183,8183,8183,8183,8183,8183,8183,8183,8183,8183,8183,8183,8183,8183,8183,8183,8183,8183,
8183,8183,8183,8183,8183,8183,8183,8183,8183,8183,8183,8183,8183,8183,8183,8183,8183,8183,8183,8183,8183,8183,8183,8183,8183,8183,8183,8183,8183,8183,8183,8183,8183,8183,8183,8183,8183,8183,8183,8183,8183,8183,8183,8183,8183,8183,8183,8183,8183,8183,8183,8183,8183,8183,8183,8183,8183,8183,8183,8183,8183,8183,8183,8183,8183,8183,8183,8183,8183,8183,8183,8183,8183,8183,8183,8183,8183,8183,8183,8183,8183,8183,8183,8183,8183,8183,8183,8183,8183,8183,8183,8183,8183,8183,8183,8183,8183,8183,8183,8183,8183,8183,8183,8183,8183,
8183,8183,8183,8183,8183,8183,8183,8183,8183,8183,8183,8183,8183,8183,8183,8183,8183,8183,8183,8183,8183,8183,8183,8183,8183,8183,8183,8183,8183,8183,8183,8183,8183,8183,8183,8183,8183,8183,8183,8183,8183,8183,8183,8183,8183,8183,8183,8183,8183,8183,8183,8183,8183,8183,8183,8183,8183,8183,8183,8183,8183,8183,8183,8183,8183,8183,8183,8183,8183,8183,8183,8183,8183,8183,8183,8183,8183,8183,8183,8183,8183,8183,8183,8183,8183,8183,8183,8183,8183,8183,8183,8183,8183,8183,8183,8183,8183,8183,8183,8183,8183,8183,8183,8183,8183,
8183,8183,8183,8183,8183,8183,8183,8183,8183,8183,8183,8183,8183,8183,8183,8183,8183,8183,8183,8183,8183,8183,8183,8183,8183,8183,8183,8183,8183,8183,8183,8183,8183,8183,8183,8183,8183,8183,8183,8183,8183,8183,8183,8183,8183,8183,8183,8183,8183,8183,8183,8183,8183,8183,8183,8183,8183,8183,8183,8183,8183,8183,8183,8183,8183,8183,8183,8183,8183,8183,8183,8183,8183,8183,8183,8183,8183,8183,8183,8183,8183,8183,8183,8183,8183,8183,8183,8183,8183,8183,8183,8183,8183,8183,8183,8183,8183,8183,8183,8183,8183,8183,8183,8183,8183,
8183,8183,8183,8183,8183,8183,8183,8183,8183,8183,8183,8183,8183,8183,8183,8183,8183,8183,8183,8183,8183,8183,8183,8183,8183,8183,8183,8183,8183,8183,8183,8183,8183,8183,8183,8183,8183,8183,8183,8183,8183,8183,8183,8183,8183,8183,8183,8183,8183,8183,8183,8183,8183,8183,8183,8183,8183,8183,8183,8183,8183,8183,8183,8183,8183,8183,8183,8183,8183,8183,8183,8183,8183,8183,8183,8183,8183,8183,8183,8183,8183,8183,8183,8183,8183,8183,8183,8183,8183,8183,8183,8183,8183,8183,8183,8183,8183,8183,8183,8183,8183,8183,8183,8183,8183,
8183,8183,8183,8183,8183,8183,8183,8183,8183,8183,8183,8183,8183,8183,8183,8183,8183,8183,8183,8183,8183,8183,8183,8183,8183,8183,8183,8183,8183,8183,8183,8183,8183,8183,8183,8183,8183,8183,8183,8183,8183,8183,8183,8183,8183,8183,8183,8183,8183,8183,8183,8183,8183,8183,8183,8183,8183,8183,8183,8183,8183,8183,8183,8183,8183,8183,8183,8183,8183,8183,8183,8183,8183,8183,8183,8183,8183,8183,8183,8183,8183,8183,8183,8183,8183,8183,8183,8183,8183,8183,8183,8183,8183,8183,8183,8183,8183,8183,8183,8183,8183,8183,8183,8183,8183
</data>
  </layer>
  <layer id="2" name="way" width="105" height="60">
   <data encoding="csv">
8042,8042,8042,8042,8042,8042,8042,8042,8181,9313,8755,0,0,0,0,0,0,0,0,0,0,0,0,0,0,0,0,0,0,0,0,0,8183,0,0,8753,9314,7902,7902,7902,7902,7902,7902,7902,7902,7902,7902,7902,7902,7902,7902,7902,7902,7902,7902,7902,7902,7902,7902,7902,7902,7902,7902,7902,7902,7902,7902,7902,7902,7902,7902,7902,7902,7902,7902,7902,7902,7902,7902,7902,7902,7902,8893,7902,7902,7902,7902,7902,7902,7902,7902,7902,7902,7902,7902,7902,7902,7902,7902,8895,0,0,0,0,0,
8183,8183,8183,8183,8183,8183,8183,8183,8041,8181,9313,8755,0,0,0,0,0,0,0,0,0,0,8183,0,0,0,0,0,0,0,0,0,0,0,0,8893,7902,7902,7902,7902,7902,7902,7902,7902,7902,7902,7902,7902,7902,7902,7902,7902,7902,7902,7902,7902,7902,7902,7902,7902,7902,7902,7902,7902,7902,7902,7902,7902,7902,7902,7902,7902,7902,7902,7902,7902,7902,7902,7902,7902,7902,7902,8893,7902,7902,7902,7902,7902,7902,7902,7902,7902,7902,7902,7902,7902,7902,7902,7902,8895,0,0,0,0,0,
7763,8183,8183,8183,8183,8183,8183,8183,8183,8041,8181,9313,8755,0,0,0,0,0,0,0,0,0,0,0,0,8183,0,0,0,0,0,0,0,0,0,8893,7902,7902,7902,7902,7902,7902,7902,7902,7902,7902,7902,7902,7902,7902,7902,7902,7902,7902,7902,7902,7902,7902,7902,7902,7902,7902,7902,7902,7902,7902,7902,7902,7902,7902,7902,7902,7902,7902,7902,7902,7902,7902,7902,7902,7902,7902,8893,7902,7902,7902,7902,7902,7902,7902,7902,7902,7902,7902,7902,7902,7902,7902,7902,9313,8755,0,0,0,0,
8322,7763,8183,8183,8183,8183,8183,8183,8183,8183,7901,7902,8895,0,0,0,0,0,0,0,0,0,0,0,0,0,0,0,0,0,0,0,0,0,0,8893,7902,7902,7902,7902,7902,7902,7902,7902,7902,7902,7902,7902,7902,7902,7902,7902,7902,7902,7902,7902,7902,7902,7902,7902,7902,7902,7902,7902,7902,7902,7902,7902,7902,7902,7902,7902,7902,7902,7902,7902,7902,7902,7902,7902,7902,7902,8893,7902,7902,7902,7902,7902,7902,7902,7902,7902,7902,7902,7902,7902,7902,7902,7902,7902,8895,0,0,0,0,
7902,7903,8183,8183,8183,8183,8183,8183,8183,8183,7901,7902,8895,0,0,0,0,0,0,0,0,0,0,0,0,0,0,0,0,0,0,0,0,0,0,9033,9174,7902,7902,7902,7902,7902,7902,7902,7902,7902,7902,7902,7902,7902,7902,7902,7902,7902,7902,7902,7902,7902,7902,7902,7902,7902,7902,7902,7902,7902,7902,7902,7902,7902,7902,7902,7902,7902,7902,7902,7902,7902,7902,7902,7902,7902,9033,9174,7902,7902,7902,7902,7902,7902,7902,7902,7902,7902,7902,7902,7902,7902,7902,7902,8895,0,0,0,0,
8042,8043,8183,8183,8183,8183,8183,8183,8183,8183,7901,7902,9313,8755,0,0,0,0,0,0,0,0,0,0,0,0,0,0,0,0,0,0,0,0,0,0,8893,7902,7902,7902,7902,7902,7902,7902,7902,7902,7902,7902,7902,7902,7902,7902,7902,7902,7902,7902,7902,7902,7902,7902,7902,7902,7902,7902,7902,7902,7902,7902,7902,7902,7902,7902,7902,7902,7902,7902,7902,7902,7902,7902,7902,7902,7902,8893,7902,7902,7902,7902,7902,7902,7902,7902,7902,7902,7902,7902,7902,7902,7902,7902,8895,0,0,0,0,
8183,8183,8183,8183,8183,8183,8183,8183,8183,8183,7901,7902,7902,8895,0,0,0,0,0,0,0,0,0,0,0,0,0,0,0,0,0,0,0,0,0,0,8893,7902,7902,7902,7902,7902,7902,7902,7902,7902,7902,7902,7902,7902,7902,7902,7902,7902,7902,7902,7902,7902,7902,7902,7902,7902,7902,7902,7902,7902,7902,7902,7902,7902,7902,7902,7902,7902,7902,7902,7902,7902,7902,7902,7902,7902,7902,9033,9174,7902,7902,7902,7902,7902,7902,7902,7902,7902,7902,7902,7902,7902,7902,7902,8895,0,0,0,0,
8183,8183,8183,8183,8183,8183,8183,8183,8183,8183,7901,7902,7902,8895,0,0,0,0,0,0,0,0,0,0,0,0,0,8183,8183,8183,0,0,0,0,0,8753,9314,7902,7902,7902,7902,7902,7902,7902,7902,7902,7902,7902,7902,7902,7902,7902,7902,7902,7902,7902,7902,7902,7902,7902,7902,7902,7902,7902,7902,7902,7902,7902,7902,7902,7902,7902,7902,7902,7902,7902,7902,7902,7902,7902,7902,7902,7902,8753,9314,7902,7902,7902,7902,7902,7902,7902,7902,7902,7902,7902,7902,7902,7902,7902,8895,0,0,0,0,
8183,8183,8183,8183,8183,8183,8183,8183,8183,8183,7901,7902,9173,9035,0,0,0,0,0,0,0,0,0,0,0,0,0,0,0,8183,0,0,0,0,0,8893,7902,7902,7902,7902,7902,7902,7902,7902,7902,7902,7902,7902,7902,7902,7902,7902,7902,7902,7902,7902,7902,7902,7902,7902,7902,7902,7902,7902,7902,7902,7902,7902,7902,7902,7902,7902,7902,7902,7902,7902,7902,7902,7902,7902,7902,7902,7902,8893,7902,7902,7902,7902,7902,7902,7902,7902,7902,7902,7902,7902,7902,7902,7902,7902,8895,0,0,0,0,
8183,8183,8183,8183,8183,8183,8183,8183,8183,8183,7901,9173,9035,0,0,0,0,8183,0,0,0,0,0,0,0,0,0,0,0,8183,8183,0,0,0,0,8893,7902,7902,7902,7902,7902,7902,7902,7902,7902,7902,7902,7902,7902,7902,7902,7902,7902,7902,7902,7902,7902,7902,7902,7902,7902,7902,7902,7902,7902,7902,7902,7902,7902,7902,7902,7902,7902,7902,7902,7902,7902,7902,7902,7902,7902,7902,8753,9314,7902,7902,7902,7902,7902,7902,7902,7902,7902,7902,7902,7902,7902,7902,7902,7902,9313,8755,0,0,0,
7762,7763,8183,8183,8183,8183,8183,8183,8183,7761,8321,8895,0,8183,8183,0,0,0,0,0,0,0,0,0,0,0,0,0,0,8183,0,0,0,0,0,9033,9174,7902,7902,7902,7902,7902,7902,7902,7902,7902,7902,7902,7902,7902,7902,7902,7902,7902,7902,7902,7902,7902,7902,7902,7902,7902,7902,7902,7902,7902,7902,7902,7902,7902,7902,7902,7902,7902,7902,7902,7902,7902,7902,8753,8754,8754,8754,7902,7902,7902,7902,7902,7902,7902,7902,7902,7902,7902,7902,7902,7902,7902,7902,7902,7902,8895,0,0,0,
8042,8043,8183,8183,8183,8183,8183,8183,7761,8321,9173,9035,0,0,0,0,0,0,0,0,0,0,0,0,0,0,0,0,0,8183,0,8183,8183,8183,8183,0,9033,9174,7902,7902,7902,7902,7902,7902,7902,7902,7902,7902,7902,7902,7902,7902,7902,7902,7902,7902,7902,7902,7902,7902,7902,7902,7902,7902,7902,7902,7902,7902,7902,7902,7902,7902,7902,7902,7902,7902,7902,7902,7902,9033,9174,7902,7902,7902,7902,7902,7902,7902,7902,7902,7902,7902,7902,7902,7902,7902,7902,7902,7902,7902,7902,8895,0,0,0,
8183,8183,8183,8183,8183,8183,8183,7761,8321,9173,9035,0,0,0,0,0,0,0,0,0,0,0,0,0,0,0,0,0,0,0,0,0,0,0,8183,0,0,8893,7902,7902,7902,7902,7902,7902,7902,7902,7902,7902,7902,7902,7902,7902,7902,7902,7902,7902,7902,7902,7902,7902,7902,7902,7902,7902,7902,7902,7902,7902,7902,7902,7902,7902,7902,7902,7902,7902,7902,7902,7902,8754,8754,7902,7902,7902,7902,7902,7902,7902,7902,7902,7902,7902,7902,7902,7902,7902,7902,7902,7902,7902,7902,8895,0,0,0,
8183,8183,8183,8183,8183,8183,7761,8321,9173,9035,0,0,0,0,0,13011,0,0,0,0,13013,0,0,0,0,0,0,0,13011,13156,13296,0,0,0,0,2147496944,13154,9033,9174,7902,7902,7902,7902,7902,7902,7902,7902,7902,7902,7902,7902,7902,7902,7902,7902,7902,7902,7902,7902,9173,9174,9034,9174,7902,7902,7902,7902,7902,7902,7902,7902,7902,7902,7902,7902,7902,7902,7902,7902,7902,7902,7902,7902,7902,7902,7902,7902,7902,7902,7902,7902,7902,7902,7902,7902,7902,7902,7902,7902,7902,7902,8895,0,0,0,
8183,8183,8183,8183,8183,8183,7901,7902,8895,0,0,13011,13292,13292,13296,13294,0,0,0,0,13153,0,0,0,0,0,0,0,13151,0,0,0,8183,8183,0,0,13291,13013,9033,9174,7902,7902,7902,7902,7902,7902,7902,7902,7902,7902,7902,7902,9173,9034,9174,7902,9173,9034,9034,9035,9033,9034,9034,9034,9034,9034,9174,7902,7902,7902,7902,7902,9173,9034,9034,9034,9034,9034,9034,9174,7902,7902,7902,7902,7902,7902,7902,7902,7902,7902,7902,7902,7902,7902,7902,7902,7902,7902,7902,7902,7902,8895,0,0,0,
8183,8183,8183,8183,8183,8183,7901,7902,8895,0,0,13151,0,0,0,0,8183,8183,0,0,13153,0,0,0,0,0,0,0,13151,0,0,0,0,0,0,0,0,13153,0,9033,9034,9034,9174,7902,7902,7902,7902,7902,7902,7902,9173,9034,9314,0,9033,9034,9035,0,0,0,0,0,0,0,0,0,9033,9174,7902,7902,9173,9034,9035,0,0,0,0,0,0,8893,7902,7902,7902,7902,7902,7902,7902,7902,7902,7902,7902,7902,7902,7902,7902,7902,7902,7902,7902,7902,7902,8895,0,0,0,
8183,8183,8183,8183,8183,8183,7901,7902,8895,0,0,13151,0,8183,8183,0,0,0,0,0,13153,8183,8183,0,0,0,0,0,13151,0,0,0,0,0,0,0,0,13153,0,0,0,0,9033,9034,9034,9034,9034,9034,9034,9034,9035,0,0,0,0,0,0,0,0,0,0,0,0,0,0,0,0,9033,9034,9034,9035,0,0,0,0,0,0,0,0,9033,9174,7902,7902,7902,7902,7902,7902,7902,7902,7902,7902,7902,7902,7902,7902,7902,7902,7902,7902,7902,7902,8895,0,0,0,
8183,8183,8183,8183,8183,8183,7901,9173,9035,0,0,13291,13292,13016,13292,13015,0,0,0,13014,13293,0,0,0,0,0,0,0,13291,13296,13015,0,0,0,13014,2147496944,13016,13293,0,0,0,0,0,0,0,0,0,0,0,0,0,0,0,0,0,0,0,0,0,0,0,0,0,0,0,0,0,0,0,0,0,0,0,0,0,0,0,0,0,0,9033,9174,7902,7902,7902,7902,7902,7902,7902,7902,7902,7902,7902,7902,7902,7902,7902,7902,7902,7902,7902,8895,0,0,0,
7761,7762,7762,7762,7762,7762,8321,8895,0,0,0,0,0,0,0,0,0,0,0,0,0,0,0,0,0,0,0,0,0,0,0,0,0,0,0,0,0,0,0,0,0,0,0,0,0,0,0,0,0,0,0,0,0,0,0,0,0,0,0,0,0,0,0,0,0,0,0,0,0,0,0,0,0,0,0,0,0,0,0,0,0,8893,7902,7902,7902,7902,7902,7902,7902,7902,7902,7902,7902,7902,7902,7902,7902,7902,7902,7902,7902,8895,0,0,0,
7901,7902,8182,8181,7902,7902,7902,8895,0,0,0,0,0,0,0,0,0,0,0,0,0,0,0,0,0,0,0,0,0,0,0,0,0,0,0,0,0,0,0,0,0,0,0,0,0,0,0,0,0,0,0,0,0,0,0,0,0,0,0,0,0,0,0,0,0,0,0,0,0,0,0,0,0,0,0,0,0,0,0,0,0,9033,9174,7902,7902,7902,7902,7902,7902,7902,7902,7902,7902,7902,7902,7902,7902,7902,7902,7902,7902,8895,0,0,0,
8041,8042,8043,8041,8042,8042,8181,8895,0,0,0,0,0,0,0,0,0,0,0,0,0,0,0,0,0,0,0,0,0,0,0,0,0,0,0,0,0,0,0,0,0,0,0,0,0,0,0,0,0,0,0,0,0,0,0,0,0,0,0,0,0,0,0,0,0,0,0,0,0,0,0,0,0,0,0,0,0,0,0,0,0,8753,9314,7902,7902,7902,7902,7902,7902,7902,7902,7902,7902,7902,7902,7902,7902,7902,7902,7902,7902,8895,0,0,0,
8183,8183,8183,8183,8183,8183,7901,9313,8755,0,0,0,0,0,0,0,0,0,0,0,0,0,0,0,0,0,0,0,0,8183,8183,0,0,0,0,0,0,0,0,0,0,0,0,0,0,0,0,0,0,0,0,0,0,0,0,0,0,0,0,0,0,0,0,0,0,0,0,0,0,0,0,0,0,0,0,0,0,0,0,0,8753,9314,7902,7902,7902,7902,7902,7902,7902,7902,7902,7902,7902,7902,7902,7902,7902,7902,7902,7902,7902,8895,0,0,0,
8183,8183,8183,8183,8183,8183,7901,7902,8895,0,8183,8183,8183,8183,8183,8183,8183,8183,8183,8183,0,0,0,0,0,0,0,0,0,8183,8183,8183,8183,0,0,0,0,0,0,0,0,0,0,0,0,0,0,0,0,0,0,0,0,0,0,0,0,0,0,0,0,0,0,0,0,0,0,0,0,0,0,0,0,0,0,0,0,0,0,8753,9314,7902,7902,7902,7902,7902,7902,7902,7902,7902,7902,7902,7902,7902,7902,7902,7902,7902,7902,7902,7902,8895,0,0,0,
8183,8183,8183,8183,8183,7761,8321,7902,8895,13011,13016,13296,13292,13292,0,0,0,0,2147496804,13292,13016,13013,0,0,0,0,0,0,13011,13012,0,0,0,0,13012,13013,0,0,0,0,0,0,0,0,0,0,0,0,0,0,0,0,0,0,0,0,0,0,0,0,0,0,0,0,0,0,0,0,0,0,0,0,0,0,0,0,0,0,0,8893,7902,7902,7902,7902,7902,7902,7902,7902,7902,7902,7902,7902,7902,7902,7902,7902,7902,7902,7902,7902,7902,8895,0,0,0,
8183,8183,8183,8183,8183,7901,7902,9173,9035,13151,0,0,0,0,0,0,0,0,0,0,0,13153,0,0,0,0,0,0,13151,0,0,0,0,0,0,13153,0,0,0,0,0,0,0,0,0,0,0,0,0,0,0,0,0,0,0,0,0,0,0,0,0,0,0,0,0,0,0,0,0,0,0,0,0,0,0,0,0,0,0,8893,7902,7902,7902,7902,7902,7902,7902,7902,7902,7902,7902,7902,7902,7902,7902,7902,7902,7902,7902,7902,7902,8895,0,0,0,
8183,8183,8183,8183,8183,7901,7902,8895,0,13151,0,0,0,8183,0,0,0,0,0,0,0,13153,0,0,0,0,0,0,13151,0,0,0,0,0,0,13153,0,0,0,0,0,0,0,0,0,0,0,0,0,0,0,0,0,0,0,0,0,0,0,0,0,0,0,0,0,0,0,0,0,0,0,0,0,0,0,0,0,0,0,8893,7902,7902,7902,7902,7902,7902,7902,7902,7902,7902,7902,7902,7902,7902,7902,7902,7902,7902,7902,7902,7902,8895,0,0,0,
8183,8183,8183,8183,8183,7901,7902,8895,0,13151,0,0,8183,0,7901,0,0,0,0,0,0,13153,0,0,0,0,0,0,13151,0,0,0,0,0,0,7761,7762,7762,7762,7762,7762,7763,0,0,7761,7762,7762,7762,7763,0,0,0,0,0,0,0,0,0,0,0,0,0,0,0,0,0,0,0,0,0,0,0,0,0,0,0,0,0,0,8893,7902,7902,7902,7902,7902,7902,7902,7902,7902,7902,7902,7902,7902,7902,7902,7902,7902,7902,7902,7902,7902,8895,0,0,0,
8183,8183,8183,8183,8183,7901,7902,9313,8755,13151,0,0,0,0,7901,0,0,0,0,8183,13296,13293,0,0,0,0,0,0,13151,0,0,0,0,0,0,7901,7785,7786,7786,7786,7787,8322,7762,7762,8321,7785,7786,7787,8322,7762,7763,0,0,0,0,0,0,0,0,0,0,0,0,0,0,0,0,0,0,0,0,0,0,0,0,0,0,0,0,9033,9174,7902,7902,7902,7902,7902,7902,7902,7902,7902,7902,7902,7902,7902,7902,7902,7902,7902,7902,7902,7902,8895,0,0,0,
8183,8183,8183,8183,8183,8041,8181,7902,8895,13291,13156,13292,13292,2147496944,0,0,0,0,13014,13293,0,0,0,0,0,0,0,8183,13291,13015,0,0,13014,13292,13292,7901,7925,8207,8207,8207,8345,7786,7786,7786,7786,8346,8207,8345,7786,7787,7903,0,0,0,0,0,0,0,0,0,0,0,0,0,0,0,0,0,0,0,0,0,0,0,0,0,0,0,0,0,8893,7902,7902,7902,7902,7902,7902,7902,7902,7902,7902,7902,7902,7902,7902,7902,7902,7902,7902,7902,7902,8895,0,0,0,
8183,8183,8183,8183,8183,8183,7901,7902,8895,0,0,0,0,0,0,0,0,0,0,0,0,8183,0,0,0,0,0,0,0,0,0,0,0,0,0,7901,7925,8207,8207,8207,8207,8207,8207,8207,8207,8207,8207,8207,8207,7927,8322,7763,0,0,0,0,0,0,0,0,0,0,0,0,0,0,0,0,0,0,0,0,0,0,0,0,0,0,0,0,9033,9174,7902,7902,7902,7902,7902,7902,7902,7902,7902,7902,7902,7902,7902,7902,7902,7902,7902,7902,7902,8895,0,0,0,
8183,8183,8183,8183,8183,8183,8041,8181,9313,8755,8183,13011,13292,13292,13292,13013,0,0,0,0,0,0,0,0,0,0,0,0,0,0,0,0,0,0,0,7901,8065,8206,8207,8207,8207,8207,8207,8207,8207,8207,8207,8207,8207,8345,7787,7903,8183,0,0,0,0,0,0,0,0,0,0,0,0,0,0,0,0,0,0,0,0,0,0,0,0,0,0,0,0,8893,7902,7902,7902,7902,7902,7902,7902,7902,7902,7902,7902,7902,7902,7902,7902,7902,7902,7902,7902,8895,0,0,0,
8183,8183,8183,8183,8183,8183,8183,8041,8181,9313,8755,13151,0,0,0,13153,0,0,0,0,0,0,0,0,0,0,0,0,0,0,0,0,0,0,8183,8041,8181,7925,8207,8207,8207,8207,8207,8207,8207,8207,8207,8207,8207,8207,7927,7903,0,0,0,0,0,0,0,0,0,0,0,0,0,0,0,0,0,0,0,0,0,0,0,0,0,0,0,0,0,9033,9174,7902,7902,7902,7902,7902,7902,7902,7902,7902,7902,7902,7902,7902,7902,7902,7902,7902,7902,8895,0,0,0,
8183,8183,8183,8183,8183,8183,8183,8183,7901,7902,8895,13151,0,0,0,13153,0,0,0,0,0,0,0,0,0,0,0,0,0,0,0,0,0,0,8183,7761,8321,7925,8207,8207,8207,8207,8207,8207,8207,8207,8207,8207,8207,8205,8067,7903,0,0,0,8183,0,0,0,0,0,0,0,0,0,0,0,0,0,0,0,0,0,0,0,0,0,0,0,0,0,0,8893,7902,7902,7902,7902,7902,7902,7902,7902,7902,7902,7902,7902,7902,7902,7902,7902,7902,7902,8895,0,0,0,
8183,8183,8183,8183,8183,8183,8183,8183,7901,7902,8895,13151,0,0,0,0,0,0,0,0,0,0,0,0,8183,8183,0,0,0,0,0,0,0,0,7761,8321,7785,8346,8207,8207,8207,8207,8207,8207,8207,8207,8207,8207,8207,7927,8182,8043,0,0,0,0,0,0,0,0,0,0,0,0,0,0,0,0,0,0,0,0,0,0,0,0,0,0,0,0,0,0,8893,7902,7902,7902,7902,7902,7902,7902,7902,7902,7902,7902,7902,7902,7902,7902,7902,7902,7902,8895,0,0,0,
8183,8183,8183,8183,8183,8183,8183,7761,8321,9173,9035,13151,0,0,0,0,0,0,0,0,0,0,0,0,0,0,0,0,0,0,0,0,0,0,7901,7785,8346,8207,8207,8207,8207,8207,8207,8207,8207,8207,8207,8205,8066,8067,7903,0,0,0,0,0,0,0,0,0,0,0,0,0,0,0,0,0,0,0,0,0,0,0,0,0,0,0,0,0,0,0,8893,7902,7902,7902,7902,7902,7902,7902,7902,7902,7902,7902,7902,7902,7902,7902,7902,7902,7902,8895,0,0,0,
8183,8183,8183,8183,8183,8183,7761,8321,7902,8895,0,13151,0,0,0,13153,0,0,0,0,8183,0,0,0,0,0,0,0,0,0,0,0,0,0,7901,8065,8206,8207,8207,8207,8207,8207,8207,8207,8207,8207,8207,7927,8182,8042,8043,0,0,0,0,0,0,0,0,0,0,0,0,0,0,0,0,0,0,0,0,0,0,0,0,0,0,0,0,0,0,0,8893,7902,7902,7902,7902,7902,7902,7902,7902,7902,7902,7902,7902,7902,7902,7902,7902,7902,7902,8895,0,0,0,
8183,8183,8183,8183,8183,8183,7901,7902,9173,9035,0,13291,13292,13292,13292,13293,0,0,0,0,8183,0,0,0,0,0,0,0,0,0,0,0,0,0,8041,8181,8065,8066,8066,8066,8206,8207,8207,8207,8207,8205,8066,8067,7903,0,0,8753,8754,8755,0,0,0,0,0,0,0,0,0,0,0,0,0,0,0,0,0,0,0,0,0,0,0,0,0,0,0,8753,9314,7902,7902,7902,7902,7902,7902,7902,7902,7902,7902,7902,7902,7902,7902,7902,7902,7902,7902,8895,0,0,0,
8183,8183,8183,8183,8183,8183,7901,7902,8895,0,0,0,0,0,0,0,0,0,0,0,0,0,0,0,0,0,0,0,0,0,0,0,0,0,0,8041,8042,8042,8042,8181,8065,8066,8206,8207,8207,7927,8182,8042,8043,8753,8754,9314,7902,9313,8755,0,0,0,0,0,0,0,0,0,0,0,0,0,0,0,0,0,0,0,0,0,0,0,0,0,0,9033,9174,7902,7902,7902,7902,7902,7902,7902,7902,7902,7902,7902,7902,7902,7902,7902,7902,7902,7902,8895,0,0,0,
8183,8183,8183,8183,8183,8183,8041,8181,9313,8754,8755,0,0,0,0,0,0,0,0,0,0,0,8183,8183,8183,0,0,0,0,0,0,7763,8183,8183,8183,8183,8183,0,0,8041,8042,8181,8065,8206,8207,7927,7903,0,8753,9314,7902,7902,7902,7902,9313,8755,0,0,0,0,0,0,0,0,0,0,0,0,0,0,0,0,0,0,0,0,0,0,0,0,0,0,9033,9174,7902,7902,7902,7902,7902,7902,7902,7902,7902,7902,7902,7902,7902,7902,7902,7902,7902,8895,0,0,0,
8183,8183,8183,8183,8183,8183,8183,8041,8181,7902,9313,8755,0,8753,8754,8754,8754,8755,0,0,0,0,0,0,0,0,0,0,0,0,0,0,0,0,0,0,0,0,0,0,0,0,8181,7925,8207,7927,7903,0,8893,7902,7902,7902,7902,7902,7902,8895,0,0,0,0,0,0,0,0,0,0,0,0,0,0,0,0,0,0,0,0,0,0,0,0,0,0,8753,9314,7902,7902,7902,7902,7902,7902,7902,7902,7902,7902,7902,7902,7902,7902,7902,7902,7902,8895,0,0,0,
8183,8183,8183,8183,8183,8183,8183,8183,8041,8042,8181,9313,8754,9314,7902,7902,7902,8895,0,0,0,0,0,0,0,0,0,0,0,0,0,0,0,0,0,0,0,0,0,0,8183,7761,8321,7925,8207,7927,7903,0,8893,7902,7902,7902,7902,7902,7902,9313,8754,8755,0,0,0,0,0,0,0,0,0,0,0,0,0,0,0,0,0,0,0,0,0,0,0,8753,9314,7902,7902,7902,7902,7902,7902,7902,7902,7902,7902,7902,7902,7902,7902,7902,7902,7902,7902,8895,0,0,0,
8183,8183,8183,8183,8183,8183,8183,8183,8183,8183,8041,8181,7902,7902,7902,7902,7902,9313,8755,0,0,0,0,0,0,0,0,0,7761,8321,0,0,0,8322,7762,7762,7763,8183,0,0,7761,8321,7785,8346,8205,8067,7903,8753,9314,7902,7902,7902,7902,7902,7902,7902,7902,9313,8755,0,0,0,0,0,0,0,0,0,0,0,0,0,0,0,0,0,0,0,0,0,8753,9314,7902,7902,7902,7902,7902,7902,7902,7902,7902,7902,7902,7902,7902,7902,7902,7902,7902,7902,7902,8895,0,0,0,
8183,8183,8183,8183,8183,8183,8183,8183,8183,8183,8183,8041,8042,8042,8042,8042,8042,8181,9313,8755,0,0,0,0,0,0,0,7761,8321,7785,7786,7786,7786,7786,7786,7787,8322,7763,7761,7762,8321,7785,8346,8205,8067,8182,8043,8893,7902,7902,7902,7902,7902,7902,7902,7902,7902,7902,8895,0,0,0,0,0,0,0,0,0,0,0,0,0,0,0,0,0,0,0,0,0,8893,7902,7902,7902,7902,7902,7902,7902,7902,7902,7902,7902,7902,7902,7902,7902,7902,7902,7902,7902,7902,8895,0,0,0,
8183,8183,8183,8183,7902,8183,8183,8183,8183,8183,8183,8183,8183,8183,8183,8183,8183,7901,7902,8895,0,0,0,7761,7762,7762,7762,8321,7785,8346,8207,8207,8207,8207,8207,8345,7787,8322,8321,7785,7786,8346,8205,8067,8182,8043,8753,9314,7902,7902,7902,7902,7902,7902,7902,7902,7902,7902,8895,0,0,0,0,0,0,0,0,0,0,0,0,0,0,0,0,0,0,0,0,8753,9314,7902,7902,7902,7902,7902,7902,7902,7902,7902,7902,7902,7902,7902,7902,7902,7902,7902,7902,7902,7902,8895,0,0,0,
8183,8183,8183,8183,7902,8183,8183,8183,8183,8183,8183,8183,8183,8183,8183,8183,8183,7901,7902,8895,0,0,7761,8321,7785,7786,7786,7786,8346,8207,8207,8205,8066,8066,8206,8207,8345,7786,7786,8346,8205,8066,8067,8182,8043,8753,9314,7902,7902,7902,7902,7902,7902,7902,7902,7902,7902,9173,9035,0,0,0,0,0,0,0,0,0,0,0,0,0,0,0,0,0,0,0,0,8893,7902,7902,7902,7902,7902,7902,7902,7902,7902,7902,7902,7902,7902,7902,7902,7902,7902,7902,7902,7902,7902,8895,0,0,0,
8183,8183,7902,8183,7902,8183,8183,8183,8183,8183,8183,8183,8183,8183,8183,8183,8183,7901,7902,9035,0,7761,8321,7785,8346,8207,8207,8207,8207,8207,8205,8067,8182,8181,7925,8207,8207,8207,8207,8207,7927,8182,8042,8043,8753,9314,7902,7902,9173,9174,7902,7902,7902,7902,7902,7902,7902,8895,0,0,0,0,0,0,0,0,0,0,0,0,0,0,0,0,0,0,0,0,8753,9314,7902,7902,7902,7902,7902,7902,7902,7902,7902,7902,7902,7902,7902,7902,7902,7902,7902,7902,7902,7902,7902,8895,0,0,0,
8183,8183,7902,7902,7902,8183,8183,8183,8183,8183,7902,8183,8183,8183,8183,8183,8183,7901,7902,8754,8755,7901,7785,8346,8207,8207,8205,8066,8066,8066,8067,8182,8043,7901,8065,8066,8066,8066,8066,8066,8067,7903,0,8753,9314,7902,7902,7902,9313,9314,7902,7902,7902,7902,7902,7902,9173,9035,0,0,0,0,0,0,0,0,0,0,0,0,0,0,0,0,0,0,0,0,0,0,7902,0,0,0,0,0,0,0,0,0,0,0,0,0,0,0,0,0,0,0,0,0,0,0,0,
8183,8183,7902,7902,7902,8183,8183,8183,7902,7902,7902,7902,8183,8183,8183,8183,8183,8041,8181,7902,8895,7901,7925,8207,8207,8205,8067,8182,8042,8042,8042,8043,0,8041,8042,8042,8042,8042,8042,8042,8042,8043,0,8893,7902,7902,7902,7902,7902,7902,7902,7902,7902,7902,7902,7902,8895,0,0,0,0,0,0,0,0,0,0,0,0,0,0,0,0,0,0,0,0,0,0,0,8183,0,0,0,0,0,0,0,0,0,0,0,0,0,0,0,0,0,0,0,0,0,0,0,0,
8183,8183,7902,7902,7902,8183,8183,8183,8183,7902,7902,7902,8183,8183,8183,8183,8183,8183,7901,7902,8895,7901,8065,8206,8207,7927,7902,7903,0,0,0,0,0,0,0,0,0,0,0,0,0,0,8753,9314,7902,7902,7902,7902,7902,7902,7902,7902,7902,7902,7902,9173,9035,0,0,0,0,0,0,0,0,0,0,0,0,0,0,0,0,0,0,0,0,0,0,0,0,0,0,0,0,0,0,0,0,0,0,0,0,0,0,0,0,0,0,0,0,0,0,0,0,
8183,8183,7902,7902,8183,8183,8183,8183,8183,7902,7902,7902,8183,8183,8183,8183,8183,8183,7901,7902,8895,8041,8181,7925,8207,8345,7787,8322,7763,0,0,0,0,0,0,0,0,0,0,0,0,0,8893,7902,7902,7902,7902,7902,7902,7902,7902,7902,7902,7902,7902,8895,0,0,0,0,0,0,0,0,0,0,0,0,0,0,0,0,0,0,0,0,0,0,0,0,0,0,0,0,0,0,0,0,0,0,0,0,0,0,0,0,0,0,0,0,0,0,0,0,0,
8183,7902,7902,7902,7902,8183,8183,8183,8183,8183,7902,7902,7902,8183,8183,8183,8183,8183,7901,7902,9313,8755,7901,7925,8207,8207,8345,7787,7903,0,0,0,0,0,0,0,0,0,0,0,0,0,8893,7902,7902,7902,7902,7902,7902,7902,7902,7902,7902,7902,7902,8895,0,0,0,0,0,0,0,0,0,0,0,0,0,0,0,0,0,0,0,0,0,0,0,0,0,0,0,0,0,0,0,0,0,0,0,0,0,0,0,0,0,0,0,0,0,0,0,0,0,
8183,7902,7902,7902,7902,8183,8183,8183,8183,8183,7902,7902,7902,8183,8183,8183,8183,8183,7901,7902,7902,8895,7901,8065,8206,8207,8207,7927,7903,0,0,0,0,0,0,0,0,0,0,0,0,0,8893,7902,7902,7902,7902,7902,7902,7902,7902,7902,7902,7902,7902,8895,0,0,0,0,0,0,0,0,0,0,0,0,0,0,0,0,0,0,0,0,0,0,0,0,0,0,0,0,0,0,0,0,0,0,0,0,0,0,0,0,0,0,0,0,0,0,0,0,0,
8183,8183,7902,7902,7902,7902,7902,8183,8183,7902,7902,7902,8183,8183,8183,8183,8183,8183,7901,7902,7902,8895,8041,8181,8065,8206,8207,7927,7903,0,0,0,0,0,0,0,0,0,0,0,0,8753,9314,7902,7902,7902,7902,7902,7902,7902,7902,7902,7902,7902,7902,8895,0,0,0,0,0,0,0,0,0,0,0,0,0,0,0,0,0,0,0,0,0,0,0,0,0,0,0,0,0,0,0,0,0,0,0,0,0,0,0,0,0,0,0,0,0,0,0,0,0,
8183,7902,7902,7902,7902,7902,7902,7902,7902,7902,7902,7902,8183,8183,8183,8183,8183,8183,7901,7902,7902,8895,8183,7901,7785,8346,8207,7927,7903,0,0,0,0,0,0,0,0,0,0,0,0,8893,7902,7902,7902,7902,7902,7902,7902,7902,7902,7902,7902,7902,7902,8895,0,0,0,0,0,0,0,0,0,0,0,0,0,0,0,0,0,0,0,0,0,0,0,0,0,0,0,0,0,0,0,0,0,0,0,0,0,0,0,0,0,0,0,0,0,0,0,0,0,
8183,8183,7902,7902,7902,7902,7902,7902,7902,7902,7902,7902,7902,8183,8183,8183,8183,8183,7901,7902,7902,8895,7761,8321,7925,8207,8207,7927,7903,0,0,0,0,0,0,0,0,0,0,0,8753,9314,7902,7902,7902,7902,7902,7902,7902,7902,7902,7902,7902,7902,9173,9035,0,0,0,0,0,0,0,0,0,0,0,0,0,0,0,0,0,0,0,0,0,0,0,0,0,0,0,0,0,0,0,0,0,0,0,0,0,0,0,0,0,0,0,0,0,0,0,0,0,
8183,8183,7902,7902,7902,7902,7902,7902,7902,7902,7902,7902,7902,8183,8183,8183,8183,7761,8321,7902,9173,9035,7901,7785,8346,8207,8205,8067,7903,0,0,0,0,0,0,0,0,0,0,0,8893,7902,7902,7902,7902,7902,7902,7902,7902,7902,7902,7902,7902,9173,9035,0,0,0,0,0,0,0,0,0,0,0,0,0,0,0,0,0,0,0,0,0,0,0,0,0,0,0,0,0,0,0,0,0,0,0,0,0,0,0,0,0,0,0,0,0,0,0,0,0,0,
8183,8183,7902,7902,7902,7902,7902,7902,7902,7902,7902,7902,7902,8183,8183,8183,7761,8321,7902,9173,9035,0,7901,7925,8207,8207,7927,8182,8043,0,0,0,0,0,0,0,0,0,8753,8754,9314,7902,7902,7902,7902,7902,7902,7902,7902,7902,7902,7902,7902,8895,0,0,0,0,0,0,0,0,0,0,0,0,0,0,0,0,0,0,0,0,0,0,0,0,0,0,0,0,0,0,0,0,0,0,0,0,0,0,0,0,0,0,0,0,0,0,0,0,0,0,0,
8183,7902,7902,7902,7902,7902,7902,7902,7902,7902,7902,7902,8183,8183,8183,8183,7901,7902,9173,9035,0,0,7901,7925,8207,8205,8067,7903,0,0,0,0,0,0,0,0,0,0,8893,7902,7902,7902,7902,7902,7902,7902,7902,7902,7902,7902,7902,7902,7902,8895,0,0,0,0,0,0,0,0,0,0,0,0,0,0,0,0,0,0,0,0,0,0,0,0,0,0,0,0,0,0,0,0,0,0,0,0,0,0,0,0,0,0,0,0,0,0,0,0,0,0,0,
8183,8183,7902,7902,7902,7902,7902,7902,8183,8183,7902,7902,8183,8183,8183,8183,7901,7902,8895,0,0,0,7901,7925,8207,7927,8182,8043,0,0,0,0,0,0,0,0,0,0,8893,7902,7902,7902,7902,7902,7902,7902,7902,7902,7902,7902,7902,7902,9173,9035,0,0,0,0,0,0,0,0,0,0,0,0,0,0,0,0,0,0,0,0,0,0,0,0,0,0,0,0,0,0,0,0,0,0,0,0,0,0,0,0,0,0,0,0,0,0,0,0,0,0,0,
8183,8183,7902,8183,7902,7902,7902,8183,8183,8183,8183,8183,8183,8183,8183,8183,7901,7902,8895,0,0,0,7901,7925,8207,7927,7903,0,0,0,0,0,0,0,0,0,0,0,8893,7902,7902,7902,7902,7902,7902,7902,7902,7902,7902,7902,7902,9173,9035,0,0,0,0,0,0,0,0,0,0,0,0,0,0,0,0,0,0,0,0,0,0,0,0,0,0,0,0,0,0,0,0,0,0,0,0,0,0,0,0,0,0,0,0,0,0,0,0,0,0,0,0
</data>
  </layer>
  <layer id="3" name="decoration" width="105" height="60">
   <data encoding="csv">
8042,8042,8042,8042,8042,0,0,0,0,0,0,0,0,0,0,0,0,0,0,0,0,0,0,0,0,0,0,0,0,0,0,0,0,0,0,0,8753,9314,7902,7902,7902,7902,7902,7902,7902,7902,7902,7902,7902,7902,7902,7902,7902,7902,7902,7902,7902,7902,8893,9173,9174,8895,7902,7902,7902,7902,7902,7902,7902,7902,7902,7902,7902,7902,7902,7902,7902,7902,7902,7902,7902,7902,7902,9173,9035,0,0,0,0,0,0,0,0,0,0,0,0,0,0,0,0,0,0,0,0,
8183,8183,8183,8183,8183,0,0,0,0,0,0,0,0,0,0,0,0,0,0,0,0,0,0,0,0,0,0,0,0,0,0,0,0,0,0,0,8893,7902,7902,7902,7902,7902,7902,7902,7902,7902,7902,7902,7902,7902,7902,7902,7902,7902,7902,7902,7902,7902,8893,8895,8893,8895,7902,7902,7902,7902,7902,7902,7902,7902,7902,7902,7902,7902,7902,7902,7902,7902,7902,7902,7902,7902,7902,8895,0,0,0,0,0,0,0,0,0,0,0,0,0,0,0,0,0,0,0,0,0,
8183,8183,8183,8183,8183,0,0,0,0,0,0,0,0,0,0,0,0,0,0,0,0,0,0,0,0,0,0,0,0,0,0,0,0,0,0,0,9033,9174,7902,7902,7902,7902,7902,7902,7902,7902,7902,7902,7902,7902,7902,7902,7902,7902,7902,7902,7902,7902,8893,9313,9314,8895,7902,7902,7902,7902,7902,7902,7902,7902,7902,7902,7902,7902,7902,7902,7902,7902,7902,7902,7902,7902,7902,8895,0,0,0,0,0,0,0,0,0,0,0,0,0,0,0,0,0,0,0,0,0,
8183,8183,8183,8183,8183,0,0,0,0,0,0,0,0,0,0,0,0,0,0,0,0,0,0,0,0,0,0,0,0,0,0,0,0,0,0,0,0,8893,7902,7902,7902,7902,7902,7902,7902,7902,7902,7902,7902,7902,7902,7902,7902,7902,7902,7902,7902,7902,8893,9173,9174,8895,7902,7902,7902,7902,7902,7902,7902,7902,7902,7902,7902,7902,7902,7902,7902,7902,7902,7902,7902,7902,7902,8895,0,0,0,0,0,0,0,0,0,0,0,0,0,0,0,0,0,0,0,0,0,
8183,8183,8183,8183,8183,0,0,0,0,0,0,0,0,0,0,0,0,0,0,0,0,0,0,0,0,0,0,0,0,0,0,0,0,0,0,0,0,9033,9174,7902,7902,7902,7902,7902,7902,7902,7902,7902,7902,7902,7902,7902,7902,7902,7902,7902,7902,7902,8893,8895,8893,8895,7902,7902,7902,7902,7902,7902,7902,7902,7902,7902,7902,7902,7902,7902,7902,7902,7902,7902,7902,7902,7902,9313,8755,0,0,0,0,0,0,0,0,0,0,0,0,0,0,0,0,0,0,0,0,
8183,8183,8183,8183,8183,0,0,0,0,0,0,0,0,0,0,0,0,0,0,0,0,0,0,0,0,0,0,0,0,0,0,0,0,0,0,0,0,7902,8893,7902,7902,7902,7902,7902,7902,7902,7902,7902,7902,7902,7902,7902,7902,7902,7902,7902,7902,7902,8893,9313,9314,8895,7902,7902,7902,7902,7902,7902,7902,7902,7902,7902,7902,7902,7902,7902,7902,7902,7902,7902,7902,7902,7902,7902,8895,0,0,0,0,0,0,0,0,0,0,0,0,0,0,0,0,0,0,0,0,
8183,8183,8183,8183,8183,0,0,0,0,0,0,0,0,0,0,0,0,0,0,0,0,0,0,0,0,0,0,0,0,0,0,0,0,0,0,0,0,0,8893,7902,7902,7902,7902,7902,7902,7902,7902,7902,7902,7902,7902,7902,7902,7902,7902,7902,7902,7902,9033,9174,9173,9174,8755,7902,7902,7902,7902,7902,7902,7902,7902,7902,7902,7902,7902,7902,7902,7902,7902,7902,7902,7902,7902,7902,8895,0,0,0,0,0,0,0,0,0,0,0,0,0,0,0,0,0,0,0,0,
8183,8183,8183,8183,8183,0,0,0,0,0,0,0,0,0,0,0,0,0,0,0,0,0,0,0,0,0,0,0,0,0,0,0,0,0,0,0,0,8753,9314,7902,7902,7902,7902,7902,7902,7902,7902,7902,7902,7902,7902,7902,7902,7902,7902,7902,7902,7902,7902,8893,8895,8893,8895,7902,7902,7902,7902,7902,7902,7902,7902,7902,7902,7902,7902,7902,7902,7902,7902,7902,7902,7902,7902,7902,8895,0,0,0,0,0,0,0,0,0,0,0,0,0,0,0,0,0,0,0,0,
8183,8183,8183,8183,8183,0,0,0,0,0,0,0,0,0,0,0,0,0,0,0,0,0,0,0,0,0,0,0,0,0,0,0,0,0,0,0,7902,8893,7902,7066,7902,7902,7902,7902,7902,7902,7902,7902,7902,7902,7902,7902,7902,7902,7902,7902,7902,7902,7902,8893,8895,8893,8895,7902,7902,7902,7902,7902,7902,7902,7902,7902,7902,7902,7902,7902,7902,7902,7902,7902,7902,7902,7902,7902,8895,0,0,0,0,0,0,0,0,0,0,0,0,0,0,0,0,0,0,0,0,
8183,8183,8183,8183,8183,0,0,0,0,0,0,0,0,0,0,0,0,0,0,0,0,0,0,0,0,0,0,0,0,0,0,0,0,0,0,0,0,8893,7205,7902,7902,7902,7902,7902,7902,7902,7902,7902,7902,7902,7902,7902,7902,7902,7902,7902,7902,7902,7902,9033,9034,9034,9035,7902,7902,7902,7902,7902,7902,7902,7902,7902,7902,7902,7902,7902,7902,7902,7902,7902,7902,7902,7902,7902,8895,0,0,0,0,0,0,0,0,0,0,0,0,0,0,0,0,0,0,0,0,
8183,8183,8183,8183,8183,0,0,0,0,0,0,0,0,0,0,0,0,0,0,0,0,0,0,0,0,0,0,0,0,0,0,0,0,0,0,0,0,9033,9174,7902,7902,7902,7902,7902,7902,7902,7902,7902,7902,7902,7902,7902,7902,7902,7902,7902,7902,8753,8754,8754,8754,7902,7902,7902,7902,7902,7902,7902,7902,7902,7902,7902,7902,7902,7902,7902,7902,7902,7902,7902,7902,7902,7902,7902,9313,8755,8753,8754,8754,8755,0,0,0,0,0,0,0,0,0,0,0,0,0,0,0,
8183,8183,8183,8183,0,0,0,0,0,0,0,0,0,0,0,0,0,0,0,0,0,0,0,0,0,0,0,0,0,0,0,0,0,0,0,0,0,0,8893,7902,7902,7902,7902,7902,7902,7902,7902,7902,7902,7902,7902,7902,7902,8754,8754,8755,7902,8893,9173,9034,9174,7902,7902,7902,7902,7902,7902,7902,7902,7902,7902,7902,7902,7902,7902,7902,7902,7902,7902,7902,7902,7902,7902,7902,7902,9313,9314,7902,7902,8895,0,0,0,0,0,0,0,0,0,0,0,0,0,0,0,
8183,8183,8183,8183,0,0,0,0,0,0,0,0,0,0,0,0,0,0,0,0,0,0,0,0,0,0,0,0,0,0,0,0,0,0,0,0,0,0,9033,9174,7902,7902,7902,7902,7902,7902,7902,7902,7902,7902,7902,7902,9173,9174,7902,9313,8754,9314,8895,0,9033,9174,7902,7902,7902,7902,7902,7902,7902,7902,7902,7902,7902,7902,7902,7902,7902,7902,9173,9174,7902,7902,7902,7902,7902,7902,7902,7902,7902,8895,0,0,0,0,0,0,0,0,0,0,0,0,0,0,0,
8183,8183,8183,8183,0,0,0,0,0,0,0,0,0,0,0,0,0,0,0,0,0,0,0,0,0,0,0,0,0,0,0,0,0,0,0,0,0,0,9033,9033,9174,7902,7902,7902,7902,7902,7902,7902,7902,7902,7902,9173,9035,9033,9034,9034,9034,9034,9035,0,0,9033,9034,9034,9034,9034,9034,9174,7902,7902,7902,9173,9034,9034,9034,9034,9034,9034,9035,8893,7902,7902,7902,7902,7902,7902,7902,7902,7902,8895,0,0,0,0,0,0,0,0,0,0,0,0,0,0,0,
8183,8183,8183,8183,0,0,0,0,0,0,0,0,0,0,0,0,0,0,0,0,0,0,0,0,0,0,0,0,0,0,0,0,0,0,0,0,0,0,0,0,9033,9034,9034,9034,9174,7902,7902,7902,9173,9034,9034,9035,0,0,0,0,0,0,0,0,0,0,0,0,0,0,0,9033,9174,9173,9034,9035,0,0,0,0,0,0,0,9033,9174,7902,7902,7902,7902,7902,7902,7902,7902,8895,0,0,0,0,0,0,0,0,0,0,0,0,0,0,0,
0,8183,8183,8183,8183,0,0,0,0,0,0,0,0,0,0,0,0,0,0,0,0,0,0,0,0,0,0,0,0,0,0,0,0,0,0,0,0,0,0,0,0,0,0,0,9033,9034,9034,9034,9035,7066,0,0,0,0,0,0,0,0,0,0,0,0,0,0,0,0,0,0,9033,9035,0,0,0,7796,7797,7797,7797,7798,0,0,9033,9034,9174,7902,7902,7902,7902,7902,7902,9313,8755,0,0,0,0,0,0,0,0,0,0,0,0,0,0,
0,0,0,0,0,0,0,0,0,0,0,0,0,0,0,0,0,0,0,0,0,0,0,0,0,0,0,0,0,0,0,0,0,0,0,0,0,0,0,0,0,0,0,0,0,0,0,0,0,0,0,0,0,0,0,0,0,0,0,0,0,0,0,0,0,0,0,0,0,0,0,0,0,7936,7937,7937,8216,8078,0,0,0,0,8893,7902,7902,7902,7902,7902,7902,7902,8895,0,0,0,0,0,0,0,0,0,0,0,0,0,0,
0,0,0,0,0,0,0,0,0,0,0,0,0,0,0,0,0,0,0,0,0,0,0,0,0,0,0,0,0,0,0,0,0,0,0,0,0,0,0,0,0,0,0,0,0,0,0,0,0,0,0,0,0,0,0,0,0,0,0,0,0,0,0,0,0,0,0,0,0,0,0,0,7796,8357,7937,7937,7938,0,0,0,0,0,9033,9174,7902,7902,7902,7902,7902,7902,8895,0,0,0,0,0,0,0,0,0,0,0,0,0,0,
0,0,0,0,0,0,0,12534,0,0,0,0,0,0,0,0,0,0,0,0,0,0,0,0,0,0,0,0,0,0,0,0,0,0,0,0,0,0,0,0,0,0,0,0,0,0,0,0,0,0,0,0,0,0,0,0,0,0,0,0,0,0,0,0,0,0,0,0,0,0,0,0,7936,7937,7937,8216,8078,0,0,0,0,0,0,8893,7902,7902,7902,7902,7902,7902,9313,8755,0,0,0,0,0,0,0,0,0,0,0,0,0,
0,0,0,0,0,0,0,12674,0,0,0,0,0,0,0,0,0,0,0,0,0,0,0,0,0,0,0,0,0,0,0,0,0,0,0,0,0,0,0,0,0,0,0,0,0,0,0,0,0,0,0,0,0,0,0,0,0,0,0,0,0,0,0,0,0,0,0,0,0,0,0,7796,8357,7937,8216,8078,0,0,0,0,0,0,0,9033,9174,7902,7902,7902,7902,7902,7902,8895,0,0,0,0,0,0,0,0,0,0,0,0,0,
0,0,0,0,0,0,0,12814,0,0,0,0,0,0,0,0,0,0,0,0,0,0,0,0,0,0,0,0,0,0,0,0,0,0,0,0,0,0,0,0,0,0,0,0,0,0,0,0,0,0,0,0,0,0,0,0,0,0,0,0,0,0,0,0,0,0,0,0,0,0,0,7936,7937,7937,7938,0,0,0,0,0,0,0,8753,8754,9314,7902,7902,7902,7902,7902,7902,8895,0,0,0,0,0,0,0,0,0,0,0,0,0,
0,0,0,0,0,0,0,0,0,0,0,0,0,0,0,0,0,0,0,0,0,0,0,0,0,0,0,0,0,0,0,0,0,0,0,0,0,0,0,0,0,0,0,0,0,0,0,0,0,0,0,0,0,0,0,0,0,0,0,0,0,0,0,0,0,0,0,0,0,0,0,7936,7937,8216,8078,0,0,0,0,0,0,8753,9314,7902,7902,7902,7902,7902,7902,7902,7902,8895,0,0,0,0,0,0,0,0,0,0,0,0,0,
0,8183,8183,8183,0,0,0,0,0,0,0,0,0,0,0,0,0,0,0,0,0,0,0,0,0,0,0,0,0,0,0,0,0,0,0,0,0,0,0,0,0,0,0,0,0,0,0,0,0,0,0,0,0,0,0,0,0,0,0,0,0,0,0,0,0,0,0,0,0,0,0,7936,7937,7938,0,0,0,0,0,0,0,8893,7902,7902,7902,7902,7902,7902,7902,7902,7902,8895,0,0,0,0,0,0,0,0,0,0,0,0,0,
8183,8183,8183,8183,0,0,0,0,0,0,0,0,0,0,0,0,0,0,0,0,0,0,0,0,0,0,0,0,0,0,0,0,0,0,0,0,0,0,0,0,0,0,0,0,0,0,0,0,0,0,0,0,0,0,0,0,0,0,0,0,0,0,0,0,0,0,0,0,0,0,0,7936,7937,8356,7798,0,0,0,0,0,8753,9314,7902,7902,7902,7902,7902,7902,7902,7902,7902,8895,0,0,0,0,0,0,0,0,0,0,0,0,0,
8183,8183,8183,0,8183,0,0,0,0,0,0,0,0,0,0,0,0,0,0,0,0,0,0,0,0,0,0,0,0,0,0,0,0,0,0,0,0,0,0,0,0,0,0,0,0,0,0,0,0,0,0,0,0,0,0,0,0,0,0,0,0,0,0,0,0,0,0,0,0,0,0,7936,7937,7937,7938,0,0,0,0,0,8893,7902,7902,7902,7902,7902,7902,7902,7902,7902,7902,8895,0,0,0,0,0,0,0,0,0,0,0,0,0,
8183,8183,8183,0,8183,0,0,0,0,0,0,0,0,0,0,0,0,0,0,0,0,0,0,0,0,0,0,0,0,0,0,0,0,0,0,0,0,0,0,0,0,0,0,0,0,0,0,0,0,0,0,0,0,0,0,0,0,0,0,0,0,0,0,0,0,0,0,0,0,0,0,8076,8217,7937,7938,0,0,0,0,0,8893,7902,7902,7902,7902,7902,7902,7902,7902,7902,7902,8895,0,0,0,0,0,0,0,0,0,0,0,0,0,
8183,8183,8183,0,8183,0,0,0,0,0,0,0,0,0,0,0,0,0,0,0,0,0,0,0,0,0,0,0,0,0,0,0,0,0,0,0,0,0,0,0,0,0,0,0,0,0,0,0,0,0,0,0,0,0,0,0,0,0,0,0,0,0,0,0,0,0,0,0,0,0,0,0,7936,7937,8356,7798,0,0,0,0,9033,9174,7902,7902,7902,7902,7902,7902,7902,7902,9173,9035,0,0,0,0,0,0,0,0,0,0,0,0,0,
8183,8183,8183,0,0,0,0,0,0,0,0,0,0,0,0,0,0,0,0,0,0,0,0,0,0,0,0,0,0,0,0,0,0,0,0,0,0,0,0,0,0,0,0,0,0,0,0,0,0,0,0,0,0,0,0,0,0,0,0,0,0,0,0,0,0,0,0,0,0,0,0,0,7936,7937,7937,7938,0,0,0,0,0,9033,9034,9174,7902,7902,7902,7902,7902,7902,8895,0,0,0,0,0,0,0,0,0,0,0,0,0,0,
8183,8183,8183,0,0,0,0,0,0,0,0,0,0,0,0,0,0,0,0,0,0,0,0,0,0,0,0,0,0,0,0,0,0,0,0,0,0,0,0,0,0,0,0,0,0,0,0,0,0,0,0,0,0,0,0,0,0,0,0,0,0,0,0,0,0,0,0,0,0,0,0,0,8076,8217,7937,7938,0,0,0,0,0,0,0,8893,7902,7902,7902,7902,7902,7902,9313,8755,0,0,0,0,0,0,0,0,0,0,0,0,0,
8183,8183,8183,0,8183,0,0,0,0,0,0,0,0,0,0,0,0,0,0,0,0,0,0,0,0,0,0,0,0,0,0,0,0,0,0,0,0,0,0,0,0,0,0,0,0,0,0,0,0,0,0,13104,13104,0,0,0,0,0,0,0,0,0,0,0,0,0,0,0,0,0,0,0,0,7936,7937,7938,0,0,0,0,0,0,0,8893,7902,7902,7902,7902,7902,7902,7902,9313,8754,8755,0,0,0,0,0,0,0,0,0,0,0,
8183,8183,8183,8183,8183,0,0,0,0,0,0,0,0,0,0,0,0,0,0,0,0,0,0,0,0,0,0,0,0,0,0,0,0,0,0,0,0,0,0,0,0,0,0,0,0,0,0,0,0,0,0,13104,13104,0,0,0,0,0,0,0,0,0,0,0,0,0,0,0,0,0,0,0,0,7936,7937,7938,0,0,0,0,0,0,0,8893,7902,7902,7902,7902,7902,7902,7902,7902,7902,9313,8755,0,0,0,0,0,0,0,0,0,0,
8183,8183,8183,8183,8183,0,0,0,0,0,0,0,0,0,0,0,0,0,0,0,0,0,0,0,0,0,0,0,0,0,0,0,0,0,0,0,0,0,0,0,0,0,0,0,0,0,0,0,0,0,0,13104,13104,0,0,0,0,0,0,0,0,0,0,0,0,0,0,0,0,0,0,0,7796,8357,7937,7938,0,0,0,0,0,0,0,8893,7902,7902,7902,7902,7902,7902,7902,7902,7902,7902,8895,0,0,0,0,0,0,0,0,0,0,
8183,8183,8183,8183,8183,0,0,0,0,0,0,0,0,0,0,0,0,0,0,0,0,0,0,0,0,0,0,0,0,0,0,0,0,0,0,0,0,0,0,0,0,0,0,0,0,0,0,0,0,0,0,13104,13104,0,0,0,0,0,0,0,0,0,0,0,0,0,0,0,0,0,0,0,7936,7937,7937,7938,0,0,0,0,0,0,0,9033,9174,7902,7902,7902,7902,7902,7902,7902,7902,7902,9313,8754,8754,8755,0,0,0,0,0,0,0,
8183,8183,8183,8183,8183,0,0,0,0,0,0,0,0,0,0,0,0,0,0,0,0,0,13104,13104,13104,13104,0,0,0,0,0,0,0,0,0,0,0,0,0,0,0,0,0,0,0,0,0,0,0,0,0,13104,13104,0,0,0,0,0,0,0,0,0,0,0,0,0,0,0,0,0,0,7796,8357,7937,8216,8078,0,0,0,0,0,0,0,0,8893,7902,7902,7902,7902,7902,7902,7902,7902,7902,7902,7902,7902,8895,0,0,0,0,0,0,0,
8183,8183,8183,8183,0,0,0,0,0,0,0,0,0,0,0,0,0,0,0,0,0,0,13104,0,0,0,13104,13104,0,0,0,0,0,0,0,0,0,0,0,0,0,0,0,0,0,0,0,0,0,0,0,13104,13104,0,0,0,0,0,0,0,0,0,0,0,0,0,0,0,0,0,0,7936,7937,7937,7938,0,0,0,0,0,0,0,0,0,8893,7902,7902,7902,7902,7902,7902,7902,7902,7902,7902,7902,7902,8895,0,0,0,0,0,0,0,
8183,8183,8183,8183,0,0,0,0,0,0,0,0,0,0,0,0,0,0,0,0,0,13104,0,0,0,0,13104,13104,0,0,0,0,0,0,0,0,0,0,0,0,0,0,0,0,0,0,0,0,0,13104,13104,13104,0,0,0,0,0,0,0,0,0,0,0,0,0,0,0,0,0,0,0,7936,7937,8216,8078,0,0,0,0,0,0,0,0,0,8893,7902,7902,7902,7902,7902,7902,7902,7902,7902,7902,7902,7902,8895,0,0,0,0,0,0,0,
8183,8183,8183,8183,0,0,0,0,0,0,0,0,0,0,0,0,0,0,0,0,0,13104,0,0,0,0,13104,13104,0,0,0,0,0,0,0,0,0,284,0,0,0,0,0,0,0,0,0,0,13104,13104,13104,13104,0,0,0,0,0,0,0,0,0,0,0,0,0,0,0,0,0,0,7796,8357,7937,7938,0,0,0,0,0,0,0,0,0,0,8893,7902,7902,7902,7902,7902,7902,7902,7902,7902,7902,7902,7902,9313,8755,0,0,0,0,0,0,
8183,8183,8183,8183,0,0,0,0,0,0,0,0,0,0,0,0,0,0,0,0,0,0,0,0,0,0,0,0,0,0,0,0,0,0,0,0,0,0,0,0,0,0,0,0,0,0,0,0,13104,13104,0,8753,8754,8755,0,0,0,0,0,0,0,0,0,0,0,0,0,0,0,0,7936,7937,7937,7938,0,0,0,0,0,0,0,0,0,0,9033,9174,7902,7902,7902,7902,7902,7902,7902,7902,7902,7902,7902,7902,8895,0,0,0,0,0,0,
0,8183,8183,0,0,0,0,0,0,0,0,0,0,0,0,0,0,0,0,0,0,0,0,0,0,0,0,0,0,0,0,0,13104,0,0,0,0,0,0,0,0,0,0,0,0,0,13104,13104,13104,0,0,8893,9314,9313,8755,0,0,0,0,0,0,0,0,0,0,0,0,0,0,7796,8357,7937,8216,8078,0,0,0,0,0,0,0,0,0,0,0,8893,7902,7902,7902,7902,7902,7902,7902,7902,7902,7902,7902,7902,8895,0,0,0,0,0,0,
0,8183,8183,0,0,0,0,0,0,0,0,0,0,0,0,0,0,0,0,0,0,0,0,0,0,0,0,0,0,0,0,13104,13104,0,13104,0,0,0,0,0,0,0,0,0,0,13104,13104,0,0,0,8753,9314,7902,7902,8895,0,0,0,0,0,0,0,0,0,0,0,0,0,0,7936,7937,7937,7938,0,0,0,0,0,0,0,0,0,0,0,0,8893,7902,7902,7902,7902,7902,7902,7902,7902,7902,7902,7902,7902,8895,0,0,0,0,0,0,
0,8183,8183,0,0,0,0,0,0,0,0,0,0,0,0,0,0,0,0,0,0,0,0,0,0,0,0,0,0,0,0,13104,13104,13104,13104,0,0,0,0,0,0,0,0,0,13104,0,0,0,0,8753,9314,7902,7902,7902,0,0,0,0,0,0,0,0,0,0,0,0,0,0,0,7936,7937,8216,8078,0,0,0,0,0,0,0,0,0,0,8753,8754,9314,7902,7902,7902,7902,7902,7902,7902,7902,7902,7902,7902,7902,8895,0,0,0,0,0,0,
0,8183,8183,0,0,0,0,0,0,0,0,0,0,0,0,0,0,0,0,0,0,0,0,0,0,0,0,0,0,0,13104,13104,13104,13104,13104,13104,0,0,0,0,0,0,13104,13104,0,0,0,0,0,8893,7902,7902,0,0,9313,9313,8755,0,0,0,0,0,0,0,0,0,0,0,7796,8357,7937,7938,0,0,0,0,0,0,0,0,0,0,0,8893,7902,7902,7902,7902,7902,7902,7902,7902,7902,7902,7902,7902,7902,7902,8895,0,0,0,0,0,0,
0,0,0,0,0,0,0,0,0,0,0,0,0,0,0,0,0,0,0,0,0,0,13104,13104,13104,13104,13104,0,0,0,13104,13104,13104,13104,13104,0,0,0,0,0,0,13104,13104,0,0,0,0,0,8753,9314,7902,0,7902,7902,7902,7902,9313,8755,0,0,0,0,0,7796,7797,7797,7797,7797,8357,7937,7937,7938,0,0,0,0,0,0,0,0,0,0,8753,9314,7902,7902,7902,7902,7902,7902,7902,7902,7902,7902,7902,7902,7902,7902,9313,8754,8754,8755,0,0,0,
0,0,0,0,0,0,0,0,0,0,0,0,0,0,0,0,0,0,0,0,0,0,13104,13104,0,13104,13104,0,0,0,13104,13104,13104,13104,13104,0,0,13104,13104,13104,13104,0,0,0,0,0,8753,8754,9314,7902,0,7902,7902,7902,7902,7902,9173,9035,0,0,7796,7797,7797,8357,7937,7937,7937,7937,7937,7937,8216,8078,0,0,0,0,0,0,0,0,0,8753,9314,7902,7902,7902,7902,7902,7902,7902,7902,7902,7902,7902,7902,7902,7902,7902,7902,7902,7902,8895,0,0,0,
0,0,0,0,0,0,0,0,0,0,0,0,0,0,0,0,0,0,0,0,0,0,0,0,0,0,0,0,0,0,13104,13104,13104,13104,13104,0,0,0,0,13104,0,0,0,0,0,8753,9314,7902,7902,0,7902,7902,7902,7902,7902,7902,8895,0,0,7796,8357,7937,7937,7937,7937,7937,7937,7937,7937,7937,8356,7798,0,0,0,0,0,0,0,0,8753,9314,7902,7902,7902,7902,7902,7902,7902,7902,7902,7902,7902,7902,7902,7902,7902,7902,7902,7902,7902,8895,0,0,0,
0,0,0,0,0,0,0,0,0,0,0,0,0,0,0,0,0,0,0,0,0,0,0,0,0,0,0,0,0,0,13104,13104,13104,13104,13104,13104,0,13104,13104,0,0,0,0,0,0,8893,7902,7902,7902,7902,7902,7902,7902,7902,7902,7902,8895,0,7796,8357,7937,7937,7937,7937,7937,7937,7937,7937,7937,7937,7937,8356,7798,0,0,0,0,0,0,0,8893,7902,7902,7902,7902,7902,7902,7902,7902,7902,7902,7902,7902,7902,7902,7902,7902,7902,9173,9173,9034,9035,0,0,0,
0,0,0,0,0,0,0,0,0,0,0,0,0,0,0,0,0,0,0,0,0,0,0,0,0,0,0,0,0,0,13104,13104,13104,13104,13104,13104,13104,13104,0,0,0,0,0,0,0,8893,7902,0,7902,7902,0,0,0,7902,7902,9173,9035,0,7936,7937,7937,7937,7937,7937,7937,7937,7937,7937,7937,7937,7937,7937,7938,0,0,0,0,0,9033,9034,9034,9034,9034,9034,9034,9034,9034,9034,9034,9034,9034,9034,9034,9034,9034,9034,9034,9034,9035,0,0,0,0,0,0,
0,0,0,0,0,0,0,0,0,0,0,0,0,0,0,0,0,0,0,0,0,0,0,0,0,0,0,0,0,0,0,13104,13104,0,13104,13104,13104,0,0,0,0,0,0,0,8753,9314,0,7902,7902,7902,7902,7902,0,7902,9173,9035,0,7796,8357,7937,7937,7937,7937,7937,7937,7937,7937,7937,7937,7937,7937,7937,8356,7797,7797,7797,7797,7798,0,0,0,0,0,0,0,0,0,0,0,0,0,0,0,0,0,0,0,0,0,0,0,0,0,0,0,
0,0,0,0,0,0,0,0,0,0,0,0,0,0,0,0,0,0,0,0,0,0,0,0,0,0,0,0,0,0,0,13104,0,0,0,13104,0,0,0,0,0,0,0,0,8893,0,7902,7902,7902,7902,7902,7902,0,7902,8895,0,0,7936,7937,7937,7937,7937,7937,7937,7937,7937,7937,7937,7937,7937,7937,7937,7937,7937,7937,7937,7937,8356,7797,7798,0,0,0,0,0,0,0,0,0,0,0,0,0,0,0,0,0,0,0,0,0,0,0,0,0,
0,0,0,0,0,0,0,0,0,0,0,0,0,0,0,0,0,0,0,0,0,0,0,0,0,0,0,0,0,0,0,13104,13104,0,0,13104,0,0,0,0,0,0,0,0,8893,7902,7902,7902,7902,7902,7902,7902,0,7902,8895,0,7796,8357,7937,7937,7937,7937,7937,7937,7937,7937,7937,7937,7937,7937,7937,7937,7937,7937,7937,7937,7937,7937,7937,8356,7797,7798,0,0,0,0,0,0,0,0,0,0,0,0,0,0,0,0,0,0,0,0,0,0,0,
0,0,0,0,0,0,0,0,0,0,0,0,0,0,0,0,0,0,0,0,0,0,0,0,0,0,0,0,0,0,0,0,13104,13104,13104,0,0,0,0,0,0,0,0,0,8893,7902,7902,7902,7902,7902,7902,7902,0,7902,8895,0,7936,7937,7937,7937,7937,7937,7937,7937,7937,7937,7937,7937,7937,7937,7937,7937,7937,7937,7937,7937,7937,7937,7937,7937,7937,8356,7798,0,0,0,0,0,0,0,0,0,0,0,0,0,0,0,0,0,0,0,0,0,0,
0,0,0,0,0,0,0,0,0,0,0,0,0,0,0,0,0,0,0,0,0,0,0,0,0,0,0,0,0,0,0,0,0,0,0,13104,13104,0,0,0,0,0,0,0,8893,7902,7902,7902,7902,7902,0,0,0,7902,8895,0,7936,7937,7937,7937,7937,7937,7937,7937,7937,7937,7937,7937,7937,7937,7937,7937,7937,7937,7937,7937,7937,7937,7937,7937,7937,7937,8356,7798,0,0,0,0,0,0,0,0,0,0,0,0,0,0,0,0,0,0,0,0,0,
0,0,0,0,0,0,0,0,0,0,0,0,0,0,0,0,0,0,0,0,0,0,0,0,0,0,0,0,0,0,0,0,0,0,0,0,13104,0,0,0,0,0,0,0,8893,7902,7902,7902,0,0,7902,7902,7902,7902,8895,0,7936,7937,7937,7937,7937,7937,7937,7937,7937,7937,7937,7937,7937,7937,7937,7937,7937,7937,7937,7937,7937,7937,7937,7937,7937,7937,7937,8356,7797,7797,7797,7798,0,0,0,0,0,0,0,0,0,0,0,0,0,0,0,0,0,
0,0,0,0,0,0,0,0,0,0,0,0,0,0,0,0,0,0,0,0,0,0,0,0,0,0,0,0,0,0,0,0,0,0,0,0,0,13104,0,0,0,0,0,0,9033,9174,0,0,0,0,0,0,0,9173,9035,0,7936,7937,7937,7937,7937,7937,7937,7937,7937,7937,7937,7937,7937,7937,7937,7937,7937,7937,7937,7937,7937,7937,7937,7937,7937,7937,7937,7937,7937,7937,7937,8356,7798,0,0,0,0,0,0,0,0,0,0,0,0,0,0,0,0,
0,0,0,0,0,0,0,0,0,0,0,0,0,0,0,0,0,0,0,0,0,0,0,0,0,0,0,0,0,0,0,0,0,0,0,0,0,0,0,0,0,0,0,0,0,9033,9174,0,0,0,0,0,0,8895,0,0,7936,7937,7937,7937,7937,7937,7937,7937,7937,7937,7937,7937,7937,7937,7937,7937,7937,7937,7937,7937,7937,7937,7937,7937,7937,7937,7937,7937,7937,7937,7937,7937,8356,7797,7798,0,0,0,0,0,0,0,0,0,0,0,0,0,0,
0,0,0,0,0,0,0,0,0,0,0,0,0,0,0,8183,0,0,0,0,0,0,0,0,0,0,0,0,0,0,0,0,0,0,0,0,0,0,0,0,0,0,0,0,0,0,9033,9034,9034,9174,7902,7902,9173,9035,0,7796,8357,7937,7937,7937,7937,7937,7937,7937,7937,7937,7937,7937,7937,7937,7937,7937,7937,7937,7937,7937,7937,7937,7937,7937,7937,7937,7937,7937,7937,7937,7937,7937,7937,7937,7938,0,0,0,0,0,0,0,0,0,0,0,0,0,0,
0,0,0,0,0,0,0,0,0,0,0,0,0,0,0,0,0,0,0,0,0,0,0,0,0,0,0,0,0,0,0,0,0,0,0,0,0,0,0,0,0,0,0,0,0,0,0,0,0,9033,9034,9034,9035,0,7796,8357,7937,7937,7937,7937,7937,7937,7937,7937,7937,7937,7937,7937,7937,7937,7937,7937,7937,7937,7937,7937,7937,7937,7937,7937,7937,7937,7937,7937,7937,7937,7937,7937,7937,7937,7938,0,0,0,0,0,0,0,0,0,0,0,0,0,0,
0,0,0,0,0,0,0,0,0,0,0,0,0,0,0,8183,0,0,0,0,0,0,0,0,0,0,0,0,0,0,0,0,0,0,0,0,0,0,0,0,0,0,0,0,0,0,0,0,0,0,0,0,0,0,7936,7937,7937,7937,7937,7937,7937,7937,7937,7937,7937,7937,7937,7937,7937,7937,7937,7937,7937,7937,7937,7937,7937,7937,7937,7937,7937,7937,7937,7937,7937,7937,7937,7937,7937,7937,8356,7797,7798,0,0,0,0,0,0,0,0,0,0,0,0,
0,0,0,0,0,0,0,0,0,0,0,0,0,0,0,8183,0,0,0,0,0,0,0,0,0,0,0,0,0,0,0,0,0,0,0,0,0,0,0,0,0,0,0,0,0,0,0,0,0,0,0,0,0,0,7936,7937,7937,7937,7937,7937,7937,7937,7937,7937,7937,7937,7937,7937,7937,7937,7937,7937,7937,7937,7937,7937,7937,7937,7937,7937,7937,7937,7937,7937,7937,7937,7937,7937,7937,7937,7937,7937,7938,0,0,0,0,0,0,0,0,0,0,0,0,
0,0,0,0,0,0,0,0,0,0,0,0,0,0,0,8183,0,0,0,0,0,0,0,0,0,0,0,0,0,0,0,0,0,0,0,0,0,0,0,0,0,0,0,0,0,0,0,0,0,0,0,0,0,7796,8357,7937,7937,7937,7937,7937,7937,7937,7937,7937,7937,7937,7937,7937,7937,7937,7937,7937,7937,7937,7937,7937,7937,7937,7937,7937,7937,7937,7937,7937,7937,7937,7937,7937,7937,7937,8216,8077,8078,0,0,0,0,0,0,0,0,0,0,0,0
</data>
  </layer>
  <layer id="4" name="house" width="105" height="60">
   <data encoding="csv">
8754,8754,8754,8754,8754,8755,0,0,0,0,0,0,0,0,0,0,0,0,0,0,0,0,0,0,0,0,0,0,0,0,0,0,0,0,0,0,0,0,0,0,0,0,0,0,0,0,0,0,0,0,0,0,0,0,0,0,0,0,0,0,0,0,7936,7937,8356,7797,7798,0,0,0,0,0,0,0,0,0,0,0,0,0,0,0,0,0,0,0,0,0,0,0,0,0,0,0,0,0,0,0,0,0,0,0,0,0,0,
7902,7902,7902,7902,7902,8754,8755,0,0,0,0,0,0,0,0,0,0,0,0,0,0,0,0,0,0,0,0,0,0,0,0,0,0,0,0,0,0,0,0,0,0,0,0,0,0,0,0,0,0,0,0,0,0,0,0,0,0,0,0,0,0,0,7936,7937,7937,7937,8356,7797,7798,0,0,0,0,0,7796,7798,0,0,7796,7797,7798,0,0,0,0,0,0,0,0,0,0,0,0,0,0,0,0,0,0,0,0,0,0,0,0,
7902,7902,7902,7902,7902,7902,9313,8755,0,0,0,0,0,0,0,0,0,0,0,0,0,0,0,0,0,0,0,0,0,0,0,0,0,0,7346,0,0,0,0,0,0,0,0,0,0,0,0,0,0,0,0,0,0,0,0,0,0,0,0,0,0,0,7936,7937,7937,7937,7937,7937,8356,7797,7797,7797,7797,7797,8357,8356,7797,7797,8357,7937,7938,0,0,0,0,0,0,0,0,0,0,0,0,0,0,0,0,0,0,0,0,0,0,0,0,
7902,7902,7902,7902,7902,7902,7902,9313,8754,8755,0,0,0,0,0,0,0,0,0,0,0,0,0,0,0,0,0,0,0,0,0,0,0,0,0,0,7346,0,0,0,0,0,0,0,0,0,0,0,0,0,0,0,0,0,0,0,0,0,0,0,0,0,7936,7937,7937,7937,7937,7937,7937,7937,7937,7937,7937,7937,7937,7937,7937,7937,7937,7937,7938,0,0,0,0,0,0,0,0,0,0,0,0,0,0,0,0,0,0,0,0,0,0,0,0,
7902,7902,7902,7902,7902,7902,7902,7902,7902,9313,8755,0,0,0,0,0,0,0,0,0,0,0,0,0,0,0,0,0,0,0,0,0,0,0,0,0,0,0,0,0,0,0,0,0,0,0,0,0,0,0,0,0,0,0,0,0,0,0,0,0,0,0,8076,8217,7937,7937,7937,7937,7937,7937,7937,7937,7937,7937,7937,7937,7937,7937,7937,7937,7938,0,0,0,0,0,0,0,0,0,0,0,0,0,0,0,0,0,0,0,0,0,0,0,0,
7902,7902,7902,7902,7902,7902,7902,7902,7902,7902,8895,0,0,0,0,0,0,0,0,0,0,0,0,0,0,0,0,0,0,0,0,0,0,0,0,0,0,7346,0,0,0,0,0,0,0,0,0,0,0,0,0,0,0,0,0,0,0,0,0,0,0,0,0,7936,7937,7937,7937,7937,7937,7937,7937,7937,7937,7937,7937,7937,7937,7937,7937,7937,8356,7797,7798,0,0,0,0,0,0,0,0,0,0,0,0,0,0,0,0,0,0,0,0,0,0,
7902,7902,7902,7902,7902,7902,7902,7902,7902,9173,9035,0,0,0,0,0,0,0,0,0,0,0,0,0,0,0,0,0,0,0,0,0,0,0,0,0,0,7346,0,0,0,0,22796,22797,22798,22799,22800,22801,22802,22803,22804,0,0,0,0,0,0,0,0,0,0,0,0,8076,8217,7937,7937,7937,7937,7937,7937,7937,7937,7937,7937,7937,7937,7937,7937,7937,7937,7937,7938,0,0,0,0,0,0,0,0,0,0,0,0,0,0,0,0,0,0,0,0,0,0,
7902,7902,7902,9173,9174,7902,7902,7902,9173,9035,0,0,0,0,0,0,0,0,0,0,0,0,0,0,0,0,0,0,0,0,0,0,0,0,0,0,7346,7346,0,0,0,0,0,22937,22938,22939,22940,22941,22942,22943,0,0,0,0,0,0,0,0,0,0,0,0,0,0,7936,7937,7937,7937,7937,7937,7937,7937,7937,7937,7937,7937,7937,7937,7937,7937,8216,8077,8078,0,0,0,0,0,0,0,0,0,0,0,0,0,0,0,0,0,0,0,0,0,0,
7902,7902,7902,9313,9314,7902,7902,9173,9035,0,0,0,0,0,0,0,0,0,0,0,0,0,0,0,0,0,0,0,0,0,0,0,0,0,0,0,7346,0,7205,0,0,0,0,23077,23078,23079,23080,23081,23082,23083,0,0,0,0,0,0,0,0,0,0,0,0,0,0,8076,8217,7937,7937,7937,7937,7937,7937,7937,7937,7937,7937,7937,7937,7937,7937,7938,0,0,0,0,0,0,0,0,0,0,0,0,0,0,0,0,0,0,0,0,0,0,0,0,
7902,7902,7902,7902,7902,7902,7902,8895,0,0,0,0,0,0,0,0,0,0,0,0,0,0,0,0,0,0,0,0,0,0,0,0,0,0,0,0,7346,0,7205,0,7346,0,0,23217,23218,23219,23220,23221,23222,23223,0,0,0,0,0,0,0,0,0,0,0,0,0,0,0,8076,8217,7937,7937,7937,7937,7937,7937,7937,7937,7937,7937,8216,8077,8077,8078,0,0,0,0,0,0,0,0,0,0,0,0,0,0,0,0,0,0,0,0,0,0,0,0,
7902,7902,7902,7902,7902,7902,9173,9035,0,0,0,0,0,0,0,0,0,0,0,0,0,0,0,0,0,0,0,0,0,0,0,0,0,0,0,0,0,0,0,0,7063,7064,0,23357,23358,23359,23360,23361,23362,23363,7063,7064,0,0,0,0,0,0,0,0,0,0,0,0,0,0,8076,8217,7937,7937,7937,7937,7937,7937,7937,7937,7937,7938,0,0,0,0,0,0,0,0,0,0,0,0,0,0,0,0,0,0,0,0,0,0,0,0,0,0,0,
7902,7902,7902,7902,7902,7902,8895,0,0,0,0,0,0,0,0,0,0,0,0,0,0,0,0,0,0,0,0,0,0,0,0,0,0,0,0,0,0,0,0,0,7203,7204,0,0,0,0,0,0,0,7346,7203,7204,0,0,0,0,0,0,0,0,0,0,0,0,0,0,0,7936,7937,8216,8077,8077,8077,8217,7937,7937,7937,7938,0,0,0,0,0,0,0,0,0,0,0,0,0,0,0,0,0,0,0,0,0,0,0,0,0,0,0,
7902,7902,7902,7902,7902,9173,9035,0,0,0,0,0,0,0,0,0,0,0,0,0,0,0,0,0,0,0,0,0,0,0,0,0,0,0,0,0,7346,0,0,0,0,0,0,0,0,0,0,0,0,0,0,0,0,0,0,0,0,0,0,0,0,0,0,0,0,0,0,8076,8077,8078,0,0,0,8076,8077,8077,8077,8078,0,0,0,0,0,0,0,0,0,0,0,0,0,0,0,0,0,0,0,0,0,0,0,0,0,0,0,
9174,7902,7902,7902,7902,8895,0,0,0,0,0,0,0,11789,11790,11791,11792,11793,11794,11795,0,0,0,0,0,0,0,0,0,12349,12350,12351,12352,12353,12354,0,0,0,0,0,0,0,5838,5839,5840,0,0,0,5838,5839,5840,0,0,0,0,0,0,0,0,0,0,0,0,0,0,0,0,0,0,0,0,0,0,0,0,0,0,0,0,0,0,0,0,0,0,0,0,0,0,0,0,0,0,0,0,0,0,0,0,0,0,0,0,0,0,
9033,9034,9174,7902,9173,9035,0,0,0,5555,5556,5557,0,11929,11930,11931,11932,11933,11934,11935,0,0,0,0,0,0,5555,5556,5557,12489,12490,12491,12492,12493,12494,12495,0,0,0,0,0,0,5978,5979,5980,0,0,0,5978,5979,5980,0,0,0,0,0,0,0,0,0,0,0,0,0,0,0,0,0,0,0,0,0,0,0,0,0,0,0,0,0,0,0,0,0,0,0,0,0,0,0,0,0,0,0,0,0,0,0,0,0,0,0,0,0,0,
0,0,9033,9034,9035,0,0,0,0,5695,5696,5697,0,12069,12070,12071,12072,12073,12074,12075,0,0,0,0,0,0,5695,5696,5697,12629,12630,12631,12632,12633,12634,12635,0,0,0,0,0,0,0,7205,0,0,0,0,0,7205,0,0,0,0,0,0,0,0,0,0,0,0,0,0,0,0,0,0,0,0,0,0,0,0,0,0,0,0,0,0,0,0,0,0,0,0,0,0,0,0,0,0,0,0,0,0,0,0,0,0,0,0,0,0,0,
0,0,0,0,0,0,0,0,0,5835,5836,5837,0,12209,12210,12211,12212,12213,12214,12215,0,0,0,0,0,0,5835,5836,5837,12769,12770,12771,12772,12773,12774,12775,0,0,0,0,0,0,0,0,0,0,0,0,0,0,0,0,0,0,0,0,0,0,0,0,0,0,0,0,0,0,0,0,0,0,0,0,0,0,0,0,0,0,0,0,0,0,0,0,0,0,0,0,0,0,0,0,0,0,0,0,0,0,0,0,0,0,0,0,0,
0,0,0,0,0,0,0,0,0,0,0,0,0,0,0,0,0,0,0,0,0,0,0,0,0,0,0,12974,0,0,0,0,0,0,0,0,0,0,0,0,0,0,0,0,7065,0,0,0,7065,0,0,0,0,0,0,0,0,0,0,0,0,0,0,0,0,0,0,0,0,0,0,0,0,0,0,0,0,0,0,0,0,0,0,0,0,0,0,0,0,0,0,0,0,0,0,0,0,0,0,0,0,0,0,0,0,
0,0,0,0,0,0,0,0,0,0,0,0,0,0,0,0,0,0,0,0,0,0,0,0,0,0,0,0,0,0,0,0,0,0,0,0,0,0,0,0,0,0,0,0,7065,0,0,0,7065,0,0,0,0,0,0,0,0,0,0,0,0,0,0,0,0,0,0,0,0,0,0,0,0,0,0,0,0,0,0,0,0,0,0,0,0,0,0,0,0,0,0,0,0,0,0,0,0,0,0,0,0,0,0,0,0,
0,0,0,0,0,0,0,0,0,0,0,0,0,0,0,0,0,0,0,0,0,0,0,0,0,0,0,0,0,0,0,0,0,0,0,0,0,0,0,0,0,0,0,0,7065,0,0,0,7065,0,0,0,0,0,0,0,0,0,0,0,0,0,0,0,0,0,0,0,0,0,0,0,0,0,0,0,0,0,0,0,0,0,0,0,0,0,0,0,0,0,0,0,0,0,0,0,0,0,0,0,0,0,0,0,0,
0,0,0,0,0,0,0,0,0,0,0,0,0,0,0,0,0,0,0,0,0,0,0,0,0,0,0,0,0,0,0,0,0,0,0,0,0,0,0,0,0,0,0,0,0,0,0,0,0,0,0,0,0,0,0,0,0,0,0,0,0,0,0,0,0,0,0,0,0,0,0,0,0,0,0,0,0,0,0,0,0,0,0,0,0,0,0,0,0,0,0,0,0,0,0,0,0,0,0,0,0,0,0,0,0,
0,0,0,0,0,0,0,0,0,0,0,0,0,0,0,0,0,0,0,0,0,0,0,0,0,0,0,0,0,0,0,0,11917,11918,11919,0,0,0,0,0,0,0,0,0,0,0,0,0,0,0,0,0,0,0,0,0,0,0,0,0,0,0,0,0,0,0,0,0,0,0,0,0,0,0,0,0,0,0,0,0,0,0,0,0,0,0,0,0,0,0,0,0,0,0,0,0,0,0,0,0,0,0,0,0,0,
0,8753,8754,8755,0,313,0,0,316,0,0,0,0,0,0,0,0,0,0,0,0,0,0,0,0,0,0,0,0,0,0,0,12057,12058,12059,0,0,0,0,0,0,0,0,0,0,0,0,0,0,0,0,0,0,0,0,0,0,0,0,0,0,0,0,0,0,0,0,0,0,0,0,0,0,0,0,0,0,0,0,0,0,0,0,0,0,0,0,0,0,0,0,0,0,0,0,0,0,0,0,0,0,0,0,0,0,
8754,9314,7902,9313,8755,0,0,0,0,0,0,0,12909,12910,12911,12912,12913,12914,12915,0,0,0,0,0,0,0,0,0,0,0,0,0,12197,12198,12199,0,0,0,0,0,0,0,0,0,0,0,0,0,0,0,0,0,0,0,0,0,0,0,0,0,0,0,0,0,0,0,0,0,0,0,0,0,0,0,0,0,0,0,0,0,0,0,0,0,0,0,0,0,0,0,0,0,0,0,0,0,0,0,0,0,0,0,0,0,0,
7902,7902,7902,7902,8895,0,0,0,0,0,0,0,13049,13050,13051,13052,13053,13054,13055,0,0,0,0,0,0,0,0,0,0,0,0,0,12337,12338,12339,0,0,0,0,0,0,0,0,0,0,0,0,0,0,0,0,0,0,0,0,0,0,0,0,0,0,0,0,0,0,0,0,0,0,0,0,0,0,0,0,0,0,0,0,0,0,0,0,0,0,0,0,0,0,0,0,0,0,0,0,0,0,0,0,0,0,0,0,0,0,
7902,7902,7902,9173,9035,0,0,0,0,0,0,0,13189,13190,13191,13192,13193,13194,13195,0,0,0,0,0,0,0,0,0,0,0,0,0,12477,12478,12479,0,0,0,0,0,0,0,0,0,0,0,0,0,0,0,0,0,0,0,0,0,0,0,0,0,0,0,0,0,0,0,0,0,0,0,0,0,0,0,0,0,0,0,0,0,0,0,0,0,0,0,0,0,0,0,0,0,0,0,0,0,0,0,0,0,0,0,0,0,0,
7902,7902,7902,8895,0,0,0,0,0,0,0,0,13329,13330,13331,13332,13333,13334,13335,0,0,0,0,0,0,0,0,0,0,0,0,0,12617,12618,12619,0,0,0,0,0,0,0,0,0,0,0,0,0,0,0,0,0,0,0,0,0,0,0,0,0,0,18195,18196,18197,18198,18199,0,0,0,0,0,0,0,0,0,0,0,0,0,0,0,0,0,0,0,0,0,0,0,0,0,0,0,0,0,0,0,0,0,0,0,0,0,0,0,
7902,7902,7902,9313,8755,0,0,0,0,0,0,0,0,0,0,0,0,0,0,0,0,0,0,0,0,0,0,0,0,0,0,0,12757,12758,12759,0,0,0,0,0,0,0,0,0,0,0,0,0,0,0,0,0,0,0,0,0,0,0,0,0,0,18335,18336,18337,18338,18339,0,0,0,0,0,0,0,0,0,0,0,0,0,0,0,0,0,0,0,0,0,0,0,0,0,0,0,0,0,0,0,0,0,0,0,0,0,0,0,
7902,7902,7902,7902,9313,8755,0,0,0,0,0,0,0,0,0,0,0,0,0,0,0,0,0,0,0,0,0,0,0,0,0,0,0,0,0,0,0,0,0,0,0,0,0,0,0,0,0,0,0,0,0,0,0,0,0,0,0,0,0,0,0,18475,18476,18477,18478,18479,0,0,0,0,0,0,0,0,0,0,0,0,0,0,0,0,0,0,0,0,0,0,0,0,0,0,0,0,0,0,0,0,0,0,0,0,0,0,0,
7902,7902,7902,7902,7902,9313,8755,0,0,0,0,0,0,0,0,0,0,0,0,0,0,0,0,0,0,0,0,0,0,0,0,0,0,0,0,0,0,0,0,0,0,0,0,0,0,0,0,0,0,0,0,0,0,0,0,0,0,0,0,0,0,18615,18616,18617,18618,18619,0,0,0,0,0,0,0,0,0,0,0,0,0,0,0,0,0,0,0,0,0,0,0,0,0,0,0,0,0,0,0,0,0,0,0,0,0,0,0,
7902,7902,7902,7902,7902,7902,8895,0,0,0,0,0,0,0,0,0,0,0,0,0,0,0,0,0,0,0,0,0,0,0,0,0,0,0,0,0,0,0,0,0,0,0,0,0,0,0,0,0,0,0,0,0,0,0,0,0,0,0,0,0,0,0,0,0,0,0,0,0,0,0,0,0,0,0,0,0,0,0,0,0,0,0,0,0,0,0,0,0,0,0,0,0,0,0,0,0,0,0,0,0,0,0,0,0,0,
7902,7902,7902,7902,7902,7902,8895,0,0,0,0,13029,13030,13031,13032,13033,0,0,0,0,13315,13316,0,0,0,0,0,0,0,0,0,0,0,0,0,0,0,0,0,0,0,0,0,0,0,0,0,0,0,0,0,0,0,0,0,0,0,0,0,0,0,0,0,0,0,0,0,0,0,0,0,0,0,0,0,0,0,0,0,0,0,0,0,0,0,0,0,0,0,0,0,0,0,0,0,0,0,0,0,0,0,0,0,0,0,
7902,7902,7902,7902,7902,7902,8895,0,0,0,0,13169,13170,13171,13172,13173,0,0,0,0,13455,13456,0,0,0,0,12895,12896,0,0,0,0,0,0,0,0,0,0,0,0,3098,3099,3100,3101,3102,3103,3104,0,0,0,0,0,0,0,0,0,0,0,0,0,0,0,0,0,0,0,0,0,0,0,0,0,0,0,0,0,0,0,0,0,0,0,0,0,0,0,0,0,0,0,0,0,0,0,0,0,0,0,0,0,0,0,0,0,0,
7902,7902,7902,7902,7902,9173,9035,0,0,0,0,13309,13310,13311,13312,13313,0,0,0,0,13595,13596,0,0,0,0,13035,13036,0,0,0,0,0,0,0,0,0,0,0,0,3106,3107,3108,3109,3110,3111,3112,0,0,0,0,0,0,0,0,0,0,0,0,0,0,0,0,0,0,0,0,0,0,0,0,0,0,0,0,0,0,0,0,0,0,0,0,0,0,0,0,0,0,0,0,0,0,0,0,0,0,0,0,0,0,0,0,0,0,
7902,7902,7902,7902,7902,8895,0,0,0,0,0,13449,13450,13451,13452,13453,0,0,0,0,0,0,7761,7762,7763,0,13175,13176,0,0,0,0,0,0,0,0,0,0,0,0,3114,3115,3116,3117,3118,3119,3120,0,0,0,0,0,0,0,0,0,0,0,0,0,0,0,0,0,0,0,0,0,0,0,0,0,0,0,0,0,0,0,0,0,0,0,0,0,0,0,0,0,0,0,0,0,0,0,0,0,0,0,0,0,0,0,0,0,0,
7902,7902,7902,7902,9173,9035,0,0,0,0,0,0,0,0,0,0,0,0,0,0,0,13037,7901,7902,7903,0,13317,0,0,0,0,0,0,0,0,0,0,0,0,0,3122,3123,3124,3125,3126,3127,3128,0,0,0,0,0,0,0,0,0,0,0,0,0,0,0,0,0,0,0,0,0,0,0,0,0,0,0,0,0,0,0,0,0,0,0,0,0,0,0,0,0,0,0,0,0,0,0,0,0,0,0,0,0,0,0,0,0,0,
7902,7902,7902,9173,9035,0,0,0,0,0,0,0,0,0,0,0,0,0,0,0,0,13177,8041,8042,8043,13315,13457,0,0,0,0,0,0,0,0,0,0,0,0,0,0,0,0,0,0,0,0,0,0,0,0,0,0,0,0,0,0,0,0,0,0,0,0,0,0,0,0,0,0,0,0,0,0,0,0,0,0,0,0,0,0,0,0,0,0,0,0,0,0,0,0,0,0,0,0,0,0,0,0,0,0,0,0,0,0,
7902,7902,7902,8895,0,0,0,0,0,0,0,0,0,0,0,0,0,0,0,0,0,13035,13036,0,0,13455,13456,0,0,0,0,0,0,0,0,0,0,0,0,0,0,0,0,0,0,0,0,0,0,0,0,0,0,0,0,0,0,0,0,0,0,0,0,0,0,0,0,0,0,0,0,0,0,0,0,0,0,0,0,0,0,0,0,0,0,0,0,0,0,0,0,0,0,0,0,0,0,0,0,0,0,0,0,0,0,
7902,7902,7902,8895,0,0,0,0,0,0,0,0,0,0,0,0,0,0,0,0,0,13175,13176,0,0,13595,13596,0,0,0,0,0,0,0,0,0,0,0,0,0,0,0,0,0,0,0,0,0,0,0,0,0,0,0,0,0,0,0,0,0,0,0,0,0,0,0,0,0,0,0,0,0,0,0,0,0,0,0,0,0,0,0,0,0,0,0,0,0,0,0,0,0,0,0,0,0,0,0,0,0,0,0,0,0,0,
7902,7902,7902,8895,0,0,0,0,0,0,0,0,0,0,0,0,0,0,0,0,0,0,0,0,0,0,0,0,0,0,0,0,0,0,0,0,0,0,0,0,0,0,0,0,0,0,0,0,0,0,0,0,0,0,0,0,0,0,0,0,0,0,0,0,0,0,0,0,0,0,0,0,0,0,0,0,0,0,0,0,0,0,0,0,0,0,0,0,0,0,0,0,0,0,0,0,0,0,0,0,0,0,0,0,0,
7902,7902,7902,9313,8755,0,8753,8754,8755,0,0,0,0,0,0,0,0,0,0,0,0,0,0,0,0,0,0,0,0,0,0,0,0,0,0,0,0,0,0,0,0,0,0,0,0,0,0,0,0,0,0,0,0,0,0,0,0,0,0,0,0,0,0,0,0,0,0,0,0,0,0,0,0,0,0,0,0,0,0,0,0,0,0,0,0,0,0,0,0,0,0,0,0,0,0,0,0,0,0,0,0,0,0,0,0,
7902,7902,7902,7902,9313,8754,9314,7902,9313,8755,0,0,0,0,0,0,0,0,0,0,0,0,0,0,0,0,0,0,0,0,0,0,0,0,0,0,0,0,0,0,0,0,0,0,0,0,0,0,0,0,0,0,0,0,0,0,0,0,0,0,0,0,0,0,0,0,0,0,0,0,0,0,0,0,0,0,0,0,0,0,0,0,0,0,0,0,0,0,0,0,0,0,0,0,0,0,0,0,0,0,0,0,0,0,0,
7902,7902,7902,7902,7902,7902,7902,7902,7902,9313,8754,8755,0,0,0,0,0,0,0,0,0,0,0,0,0,0,0,0,0,0,0,0,0,0,0,0,0,0,0,0,0,0,0,0,0,0,0,0,0,0,0,0,0,0,0,0,0,0,0,0,0,0,0,0,0,0,0,0,0,0,0,0,0,0,0,0,0,0,0,0,0,0,0,0,0,0,0,0,0,0,0,0,0,0,0,0,0,0,0,0,0,0,0,0,0,
7902,7902,7902,7902,7902,7902,7902,7902,7902,7902,7902,9313,8755,0,0,0,0,0,0,0,0,0,0,0,0,0,0,0,0,0,0,0,0,0,0,0,0,0,0,0,0,0,0,0,0,0,0,0,0,0,0,0,0,0,0,0,0,0,0,0,0,0,0,0,0,0,0,0,0,0,0,0,0,0,0,0,0,0,0,0,0,0,0,0,0,0,0,0,0,0,0,0,0,0,0,0,0,0,0,0,0,0,0,0,0,
7902,7902,7902,7902,7902,7902,7902,7902,7902,7902,7902,7902,8895,0,0,0,0,0,0,0,0,0,0,0,0,0,0,0,0,0,0,0,0,0,0,0,0,0,0,0,0,0,0,0,0,0,0,0,0,0,0,0,0,0,0,0,0,0,0,0,0,0,0,0,0,0,0,0,0,0,0,0,0,0,0,0,0,0,0,0,0,0,0,0,0,0,0,0,0,0,0,0,0,0,0,0,0,0,0,0,0,0,0,0,0,
7902,7902,7902,7902,7902,7902,7902,7902,7902,7902,7902,7902,8895,0,0,0,0,0,0,0,0,0,0,0,0,0,0,0,0,0,0,0,0,0,0,0,0,0,0,0,0,0,0,0,0,0,0,0,0,0,0,0,0,0,0,0,0,0,0,0,0,0,0,0,0,0,0,0,0,0,0,0,0,0,0,0,0,0,0,0,0,0,0,0,0,0,0,0,0,0,0,0,0,0,0,0,0,0,0,0,0,0,0,0,0,
7902,7902,7902,7902,7902,7902,7902,7902,7902,7902,7902,7902,9313,8755,0,0,0,0,0,0,0,0,0,0,0,0,0,0,0,0,0,0,0,0,0,0,0,0,0,0,0,0,0,0,0,0,0,23068,23069,23070,23071,23072,23073,23074,0,0,0,0,0,0,0,0,0,0,0,0,0,7799,7800,7801,0,0,0,0,0,0,0,0,0,0,0,0,0,0,0,0,0,0,0,0,0,0,0,0,0,0,0,0,0,0,0,0,0,0,0,
7902,7902,22498,22499,22500,22501,22502,22503,22504,22505,22506,22507,7902,9313,8754,8755,0,0,0,0,0,0,0,0,0,0,0,0,0,0,0,0,0,0,0,0,0,0,0,0,0,0,0,0,0,0,0,23208,23209,23210,23211,23212,23213,23214,0,0,0,0,0,0,0,0,7799,7800,7800,7800,7800,8360,7940,7941,0,0,0,0,0,0,0,0,0,0,0,0,0,0,0,0,0,0,0,0,0,0,0,0,0,0,0,0,0,0,0,0,0,0,0,
7902,7902,22638,22639,22640,22641,22642,22643,22644,22645,22646,22647,7902,7902,7902,8895,0,0,0,0,0,0,0,0,0,0,0,0,0,0,0,0,0,0,0,0,0,0,0,0,0,0,0,0,0,0,0,23348,23349,23350,23351,23352,23353,23354,0,0,0,0,0,0,7799,7800,8360,7940,7940,7940,7940,7940,7940,7941,0,0,0,0,0,0,0,0,0,0,0,0,0,0,0,0,0,0,0,0,0,0,0,0,0,0,0,0,0,0,0,0,0,0,0,
7902,7902,22778,22779,22780,22781,22782,22783,22784,22785,22786,22787,7902,7902,7902,9313,8755,0,0,0,0,0,0,0,0,0,0,0,0,0,0,0,0,0,0,0,0,0,0,0,0,0,0,0,0,0,0,23488,23489,23490,23491,23492,23493,23494,0,0,0,0,0,7799,8360,7940,7940,7940,7940,7940,7940,7940,7940,7941,0,0,0,0,0,0,0,0,0,0,0,0,0,0,0,0,0,0,0,0,0,0,0,0,0,0,0,0,0,0,0,0,0,0,0,
7902,7902,22918,22919,22920,22921,22922,22923,22924,22925,22926,22927,7902,7902,7902,7902,8895,0,0,0,0,0,0,0,0,0,0,0,0,0,0,0,0,0,0,0,0,0,0,0,0,0,0,0,0,0,0,23628,23629,23630,23631,23632,23633,23634,0,0,0,0,0,7939,7940,7940,7940,7940,7940,7940,7940,7940,7940,8359,7800,7800,7800,7800,7801,0,0,0,0,0,0,0,0,0,0,0,0,0,0,0,0,0,0,0,0,0,0,0,0,0,0,0,0,0,0,
7902,7902,23058,23059,23060,23061,23062,23063,23064,23065,23066,23067,7902,7902,7902,7902,8895,0,0,0,0,0,0,0,0,0,0,0,0,0,0,0,0,0,0,0,0,0,0,0,0,0,0,0,0,0,0,23768,23769,23770,23771,23772,23773,23774,0,0,0,0,0,7939,7940,7940,7940,7940,7940,7940,7940,7940,7940,7940,7940,7940,7940,7940,8359,7801,0,0,0,0,0,0,0,0,0,0,0,0,0,0,0,0,0,0,0,0,0,0,0,0,0,0,0,0,0,
7902,7902,23198,23199,23200,23201,23202,23203,23204,23205,23206,23207,7902,7902,7902,9173,9035,0,0,0,0,0,0,0,0,0,0,0,0,0,0,0,0,0,0,0,0,0,0,0,0,0,0,0,0,0,0,23908,23909,23910,23911,23912,23913,23914,0,0,0,0,0,7939,7940,7940,7940,7940,7940,7940,7940,7940,7940,7940,7940,7940,7940,7940,7940,8359,7801,0,0,0,0,0,0,0,0,0,0,0,0,0,0,0,0,0,0,0,0,0,0,0,0,0,0,0,0,
7902,7902,23338,23339,23340,23341,23342,23343,23344,23345,23346,23347,7902,7902,7902,8895,0,0,0,0,0,0,0,0,0,0,0,0,0,0,0,0,0,0,0,0,0,0,0,0,0,0,0,0,0,0,0,24048,24049,24050,24051,24052,24053,24054,0,0,0,0,0,7939,7940,7940,7940,7940,7940,7940,7940,7940,7940,7940,7940,7940,7940,7940,7940,7940,7941,0,0,0,0,0,0,0,0,0,0,0,0,0,0,0,0,0,0,0,0,0,0,0,0,0,0,0,0,
7902,7902,23478,23479,23480,23481,23482,23483,23484,23485,23486,23487,7902,7902,7902,8895,0,0,0,0,0,0,0,0,0,0,0,0,0,0,0,0,0,0,0,0,0,0,0,0,0,0,0,0,0,0,0,0,0,0,0,0,0,0,0,0,0,0,0,7939,7940,7940,7940,7940,7940,7940,7940,7940,7940,7940,7940,7940,7940,7940,7940,7940,8359,7800,7801,0,0,0,0,0,0,0,0,0,0,0,0,0,0,0,0,0,0,0,0,0,0,0,0,0,0,
7902,7902,23618,23619,23620,23621,23622,23623,23624,23625,23626,23627,7902,7902,7902,8895,0,0,0,0,0,0,0,0,0,0,0,0,0,0,0,0,0,0,0,0,0,0,0,0,0,0,0,0,0,0,0,0,0,0,0,0,0,0,0,0,0,0,0,7939,7940,7940,7940,7940,7940,7940,7940,7940,7940,7940,7940,7940,7940,7940,7940,7940,7940,7940,8359,7801,0,0,0,0,0,0,0,0,0,0,0,0,0,0,0,0,0,0,0,0,0,0,0,0,0,
7902,7902,23758,23759,23760,23761,23762,23763,23764,23765,23766,23767,7902,7902,9173,9035,0,0,0,0,0,0,0,0,0,0,0,0,0,0,0,0,0,0,0,0,0,0,0,0,0,0,0,0,0,0,0,0,0,0,0,0,0,0,0,0,0,0,0,7939,7940,7940,7940,7940,7940,7940,7940,7940,7940,7940,7940,7940,7940,7940,7940,7940,7940,7940,7940,8359,7801,0,0,0,0,0,0,0,0,0,0,0,0,0,0,0,0,0,0,0,0,0,0,0,0,
7902,7902,7902,7902,7902,7902,7902,7902,7902,7902,7902,7902,7902,7902,8895,0,0,0,0,0,0,0,0,0,0,0,0,0,0,0,0,0,0,0,0,0,0,0,0,0,0,0,0,0,0,0,0,0,0,0,0,0,0,0,0,0,0,0,0,7939,7940,7940,7940,7940,7940,7940,7940,7940,7940,7940,7940,7940,7940,7940,7940,7940,7940,7940,7940,7940,7941,0,0,0,0,0,0,0,0,0,0,0,0,0,0,0,0,0,0,0,0,0,0,0,0,
7902,7902,7902,7902,7902,7902,7902,7902,7902,7902,7902,7902,7902,7902,8895,0,0,0,0,0,0,0,0,0,0,0,0,0,0,0,0,0,0,0,0,0,0,0,0,0,0,0,0,0,0,0,0,0,0,0,0,0,0,0,0,0,0,0,0,7939,7940,7940,7940,7940,7940,7940,7940,7940,7940,7940,7940,7940,7940,7940,7940,7940,7940,7940,7940,7940,7941,0,0,0,0,0,0,0,0,0,0,0,0,0,0,0,0,0,0,0,0,0,0,0,0,
7902,7902,7902,7902,7902,7902,7902,7902,7902,7902,7902,7902,7902,9173,9035,0,0,0,0,0,0,0,0,0,0,0,0,0,0,0,0,0,0,0,0,0,0,0,0,0,0,0,0,0,0,0,0,0,0,0,0,0,0,0,0,0,0,0,0,8079,8080,8080,8220,7940,7940,7940,7940,7940,7940,7940,7940,7940,7940,7940,7940,7940,7940,7940,7940,7940,7941,0,0,0,0,0,0,0,0,0,0,0,0,0,0,0,0,0,0,0,0,0,0,0,0
</data>
  </layer>
  <layer id="5" name="highdeco" width="105" height="60">
   <data encoding="csv">
0,0,0,0,0,0,0,0,0,0,0,0,0,0,0,0,0,0,0,0,0,0,0,0,0,0,0,0,0,0,0,0,0,0,0,0,0,0,5561,5562,5563,5564,5565,0,0,0,0,0,0,0,5561,5562,5563,5564,5565,0,0,0,0,0,0,0,0,0,0,0,0,0,0,0,0,0,0,0,0,0,0,0,0,0,0,0,0,0,0,0,22765,22766,22767,22768,22769,0,0,22765,22766,22767,22768,22769,0,0,0,0,0,0,0,
0,5957,5958,0,0,0,0,0,0,0,0,0,0,0,0,0,0,0,0,0,0,0,0,0,0,0,0,0,0,0,0,0,0,0,0,0,0,0,5701,5702,5703,5704,5705,0,0,0,0,0,0,0,5701,5702,5703,5704,5705,0,0,0,0,0,0,0,0,0,0,0,0,0,0,0,0,0,0,0,0,0,0,0,0,0,0,0,0,0,0,0,22905,22906,22907,22908,22909,0,0,22905,22906,22907,22908,22909,0,0,0,0,0,0,0,
0,6097,6098,0,0,0,0,0,0,0,0,0,0,0,0,0,0,0,0,0,0,0,0,0,0,0,0,0,0,0,0,0,0,0,0,0,0,0,5841,5842,5843,5844,5845,0,0,0,0,0,0,0,5841,5842,5843,5844,5845,0,0,0,0,0,0,0,0,0,0,0,0,0,0,0,0,0,0,0,0,0,0,0,0,0,0,0,0,0,0,0,23045,23046,23047,23048,23049,0,0,23045,23046,23047,23048,23049,0,0,0,0,0,0,0,
0,5959,5960,0,5957,5958,0,5957,5958,0,0,0,0,0,0,0,0,0,0,0,0,0,0,0,0,0,0,0,0,0,0,0,0,0,0,0,0,0,5981,5982,5983,5984,5985,0,0,0,0,0,0,0,5981,5982,5983,5984,5985,0,0,0,0,0,0,0,0,0,0,0,0,0,0,0,7799,7800,7800,7801,0,0,0,0,0,0,0,0,0,0,0,0,23185,23186,23187,23188,23189,0,0,23185,23186,23187,23188,23189,0,0,0,0,0,0,0,
0,6099,6100,0,6097,6098,0,6097,6098,0,0,0,0,0,0,0,0,0,0,0,0,0,5561,5562,5563,5564,5565,0,0,0,0,0,0,0,0,0,0,0,6121,6122,6123,6124,6125,0,0,0,0,0,0,0,6121,6122,6123,6124,6125,5563,5564,5565,0,0,0,0,0,0,0,0,0,7799,7800,7800,8360,7940,7940,8359,7801,7799,7801,0,0,0,0,0,0,0,0,0,23325,23326,23327,23328,23329,0,0,23325,23326,23327,23328,23329,0,0,0,0,0,0,0,
5957,5958,5959,5960,0,0,5959,5960,0,0,0,0,0,0,0,0,0,0,0,0,0,0,5701,5702,5703,5704,5705,0,0,0,0,0,0,0,0,0,0,0,0,0,0,0,0,0,0,0,0,0,0,0,0,0,0,5701,5702,5703,5704,5705,0,0,0,0,0,0,0,7799,7800,8360,7940,7940,7940,7940,7940,7940,8359,8360,7941,0,0,0,0,0,0,0,0,0,23465,23466,23467,23468,23469,0,0,23465,23466,23467,23468,23469,0,0,0,0,0,0,0,
6097,6098,6099,6100,0,0,6099,6100,0,0,0,0,0,0,0,0,0,0,0,0,0,0,5841,5842,5843,5844,5845,0,0,0,0,0,0,0,0,0,0,0,0,0,0,0,0,0,0,0,0,0,0,0,0,0,0,5841,5842,5843,5844,5845,0,0,0,0,0,0,0,7939,7940,7940,7940,7940,7940,7940,7940,7940,7940,7940,7941,0,0,0,0,0,0,0,0,0,0,0,0,0,0,0,0,0,0,0,0,0,0,0,0,0,0,0,0,
5959,5960,0,0,0,5959,5960,0,0,0,0,0,0,0,0,0,0,0,0,0,0,0,5981,5982,5983,5984,5985,0,0,0,0,0,0,0,0,0,0,0,0,0,0,0,0,0,0,0,0,0,0,0,0,0,0,5981,5982,5983,5984,5985,0,0,0,0,0,0,0,8079,8080,8220,7940,7940,7940,7940,7940,7940,7940,7940,7941,0,0,5561,5562,5563,5564,5565,0,0,0,0,0,0,0,0,0,0,0,0,0,0,0,0,0,0,0,0,0,
6099,6100,0,0,0,6099,6100,0,0,0,0,0,0,0,0,0,0,0,0,0,0,0,6121,6122,6123,6124,6125,0,0,0,0,0,0,0,0,0,0,0,0,0,0,0,0,0,0,0,0,0,0,0,0,0,0,6121,6122,6123,6124,6125,0,0,0,0,5561,5562,5563,5564,5565,7939,7940,7940,7940,7940,7940,8219,8080,8080,8081,0,0,5701,5702,5703,5704,5705,0,0,0,0,0,0,0,0,0,0,0,0,0,0,0,0,0,0,0,0,0,
0,0,0,0,5957,5958,0,0,0,0,0,0,0,0,0,0,0,0,0,0,0,0,0,0,0,0,0,0,0,0,0,0,0,0,0,0,0,0,0,0,0,0,0,0,0,0,0,0,0,0,0,0,0,0,0,0,0,0,0,0,0,0,5701,5702,5703,5704,5705,8079,8220,7940,8219,8080,8080,8081,0,0,0,0,0,5841,5842,5843,5844,5845,0,0,0,0,0,0,0,0,0,17603,17604,17605,17606,17607,17608,17609,17610,17611,0,0,0,
0,5957,5958,0,6097,6098,0,0,0,0,0,0,0,0,0,0,0,0,0,0,0,0,5561,5562,5563,5564,5565,0,0,0,0,0,0,0,0,0,0,0,0,0,0,0,0,0,0,0,0,0,0,0,0,0,0,0,0,0,0,0,0,0,0,0,5841,5842,5843,5844,5845,0,8079,8080,8081,0,0,0,0,0,0,0,0,5981,5982,5983,5984,5985,0,0,0,0,0,0,0,0,0,17743,17744,17745,17746,17747,17748,17749,17750,17751,0,0,0,
0,6097,6098,5959,5960,0,0,0,0,0,0,0,297,0,0,0,0,0,0,0,0,0,5701,5702,5703,5704,5705,0,0,0,0,0,0,0,0,0,0,0,0,0,0,0,5558,5559,5560,0,0,0,5558,5559,5560,0,0,0,0,0,0,0,0,0,0,0,5981,5982,5983,5984,5985,0,0,0,0,0,0,0,0,0,0,0,0,6121,6122,6123,6124,6125,17910,17911,17912,17913,17914,0,0,0,0,17883,17884,17885,17886,17887,17888,17889,17890,17891,0,0,0,
0,0,0,6099,6100,0,0,0,0,0,0,0,0,0,0,0,0,0,0,0,0,0,5841,5842,5843,5844,5845,0,0,0,0,0,0,0,0,0,0,0,0,0,0,0,5698,5699,5700,0,0,0,5698,5699,5700,0,0,0,0,0,0,0,0,0,0,0,6121,6122,6123,6124,6125,0,0,0,0,0,0,0,549,551,552,0,0,0,0,0,0,18049,18050,18051,18052,18053,18054,0,0,0,0,18023,18024,18025,18026,18027,18028,18029,18030,18031,0,0,0,
0,0,0,5959,5960,0,0,0,0,0,313,0,0,0,0,0,0,0,0,0,0,0,5981,5982,5983,5984,5985,0,0,0,0,0,0,0,0,0,0,0,0,0,0,0,0,0,0,0,0,0,0,0,0,0,0,0,0,0,0,0,0,0,0,0,0,0,0,0,0,0,0,0,0,0,0,0,557,558,559,0,0,0,0,0,0,18189,18190,18191,18192,18193,18194,0,0,0,0,18163,18164,18165,18166,18167,18168,18169,18170,18171,0,0,0,
0,0,0,6099,6100,0,0,0,0,0,0,0,0,0,0,0,0,0,0,0,0,0,6121,6122,6123,6124,6125,0,0,0,0,0,0,0,0,0,0,0,0,0,0,0,0,0,0,0,0,0,0,0,0,0,0,0,0,0,0,0,0,0,0,0,0,0,0,0,0,0,0,0,0,0,0,0,557,558,559,0,0,0,0,0,0,18329,18330,18331,18332,18333,18334,0,0,0,0,18303,18304,18305,18306,18307,18308,18309,18310,18311,0,0,0,
0,0,0,0,0,0,0,0,0,0,0,0,0,0,0,0,0,0,0,0,0,0,0,0,0,0,0,0,0,0,0,0,0,0,0,0,0,0,0,0,0,0,0,0,745,746,747,748,749,0,0,0,0,0,0,0,0,0,0,0,0,0,0,0,0,0,0,0,0,0,0,0,0,0,565,566,567,0,0,0,0,0,0,18469,18470,18471,18472,18473,18474,0,0,0,0,18443,18444,18445,18446,18447,18448,18449,18450,18451,0,0,0,
5562,5563,5564,5565,0,316,0,0,0,0,0,0,0,0,0,0,0,0,0,0,0,0,0,0,0,0,0,0,0,0,0,0,0,0,0,0,0,0,0,0,0,0,0,0,753,754,755,756,757,0,0,0,0,0,0,0,0,0,0,0,0,0,0,0,0,0,0,0,0,0,0,0,0,0,573,574,576,0,0,0,0,0,0,18609,18610,18611,18612,18613,18614,0,0,0,0,18583,18584,18585,18586,18587,18588,18589,18590,18591,0,0,0,
5702,5703,5704,5705,0,0,0,0,0,0,0,0,0,0,0,0,0,0,0,0,0,0,0,0,0,0,0,0,0,0,0,0,0,0,0,0,0,0,0,0,0,0,0,0,0,0,0,0,0,0,0,0,0,0,0,0,0,0,0,0,0,0,0,0,0,0,0,0,0,0,0,0,0,0,0,0,0,0,0,0,0,0,0,0,0,0,5561,5562,5563,5564,5565,0,0,18723,18724,18725,18726,18727,18728,18729,18730,18731,0,0,0,
5842,5843,5844,5845,0,0,0,0,0,0,0,0,0,0,0,0,0,0,0,0,0,0,0,0,0,0,0,0,0,0,0,0,0,0,0,0,0,0,0,0,0,0,0,0,0,0,0,0,0,0,0,0,0,0,0,0,0,0,0,0,0,0,0,0,0,0,0,0,0,0,0,0,0,0,0,0,0,0,0,0,0,0,0,0,0,0,5701,5702,5703,5704,5705,0,0,17737,17738,17739,17740,17741,17742,18854,18855,18856,0,0,0,
5982,5983,5984,5985,0,0,0,0,0,0,0,0,0,0,0,0,0,0,0,0,0,0,0,0,0,0,0,0,0,0,0,0,0,0,0,0,0,0,0,0,0,0,0,0,0,0,0,0,0,0,0,0,0,0,0,0,0,0,0,0,0,0,0,0,5561,5562,5563,5564,5565,0,0,0,0,0,0,0,0,0,0,0,0,0,0,0,0,0,5841,5842,5843,5844,5845,0,0,17877,17878,17879,17880,17881,17882,0,0,0,0,0,0,
6122,6123,6124,6125,0,0,0,0,0,0,0,0,0,0,0,0,0,0,0,0,0,0,0,0,0,0,0,0,0,0,0,0,0,0,0,0,0,0,0,0,0,0,0,0,0,0,0,0,0,0,0,0,0,0,0,0,0,5561,5562,5563,5564,5565,0,0,5701,5702,5703,5704,5705,0,0,0,0,0,0,0,0,0,0,0,0,0,0,0,0,0,5981,5982,5983,5984,5985,0,0,18017,18018,18019,18020,18021,18022,0,0,0,0,0,0,
0,0,0,0,0,0,0,0,0,0,0,0,0,0,0,0,0,0,0,0,0,0,0,0,0,0,0,0,0,0,0,0,0,0,0,0,0,0,0,0,0,0,0,0,0,0,0,0,0,0,0,0,0,0,0,0,0,5701,5702,5703,5704,5705,0,0,5841,5842,5843,5844,5845,0,0,0,0,0,0,0,0,0,0,0,0,0,0,0,0,0,6121,6122,6123,6124,6125,0,0,18157,18158,18159,18160,18161,18162,0,0,0,0,0,0,
0,0,0,0,0,0,0,0,0,0,0,0,0,0,0,0,0,0,0,0,0,0,0,0,0,0,0,0,0,0,0,0,0,0,0,0,0,0,0,0,0,0,0,0,0,0,0,0,0,0,0,0,0,0,0,0,0,5841,5842,5843,5844,5845,0,0,5981,5982,5983,5984,5985,0,0,0,0,0,0,0,0,0,0,0,0,0,0,0,0,0,0,0,0,0,0,0,0,18297,18298,18299,18300,18301,18302,0,0,0,0,0,0,
5561,5562,5563,5564,5565,0,0,0,0,0,0,0,0,0,0,0,0,0,0,0,0,0,0,0,0,0,0,0,0,0,0,0,0,0,0,0,0,0,0,0,0,0,0,0,0,0,0,0,0,0,0,0,0,0,0,0,0,5981,5982,5983,5984,5985,0,0,6121,6122,6123,6124,6125,0,0,0,0,0,0,0,0,0,0,0,0,0,0,13039,0,0,0,0,0,0,0,0,0,18437,18438,18439,18440,18441,18442,0,0,0,0,0,0,
5701,5702,5703,5704,5705,0,0,0,0,0,0,0,0,0,0,0,0,0,0,0,0,0,0,0,0,0,0,0,0,0,0,0,0,0,0,0,0,0,0,0,0,0,0,0,0,0,0,0,0,0,0,0,0,0,0,0,0,6121,6122,6123,6124,6125,0,0,0,0,0,0,0,0,0,0,0,0,0,0,0,0,0,0,0,0,0,5558,5559,5560,0,5558,5559,5560,0,0,0,18577,18578,18579,18580,18581,18582,0,0,0,0,0,0,
5841,5842,5843,5844,5845,0,0,0,0,0,0,0,0,0,0,0,0,0,0,0,0,0,0,0,0,0,0,0,0,0,0,0,0,0,0,0,0,0,0,0,0,0,0,0,0,0,0,0,0,0,0,0,0,0,0,0,0,0,0,0,0,0,0,0,0,0,0,0,0,0,0,0,0,0,0,0,0,0,0,0,0,0,0,6114,6115,6116,6117,6118,6119,6120,0,0,0,18717,18718,18719,18720,18721,18722,0,0,0,0,0,0,
5981,5982,5983,5984,5985,0,0,0,4031,0,0,0,0,0,0,0,0,0,0,0,0,0,0,0,0,0,0,0,0,0,0,0,0,0,0,0,0,0,0,0,0,0,0,0,0,0,0,0,0,0,0,0,0,0,0,0,0,0,0,0,0,13000,0,0,0,13000,0,0,0,0,0,0,0,0,0,0,0,0,0,0,0,0,0,6254,6255,6256,6257,6258,6259,6260,21867,21868,21869,18857,18858,18859,18860,18861,18862,0,0,0,0,0,0,
6121,6122,6123,6124,6125,0,0,0,0,0,0,0,0,0,0,0,0,0,0,0,0,0,0,0,0,0,0,0,0,0,0,0,0,0,0,0,0,0,0,0,0,0,0,0,0,0,0,0,0,0,0,0,0,0,0,0,0,0,0,0,0,13140,0,0,0,13140,0,0,0,0,0,0,0,0,0,0,0,0,0,0,0,0,0,0,0,0,22003,22004,22005,22006,22007,22008,22009,22010,22011,0,0,0,0,0,0,0,0,0,0,
5561,5562,5563,5564,5565,0,0,0,0,0,0,0,0,0,0,0,0,0,0,0,0,0,0,0,0,0,0,0,0,0,0,0,0,0,0,0,0,0,0,0,0,0,0,0,0,0,0,0,0,0,0,0,0,0,0,0,0,0,0,0,0,13280,0,0,0,13280,0,0,0,0,0,0,0,0,0,0,0,0,0,0,0,0,0,0,0,0,22143,22144,22145,22146,22147,22148,22149,22150,22151,0,0,0,0,0,0,0,0,0,0,
5701,5702,5703,5704,5705,0,0,0,0,0,0,0,0,0,0,0,0,0,0,0,0,0,0,0,0,0,0,0,0,0,0,0,0,0,0,0,0,0,0,0,0,0,0,0,0,0,0,0,0,0,0,0,0,0,0,0,0,0,0,0,0,13420,0,0,0,13420,0,0,0,0,0,0,0,0,0,0,0,0,0,0,0,0,0,0,0,0,22283,22284,22285,22286,22287,22288,22289,22290,22291,0,0,0,0,0,0,0,0,0,0,
5841,5842,5843,5844,5845,0,0,0,0,0,0,0,0,0,0,0,0,0,0,0,0,0,0,0,0,0,0,0,0,0,0,0,0,0,0,0,0,0,0,0,0,0,0,0,0,0,0,0,0,0,0,0,0,0,0,0,0,0,0,0,0,0,0,0,0,0,0,0,0,0,0,0,0,0,0,0,0,0,0,0,0,0,0,0,0,0,22423,22424,22425,22426,22427,22428,22429,22430,22431,0,0,0,0,0,0,0,0,0,0,
5981,5982,5983,5984,5985,0,0,0,0,0,0,0,0,0,0,0,0,0,0,0,0,0,0,0,0,0,0,0,0,0,0,0,0,0,0,0,0,0,0,0,0,0,0,0,0,0,0,0,0,0,0,0,0,0,0,0,0,0,0,0,0,0,0,0,0,0,0,0,0,0,0,0,0,0,0,0,0,0,0,0,0,0,0,0,0,0,22563,22564,22565,22566,22567,22568,22569,22570,22571,0,0,0,0,0,0,0,0,0,0,
6121,6122,6123,6124,6125,0,0,0,0,0,0,0,0,0,0,0,0,0,0,0,0,0,0,0,0,0,0,0,0,0,0,0,0,0,0,0,0,10816,10817,10818,0,0,0,0,0,0,0,0,0,0,0,0,0,0,0,0,0,0,0,0,0,0,0,0,0,0,0,0,0,0,0,0,0,0,0,0,0,0,0,0,0,0,0,0,0,0,22703,22704,22705,22706,22707,22708,22709,22710,22711,0,0,0,0,0,0,0,0,0,0,
0,0,0,0,0,0,0,0,0,0,0,0,0,0,0,0,0,0,0,0,0,0,0,0,0,0,0,0,0,0,0,0,0,0,0,0,0,10956,10957,10958,0,0,0,0,0,0,0,0,0,0,0,0,0,0,0,0,0,0,0,0,0,0,0,0,0,0,0,0,0,0,0,0,0,0,0,0,0,0,0,0,0,0,0,0,0,0,22843,22844,22845,22846,22847,22848,22849,22850,22851,0,0,0,0,0,0,0,0,0,0,
0,0,0,0,0,0,0,0,0,0,0,0,0,0,0,0,0,0,0,0,0,0,0,0,0,0,0,0,0,0,0,0,0,0,0,0,0,11096,11097,11098,0,0,0,0,0,0,0,0,0,0,0,0,0,0,0,0,0,0,0,0,0,0,0,0,13002,13003,13004,13005,0,0,0,0,0,0,0,0,0,0,0,0,0,0,0,0,0,0,22983,22984,22985,22986,22987,22988,22989,22990,22991,0,0,0,0,0,0,0,0,0,0,
0,0,0,0,0,0,0,0,0,0,0,0,0,0,0,0,0,0,0,0,0,0,0,0,0,0,0,0,0,0,0,0,0,0,0,0,0,0,0,0,0,0,0,0,0,0,0,0,0,0,0,0,0,0,0,0,0,0,0,0,0,0,0,0,13142,13143,13144,13145,0,0,0,0,0,0,0,0,0,0,0,0,0,0,0,0,0,0,23123,23124,23125,23126,23127,23128,23129,23130,23131,0,0,0,0,0,0,0,0,0,0,
0,0,0,0,0,0,0,0,0,0,0,0,0,0,0,0,0,0,0,0,0,12895,12896,0,0,13315,13316,0,0,0,0,0,0,0,0,0,0,0,0,0,0,0,0,0,0,0,0,0,0,0,0,0,0,0,0,0,0,0,0,0,0,0,0,0,13282,13283,13284,13285,0,0,0,0,0,0,0,0,0,0,0,0,0,0,0,0,0,0,23263,23264,23265,23266,23267,23268,23269,23270,23271,0,0,0,0,0,0,0,0,0,0,
0,0,0,0,0,0,0,0,0,0,0,0,0,0,0,0,0,0,0,0,0,0,0,0,0,0,0,0,0,0,0,0,0,0,0,0,13006,13007,13008,13009,0,0,0,0,0,0,0,0,0,0,0,0,0,0,0,0,0,0,0,0,0,0,0,0,13422,13423,13424,13425,0,0,0,0,0,0,0,0,0,0,0,0,0,0,0,0,0,0,23403,23404,23405,23406,23407,23408,23409,23410,23411,0,0,0,0,0,0,0,0,0,0,
0,0,0,0,0,0,0,0,0,0,0,0,0,0,0,0,0,0,0,0,0,0,0,0,0,0,0,0,0,0,0,0,0,0,0,0,13146,13147,13148,13149,0,0,0,0,0,0,0,0,0,0,0,0,0,0,0,0,0,0,0,0,0,0,0,0,0,0,0,0,0,0,0,0,0,0,0,0,0,0,0,0,0,0,0,0,0,0,23543,23544,23545,23546,23547,23548,23549,23550,23551,0,0,0,0,0,0,0,0,0,0,
0,0,0,0,0,0,0,0,0,0,0,0,0,0,0,0,0,0,0,0,0,0,0,0,0,0,0,0,0,0,0,0,0,0,0,0,13286,13287,13288,13289,0,0,0,0,0,0,0,22088,22089,22090,22091,22092,22093,0,0,0,0,0,0,0,0,0,0,0,0,0,0,0,0,0,0,0,0,0,0,0,0,0,0,0,0,0,0,0,0,0,23683,23684,23685,23686,23687,23688,23689,23690,23691,22765,22766,22767,22768,22769,0,0,0,0,0,
0,0,0,0,0,5561,5562,5563,5564,5565,0,0,0,0,0,0,0,0,0,0,0,0,0,0,0,0,0,0,0,0,0,0,0,0,0,0,13426,13427,13428,13429,0,0,0,0,0,0,0,22228,22229,22230,22231,22232,22233,0,0,0,0,0,0,0,0,0,0,0,0,0,0,0,0,0,0,0,0,0,0,0,0,0,0,0,0,0,0,0,0,0,23823,23824,23825,23826,23827,23828,23829,23830,23831,22905,22906,22907,22908,22909,0,0,0,0,0,
0,0,0,0,0,5701,5702,5703,5704,5705,0,0,0,0,0,0,0,0,0,0,0,0,0,0,0,0,0,0,0,0,0,0,0,0,0,0,0,0,0,0,0,0,0,0,0,0,0,22368,22369,22370,22371,22372,22373,0,0,0,0,0,0,0,0,0,0,0,0,0,0,0,0,0,0,0,0,0,0,0,0,0,0,0,0,0,0,0,0,0,23963,23964,23965,23966,23967,23968,23969,23970,23971,23045,23046,23047,23048,23049,0,0,0,0,0,
5561,5562,5563,5564,5565,5841,5842,5843,5844,5845,0,0,0,0,0,0,0,0,0,0,0,0,0,0,0,0,0,0,0,0,0,0,0,0,0,0,0,0,0,0,0,0,0,0,0,0,0,22508,22509,22510,22511,22512,22513,0,0,0,0,0,0,0,0,0,0,0,0,0,0,0,0,0,0,0,0,0,0,0,0,0,0,0,0,0,0,0,0,0,24103,24104,24105,24106,24107,24108,24109,24110,24111,23185,23186,23187,23188,23189,0,0,0,0,0,
5701,5702,5703,5704,5705,5981,5982,5983,5984,5985,0,0,0,0,0,0,0,0,0,0,0,0,0,0,0,0,0,0,0,0,0,0,0,0,0,0,0,0,0,0,0,0,0,0,0,0,0,22648,22649,22650,22651,22652,22653,0,0,0,0,0,0,0,510,511,512,0,0,0,0,0,0,0,0,0,0,0,0,0,0,0,0,0,0,0,0,0,0,0,24243,24244,24245,24246,24247,24248,24249,24250,24251,23325,23326,23327,23328,23329,0,0,0,0,0,
5841,5842,5843,5844,5845,6121,6122,6123,6124,6125,0,0,0,0,0,0,0,0,0,0,0,0,0,0,0,0,0,0,0,0,0,0,0,0,0,0,0,0,0,0,0,0,0,0,0,0,0,22788,22789,22790,22791,22792,22793,0,0,0,0,0,0,0,518,519,520,0,0,0,0,0,0,0,0,0,0,0,0,0,0,0,0,0,0,0,0,0,0,0,0,0,0,0,0,0,0,0,0,23465,23466,23467,23468,23469,0,0,0,0,0,
5981,5982,5983,5984,5985,0,0,0,0,0,0,0,0,0,0,0,0,0,0,0,0,0,0,0,0,0,0,0,0,0,0,0,0,0,0,0,0,0,0,0,0,0,0,0,0,0,0,22928,22929,22930,22931,22932,22933,0,0,0,0,0,0,0,526,527,528,0,0,0,0,0,0,0,0,0,0,0,0,0,0,0,0,0,0,0,0,0,0,0,0,0,0,0,0,0,0,0,0,0,0,0,0,0,0,0,0,0,0,
6121,6122,6123,6124,6125,0,0,0,0,0,0,0,0,0,0,0,0,0,0,0,0,0,0,0,0,0,0,0,0,0,0,0,0,0,0,0,0,0,0,0,0,0,0,0,0,0,0,0,0,0,0,0,0,0,0,0,0,0,0,0,0,0,0,0,0,0,0,0,0,0,0,0,0,0,0,0,0,0,0,0,0,0,0,0,0,0,0,0,0,0,0,0,0,0,0,0,0,0,0,0,0,0,0,0,0,
0,0,0,0,0,0,0,0,0,0,0,5561,5562,5563,5564,5565,0,0,0,0,0,0,0,0,0,0,0,0,0,0,0,0,0,0,0,0,0,0,0,0,0,0,0,0,0,0,0,0,0,0,0,0,0,0,0,0,0,0,0,0,0,0,0,0,0,0,0,0,0,0,0,0,0,0,0,0,0,0,0,0,0,0,0,0,0,0,0,0,0,0,0,0,0,0,0,0,0,0,0,0,0,0,0,0,0,
0,0,0,0,0,0,0,0,0,0,0,5701,5702,5703,5704,5705,0,0,0,0,0,0,0,0,0,0,0,0,0,0,0,0,0,0,0,0,0,0,0,0,0,0,0,0,5561,5562,5563,5564,5565,0,0,0,0,0,0,0,0,0,0,0,0,0,0,0,0,0,0,0,0,0,0,0,0,0,0,0,0,0,0,0,0,0,0,0,0,0,0,0,0,0,0,0,0,0,0,0,0,0,0,0,0,0,0,0,0,
0,0,0,0,0,0,0,0,0,0,0,5841,5842,5843,5844,5845,0,0,0,0,0,0,0,0,0,0,0,0,0,0,0,0,0,0,0,0,0,0,0,0,0,0,0,0,5701,5702,5703,5704,5705,13006,13007,13008,13009,0,0,0,0,0,0,0,0,0,0,0,0,0,0,0,0,0,0,0,0,0,0,0,0,0,0,0,0,0,0,0,0,0,0,0,0,0,0,0,0,0,0,0,0,0,0,0,0,0,0,0,0,
0,0,0,0,0,0,0,0,0,0,0,5981,5982,5983,5984,5985,0,0,0,0,0,0,0,0,0,0,0,0,0,0,0,0,0,0,0,0,0,0,0,0,0,0,0,0,5841,5842,5843,5844,5845,13146,13147,13148,13149,0,0,0,0,0,0,0,0,0,0,0,0,0,0,0,0,0,0,0,0,0,0,0,0,0,0,0,0,0,0,0,0,0,0,0,0,0,0,0,0,0,0,0,0,0,0,0,0,0,0,0,0,
0,0,0,0,0,0,0,0,0,0,0,6121,6122,6123,6124,6125,0,0,0,0,0,0,0,0,0,0,0,0,0,0,0,0,0,0,0,0,0,0,0,0,0,0,0,0,5981,5982,5983,5984,5985,13286,13287,13288,13289,0,0,0,0,0,0,0,0,0,0,0,0,0,0,0,0,0,0,0,0,0,0,0,0,0,0,0,0,0,0,0,0,0,0,0,0,0,0,0,0,0,0,0,0,0,0,0,0,0,0,0,0,
0,0,0,0,0,0,0,0,0,0,0,5561,5562,5563,5564,5565,0,0,0,0,0,0,0,0,0,0,0,0,0,0,0,0,0,0,0,0,0,0,0,0,0,0,0,0,6121,6122,6123,6124,6125,13426,13427,13428,13429,0,0,0,0,0,0,0,0,0,0,0,0,0,0,0,0,0,0,0,0,0,0,0,0,0,0,0,0,0,0,0,0,0,0,0,0,0,0,0,0,0,0,0,0,0,0,0,0,0,0,0,0,
0,0,0,0,0,0,0,0,0,0,0,5701,5702,5703,5704,5705,0,0,0,0,0,0,0,0,0,0,0,0,0,0,0,0,0,0,0,0,0,0,0,0,0,0,0,0,0,0,0,0,0,0,0,0,0,0,0,0,0,0,0,0,0,0,0,0,0,0,0,0,0,0,0,0,0,0,0,0,0,0,0,0,0,0,0,0,0,0,0,0,0,0,0,0,0,0,0,0,0,0,0,0,0,0,0,0,0,
0,0,0,0,0,0,0,0,0,0,0,5841,5842,5843,5844,5845,0,0,0,0,0,0,0,0,0,0,0,0,0,0,0,0,0,0,0,0,0,0,0,0,0,0,0,0,0,0,0,0,0,0,0,0,0,0,0,0,0,0,0,0,0,0,0,0,0,0,0,0,0,0,0,0,0,0,0,0,0,0,0,0,0,0,0,0,0,0,0,0,0,0,0,0,0,0,0,0,0,0,0,0,0,0,0,0,0,
5561,5562,5563,5564,5565,13002,13003,13004,13005,0,0,5981,5982,5983,5984,5985,0,0,0,0,0,0,0,0,0,0,0,0,0,0,0,0,0,0,0,0,0,0,0,0,5561,5562,5563,5564,5565,5561,5562,5563,5564,5565,0,0,0,0,0,0,0,0,0,0,0,0,0,0,0,0,0,0,0,0,0,0,0,0,0,0,0,0,0,0,0,0,0,0,0,0,0,0,0,0,0,0,0,0,0,0,0,0,0,0,0,0,0,0,0,
5701,5702,5703,5704,5705,13142,13143,13144,13145,0,0,6121,6122,6123,6124,6125,0,0,0,0,0,0,0,0,0,0,0,0,0,0,0,0,0,0,0,0,0,0,0,0,5701,5702,5703,5704,5705,5701,5702,5703,5704,5705,0,0,0,0,0,0,0,0,0,0,0,0,0,0,0,0,0,0,0,0,0,0,0,0,0,0,0,0,0,0,0,0,0,0,0,0,0,0,0,0,0,0,0,0,0,0,0,0,0,0,0,0,0,0,0,
5841,5842,5843,5844,5845,13282,13283,13284,13285,0,0,0,0,0,0,0,0,0,0,0,0,0,0,0,0,0,0,0,0,0,0,0,0,0,0,0,0,0,0,0,5841,5842,5843,5844,5845,5841,5842,5843,5844,5845,0,0,0,0,0,0,0,0,0,0,0,0,0,0,0,0,0,0,0,0,0,0,0,0,0,0,0,0,0,0,0,0,0,0,0,0,0,0,0,0,0,0,0,0,0,0,0,0,0,0,0,0,0,0,0,
5981,5982,5983,5984,5985,13422,13423,13424,13425,0,0,0,0,0,0,0,0,0,0,0,0,0,0,0,0,0,0,0,0,0,0,0,0,0,0,0,0,0,0,0,5981,5982,5983,5984,5985,5981,5982,5983,5984,5985,0,0,0,0,0,0,0,0,0,0,0,0,0,0,0,0,0,0,0,0,0,0,0,0,0,0,0,0,0,0,0,0,0,0,0,0,0,0,0,0,0,0,0,0,0,0,0,0,0,0,0,0,0,0,0,
6121,6122,6123,6124,6125,0,0,0,0,0,0,0,0,0,0,0,0,0,0,0,0,0,0,0,0,0,0,0,0,0,0,0,0,0,0,0,0,0,0,0,6121,6122,6123,6124,6125,6121,6122,6123,6124,6125,0,0,0,0,0,0,0,0,0,0,0,0,0,0,0,0,0,0,0,0,0,0,0,0,0,0,0,0,0,0,0,0,0,0,0,0,0,0,0,0,0,0,0,0,0,0,0,0,0,0,0,0,0,0,0
</data>
  </layer>
 </group>
 <group id="14" name="layer1">
  <layer id="10" name="player" width="105" height="60">
   <data encoding="csv">
0,0,0,0,0,0,0,0,0,0,0,0,0,0,0,0,0,0,0,0,0,0,0,0,0,0,0,0,0,0,0,0,0,0,0,0,0,0,0,0,0,0,0,0,0,0,0,0,0,0,0,0,0,0,0,0,0,0,0,0,0,0,0,0,0,0,0,0,0,0,0,0,0,0,0,0,0,0,0,0,0,0,0,0,0,0,0,0,0,0,0,0,0,0,0,0,0,0,0,0,0,0,0,0,0,
0,0,0,0,0,0,0,0,0,0,0,0,0,0,0,0,0,0,0,0,0,0,0,0,0,0,0,0,0,0,0,0,0,0,0,0,0,0,0,0,0,0,0,0,0,0,0,0,0,0,0,0,0,0,0,0,0,0,0,0,0,0,0,0,0,0,0,0,0,0,0,0,0,0,0,0,0,0,0,0,0,0,0,0,0,0,0,0,0,0,0,0,0,0,0,0,0,0,0,0,0,0,0,0,0,
0,0,0,0,0,0,0,0,0,0,0,0,0,0,0,0,0,0,0,0,0,0,0,0,0,0,0,0,0,0,0,0,0,0,0,0,0,0,0,0,0,0,0,0,0,0,0,0,0,0,0,0,0,0,0,0,0,0,0,0,0,0,0,0,0,0,0,0,0,0,0,0,0,0,0,0,0,0,0,0,0,0,0,0,0,0,0,0,0,0,0,0,0,0,0,0,0,0,0,0,0,0,0,0,0,
0,0,0,0,0,0,0,0,0,0,0,0,0,0,0,0,0,0,0,0,0,0,0,0,0,0,0,0,0,0,0,0,0,0,0,0,0,0,0,0,0,0,0,0,0,0,0,0,0,0,0,0,0,0,0,0,0,0,0,0,0,0,0,0,0,0,0,0,0,0,0,0,0,0,0,0,0,0,0,0,0,0,0,0,0,0,0,0,0,0,0,0,0,0,0,0,0,0,0,0,0,0,0,0,0,
0,0,0,0,0,0,0,0,0,0,0,0,0,0,0,0,0,0,0,0,0,0,0,0,0,0,0,0,0,0,0,0,0,0,0,0,0,0,0,0,0,0,0,0,0,0,0,0,0,0,0,0,0,0,0,0,0,0,0,0,0,0,0,0,0,0,0,0,0,0,0,0,0,0,0,0,0,0,0,0,0,0,0,0,0,0,0,0,0,0,0,0,0,0,0,0,0,0,0,0,0,0,0,0,0,
0,0,0,0,0,0,0,0,0,0,0,0,0,0,0,0,0,0,0,0,0,0,0,0,0,0,0,0,0,0,0,0,0,0,0,0,0,0,0,0,0,0,0,0,0,0,0,0,0,0,0,0,0,0,0,0,0,0,0,0,0,0,0,0,0,0,0,0,0,0,0,0,0,0,0,0,0,0,0,0,0,0,0,0,0,0,0,0,0,0,0,0,0,0,0,0,0,0,0,0,0,0,0,0,0,
0,0,0,0,0,0,0,0,0,0,0,0,0,0,0,0,0,0,0,0,0,0,0,0,0,0,0,0,0,0,0,0,0,0,0,0,0,0,0,0,0,0,0,0,0,0,0,0,0,0,0,0,0,0,0,0,0,0,0,0,0,0,0,0,0,0,0,0,0,0,0,0,0,0,0,0,0,0,0,0,0,0,0,0,0,0,0,0,0,0,0,0,0,0,0,0,0,0,0,0,0,0,0,0,0,
0,0,0,0,0,0,0,0,0,0,0,0,0,0,0,0,0,0,0,0,0,0,0,0,0,0,0,0,0,0,0,0,0,0,0,0,0,0,0,0,0,0,0,0,0,0,0,0,0,0,0,0,0,0,0,0,0,0,0,0,0,0,0,0,0,0,0,0,0,0,0,0,0,0,0,0,0,0,0,0,0,0,0,0,0,0,0,0,0,0,0,0,0,0,0,0,0,0,0,0,0,0,0,0,0,
0,0,0,0,0,0,0,0,0,0,0,0,0,0,0,0,0,0,0,0,0,0,0,0,0,0,0,0,0,0,0,0,0,0,0,0,0,0,0,0,0,0,0,0,0,0,0,0,0,0,0,0,0,0,0,0,0,0,0,0,0,0,0,0,0,0,0,0,0,0,0,0,0,0,0,0,0,0,0,0,0,0,0,0,0,0,0,0,0,0,0,0,0,0,0,0,0,0,0,0,0,0,0,0,0,
0,0,0,0,0,0,0,0,0,0,0,0,0,0,0,0,0,0,0,0,0,0,0,0,0,0,0,0,0,0,0,0,0,0,0,0,0,0,0,0,0,0,0,0,0,0,0,0,0,0,0,0,0,0,0,0,0,0,0,0,0,0,0,0,0,0,0,0,0,0,0,0,0,0,0,0,0,0,0,0,0,0,0,0,0,0,0,0,0,0,0,0,0,0,0,0,0,0,0,0,0,0,0,0,0,
0,0,0,0,0,0,0,0,0,0,0,0,0,0,0,0,0,0,0,0,0,0,0,0,0,0,0,0,0,0,0,0,0,0,0,0,0,0,0,0,0,0,0,0,0,0,0,0,0,0,0,0,0,0,0,0,0,0,0,0,0,0,0,0,0,0,0,0,0,0,0,0,0,0,0,0,0,0,0,0,0,0,0,0,0,0,0,0,0,0,0,0,0,0,0,0,0,0,0,0,0,0,0,0,0,
0,0,0,0,0,0,0,0,0,0,0,0,0,0,0,0,0,0,0,0,0,0,0,0,0,0,0,0,0,0,0,0,0,0,0,0,0,0,0,0,0,0,0,0,0,0,0,0,0,0,0,0,0,0,0,0,0,0,0,0,0,0,0,0,0,0,0,0,0,0,0,0,0,0,0,0,0,0,0,0,0,0,0,0,0,0,0,0,0,0,0,0,0,0,0,0,0,0,0,0,0,0,0,0,0,
0,0,0,0,0,0,0,0,0,0,0,0,0,0,0,0,0,0,0,0,0,0,0,0,0,0,0,0,0,0,0,0,0,0,0,0,0,0,0,0,0,0,0,0,0,0,0,0,0,0,0,0,0,0,0,0,0,0,0,0,0,0,0,0,0,0,0,0,0,0,0,0,0,0,0,0,0,0,0,0,0,0,0,0,0,0,0,0,0,0,0,0,0,0,0,0,0,0,0,0,0,0,0,0,0,
0,0,0,0,0,0,0,0,0,0,0,0,0,0,0,0,0,0,0,0,0,0,0,0,0,0,0,0,0,0,0,0,0,0,0,0,0,0,0,0,0,0,0,0,0,0,0,0,0,0,0,0,0,0,0,0,0,0,0,0,0,0,0,0,0,0,0,0,0,0,0,0,0,0,0,0,0,0,0,0,0,0,0,0,0,0,0,0,0,0,0,0,0,0,0,0,0,0,0,0,0,0,0,0,0,
0,0,0,0,0,0,0,0,0,0,0,0,0,0,0,0,0,0,0,0,0,0,0,0,0,0,0,0,0,0,0,0,0,0,0,0,0,0,0,0,0,0,0,0,0,0,0,0,0,0,0,0,0,0,0,0,0,0,0,0,0,0,0,0,0,0,0,0,0,0,0,0,0,0,0,0,0,0,0,0,0,0,0,0,0,0,0,0,0,0,0,0,0,0,0,0,0,0,0,0,0,0,0,0,0,
0,0,0,0,0,0,0,0,0,0,0,0,0,0,0,0,0,0,0,0,0,0,0,0,0,0,0,0,0,0,0,0,0,0,0,0,0,0,0,0,0,0,0,0,0,0,0,0,0,0,0,0,0,0,0,0,0,0,0,0,0,0,0,0,0,0,0,0,0,0,0,0,0,0,0,0,0,0,0,0,0,0,0,0,0,0,0,0,0,0,0,0,0,0,0,0,0,0,0,0,0,0,0,0,0,
0,0,0,0,0,0,0,0,0,0,0,0,0,0,0,0,0,0,0,0,0,0,0,0,0,0,0,0,0,0,0,0,0,0,0,0,0,0,0,0,0,0,0,0,0,0,0,0,0,0,0,0,0,0,0,0,0,0,0,0,0,0,0,0,0,0,0,0,0,0,0,0,0,0,0,0,0,0,0,0,0,0,0,0,0,0,0,0,0,0,0,0,0,0,0,0,0,0,0,0,0,0,0,0,0,
0,0,0,0,0,0,0,0,0,0,0,0,0,0,0,0,0,0,0,0,0,0,0,0,0,0,0,0,0,0,0,0,0,0,0,0,0,0,0,0,0,0,0,0,0,0,0,0,0,0,0,0,0,0,0,0,0,0,0,0,0,0,0,0,0,0,0,0,0,0,0,0,0,0,0,0,0,0,0,0,0,0,0,0,0,0,0,0,0,0,0,0,0,0,0,0,0,0,0,0,0,0,0,0,0,
0,0,0,0,0,0,0,0,0,0,0,0,0,0,0,0,0,0,0,0,0,0,0,0,0,0,0,0,0,0,0,0,0,0,0,0,0,0,0,0,0,0,0,0,0,0,0,0,0,0,0,0,0,0,0,0,0,0,0,0,0,0,0,0,0,0,0,0,0,0,0,0,0,0,0,0,0,0,0,0,0,0,0,0,0,0,0,0,0,0,0,0,0,0,0,0,0,0,0,0,0,0,0,0,0,
0,0,0,0,0,0,0,0,0,0,0,0,0,0,0,0,0,0,0,0,0,0,0,0,0,0,0,0,0,0,0,0,0,0,0,0,0,0,0,0,0,0,0,0,0,0,0,0,0,0,0,0,0,0,0,0,0,0,0,0,0,0,0,0,0,0,0,0,0,0,0,0,0,0,0,0,0,0,0,0,0,0,0,0,0,0,0,0,0,0,0,0,0,0,0,0,0,0,0,0,0,0,0,0,0,
0,0,0,0,0,0,0,0,0,0,0,0,0,0,0,0,0,0,0,0,0,0,0,0,0,0,0,0,0,0,0,0,0,0,0,0,0,0,0,0,0,0,0,0,0,0,0,0,0,0,0,0,0,0,0,0,0,0,0,0,0,0,0,0,0,0,0,0,0,0,0,0,0,0,0,0,0,0,0,0,0,0,0,0,0,0,0,0,0,0,0,0,0,0,0,0,0,0,0,0,0,0,0,0,0,
0,0,0,0,0,0,0,0,0,0,0,0,0,0,0,0,0,0,0,0,0,0,0,0,0,0,0,0,0,0,0,0,0,0,0,0,0,0,0,0,0,0,0,0,0,0,0,0,0,0,0,0,0,0,0,0,0,0,0,0,0,0,0,0,0,0,0,0,0,0,0,0,0,0,0,0,0,0,0,0,0,0,0,0,0,0,0,0,0,0,0,0,0,0,0,0,0,0,0,0,0,0,0,0,0,
0,0,0,0,0,0,0,0,0,0,0,0,0,0,0,0,0,0,0,0,0,0,0,0,0,0,0,0,0,0,0,0,0,0,0,0,0,0,0,0,0,0,0,0,0,0,0,0,0,0,0,0,0,0,0,0,0,0,0,0,0,0,0,0,0,0,0,0,0,0,0,0,0,0,0,0,0,0,0,0,0,0,0,0,0,0,0,0,0,0,0,0,0,0,0,0,0,0,0,0,0,0,0,0,0,
0,0,0,0,0,0,0,0,0,0,0,0,0,0,0,0,0,0,0,0,0,0,0,0,0,0,0,0,0,0,0,0,0,0,0,0,0,0,0,0,0,0,0,0,0,0,0,0,0,0,0,0,0,0,0,0,0,0,0,0,0,0,0,0,0,0,0,0,0,0,0,0,0,0,0,0,0,0,0,0,0,0,0,0,0,0,0,0,0,0,0,0,0,0,0,0,0,0,0,0,0,0,0,0,0,
0,0,0,0,0,0,0,0,0,0,0,0,0,0,0,0,0,0,0,0,0,0,0,0,0,0,0,0,0,0,0,0,0,0,0,0,0,0,0,0,0,0,0,0,0,0,0,0,0,0,0,0,0,0,0,0,0,0,0,0,0,0,0,0,0,0,0,0,0,0,0,0,0,0,0,0,0,0,0,0,0,0,0,0,0,0,0,0,0,0,0,0,0,0,0,0,0,0,0,0,0,0,0,0,0,
0,0,0,0,0,0,0,0,0,0,0,0,0,0,0,0,0,0,0,0,0,0,0,0,0,0,0,0,0,0,0,0,0,0,0,0,0,0,0,0,0,0,0,0,0,0,0,0,0,0,0,0,0,0,0,0,0,0,0,0,0,0,0,0,0,0,0,0,0,0,0,0,0,0,0,0,0,0,0,0,0,0,0,0,0,0,0,0,0,0,0,0,0,0,0,0,0,0,0,0,0,0,0,0,0,
0,0,0,0,0,0,0,0,0,0,0,0,0,0,0,0,0,0,0,0,0,0,0,0,0,0,0,0,0,0,0,0,0,0,0,0,0,0,0,0,0,0,0,0,0,0,0,0,0,0,0,0,0,0,0,0,0,0,0,0,0,0,0,0,0,0,0,0,0,0,0,0,0,0,0,0,0,0,0,0,0,0,0,0,0,0,0,0,0,0,0,0,0,0,0,0,0,0,0,0,0,0,0,0,0,
0,0,0,0,0,0,0,0,0,0,0,0,0,0,0,0,0,0,0,0,0,0,0,0,0,0,0,0,0,0,0,0,0,0,0,0,0,0,0,0,0,0,0,0,0,0,0,0,0,0,0,0,0,0,0,0,0,0,0,0,0,0,0,0,0,0,0,0,0,0,0,0,0,0,0,0,0,0,0,0,0,0,0,0,0,0,0,0,0,0,0,0,0,0,0,0,0,0,0,0,0,0,0,0,0,
0,0,0,0,0,0,0,0,0,0,0,0,0,0,0,0,0,0,0,0,0,0,0,0,0,0,0,0,0,0,0,0,0,0,0,0,0,0,0,0,0,0,0,0,0,0,0,0,0,0,0,0,0,0,0,0,0,0,0,0,0,0,0,0,0,0,0,0,0,0,0,0,0,0,0,0,0,0,0,0,0,0,0,0,0,0,0,0,0,0,0,0,0,0,0,0,0,0,0,0,0,0,0,0,0,
0,0,0,0,0,0,0,0,0,0,0,0,0,0,0,0,0,0,0,0,0,0,0,0,0,0,0,0,0,0,0,0,0,0,0,0,0,0,0,0,0,0,0,0,0,0,0,0,0,0,0,0,0,0,0,0,0,0,0,0,0,0,0,0,0,0,0,0,0,0,0,0,0,0,0,0,0,0,0,0,0,0,0,0,0,0,0,0,0,0,0,0,0,0,0,0,0,0,0,0,0,0,0,0,0,
0,0,0,0,0,0,0,0,0,0,0,0,0,0,0,0,0,0,0,0,0,0,0,0,0,0,0,0,0,0,0,0,0,0,0,0,0,0,0,0,0,0,0,0,0,0,0,0,0,0,0,0,0,0,0,0,0,0,0,0,0,0,0,0,0,0,0,0,0,0,0,0,0,0,0,0,0,0,0,0,0,0,0,0,0,0,0,0,0,0,0,0,0,0,0,0,0,0,0,0,0,0,0,0,0,
0,0,0,0,0,0,0,0,0,0,0,0,0,0,0,0,0,0,0,0,0,0,0,0,0,0,0,0,0,0,0,0,0,0,0,0,0,0,0,0,0,0,0,0,0,0,0,0,0,0,0,0,0,0,0,0,0,0,0,0,0,0,0,0,0,0,0,0,0,0,0,0,0,0,0,0,0,0,0,0,0,0,0,0,0,0,0,0,0,0,0,0,0,0,0,0,0,0,0,0,0,0,0,0,0,
0,0,0,0,0,0,0,0,0,0,0,0,0,0,0,0,0,0,0,0,0,0,0,0,0,0,0,0,0,0,0,0,0,0,0,0,0,0,0,0,0,0,0,0,0,0,0,0,0,0,0,0,0,0,0,0,0,0,0,0,0,0,0,0,0,0,0,0,0,0,0,0,0,0,0,0,0,0,0,0,0,0,0,0,0,0,0,0,0,0,0,0,0,0,0,0,0,0,0,0,0,0,0,0,0,
0,0,0,0,0,0,0,0,0,0,0,0,0,0,0,0,0,0,0,0,0,0,0,0,0,0,0,0,0,0,0,0,0,0,0,0,0,0,0,0,0,0,0,0,0,0,0,0,0,0,0,0,0,0,0,0,0,0,0,0,0,0,0,0,0,0,0,0,0,0,0,0,0,0,0,0,0,0,0,0,0,0,0,0,0,0,0,0,0,0,0,0,0,0,0,0,0,0,0,0,0,0,0,0,0,
0,0,0,0,0,0,0,0,0,0,0,0,0,0,0,0,0,0,0,0,0,0,0,0,0,0,0,0,0,0,0,0,0,0,0,0,0,0,0,0,0,0,0,0,0,0,0,0,0,0,0,0,0,0,0,0,0,0,0,0,0,0,0,0,0,0,0,0,0,0,0,0,0,0,0,0,0,0,0,0,0,0,0,0,0,0,0,0,0,0,0,0,0,0,0,0,0,0,0,0,0,0,0,0,0,
0,0,0,0,0,0,0,0,0,0,0,0,0,0,0,0,0,0,0,0,0,0,0,0,0,0,0,0,0,0,0,0,0,0,0,0,0,0,0,0,0,0,0,0,0,0,0,0,0,0,0,0,0,0,0,0,0,0,0,0,0,0,0,0,0,0,0,0,0,0,0,0,0,0,0,0,0,0,0,0,0,0,0,0,0,0,0,0,0,0,0,0,0,0,0,0,0,0,0,0,0,0,0,0,0,
0,0,0,0,0,0,0,0,0,0,0,0,0,0,0,0,0,0,0,0,0,0,0,0,0,0,0,0,0,0,0,0,0,0,0,0,0,0,0,0,0,0,0,0,0,0,0,0,0,0,0,0,0,0,0,0,0,0,0,0,0,0,0,0,0,0,0,0,0,0,0,0,0,0,0,0,0,0,0,0,0,0,0,0,0,0,0,0,0,0,0,0,0,0,0,0,0,0,0,0,0,0,0,0,0,
0,0,0,0,0,0,0,0,0,0,0,0,0,0,0,0,0,0,0,0,0,0,0,0,0,0,0,0,0,0,0,0,0,0,0,0,0,0,0,0,0,0,0,0,0,0,0,0,0,0,0,0,0,0,0,0,0,0,0,0,0,0,0,0,0,0,0,0,0,0,0,0,0,0,0,0,0,0,0,0,0,0,0,0,0,0,0,0,0,0,0,0,0,0,0,0,0,0,0,0,0,0,0,0,0,
0,0,0,0,0,0,0,0,0,0,0,0,0,0,0,0,0,0,0,0,0,0,0,0,0,0,0,0,0,0,0,0,0,0,0,0,0,0,0,0,0,0,0,0,0,0,0,0,0,0,0,0,0,0,0,0,0,0,0,0,0,0,0,0,0,0,0,0,0,0,0,0,0,0,0,0,0,0,0,0,0,0,0,0,0,0,0,0,0,0,0,0,0,0,0,0,0,0,0,0,0,0,0,0,0,
0,0,0,0,0,0,0,0,0,0,0,0,0,0,0,0,0,0,0,0,0,0,0,0,0,0,0,0,0,0,0,0,0,0,0,0,0,0,0,0,0,0,0,0,0,0,0,0,0,0,0,0,0,0,0,0,0,0,0,0,0,0,0,0,0,0,0,0,0,0,0,0,0,0,0,0,0,0,0,0,0,0,0,0,0,0,0,0,0,0,0,0,0,0,0,0,0,0,0,0,0,0,0,0,0,
0,0,0,0,0,0,0,0,0,0,0,0,0,0,0,0,0,0,0,0,0,0,0,0,0,0,0,0,0,0,0,0,0,0,0,0,0,0,0,0,0,0,0,0,0,0,0,0,0,0,0,0,0,0,0,0,0,0,0,0,0,0,0,0,0,0,0,0,0,0,0,0,0,0,0,0,0,0,0,0,0,0,0,0,0,0,0,0,0,0,0,0,0,0,0,0,0,0,0,0,0,0,0,0,0,
0,0,0,0,0,0,0,0,0,0,0,0,0,0,0,0,0,0,0,0,0,0,0,0,0,0,0,0,0,0,0,0,0,0,0,0,0,0,0,0,0,0,0,0,0,0,0,0,0,0,0,0,0,0,0,0,0,0,0,0,0,0,0,0,0,0,0,0,0,0,0,0,0,0,0,0,0,0,0,0,0,0,0,0,0,0,0,0,0,0,0,0,0,0,0,0,0,0,0,0,0,0,0,0,0,
0,0,0,0,0,0,0,0,0,0,0,0,0,0,0,0,0,0,0,0,0,0,0,0,0,0,0,0,0,0,0,0,0,0,0,0,0,0,0,0,0,0,0,0,0,0,0,0,0,0,0,0,0,0,0,0,0,0,0,0,0,0,0,0,0,0,0,0,0,0,0,0,0,0,0,0,0,0,0,0,0,0,0,0,0,0,0,0,0,0,0,0,0,0,0,0,0,0,0,0,0,0,0,0,0,
0,0,0,0,0,0,0,0,0,0,0,0,0,0,0,0,0,0,0,0,0,0,0,0,0,0,0,0,0,0,0,0,0,0,0,0,0,0,0,0,0,0,0,0,0,0,0,0,0,0,0,0,0,0,0,0,0,0,0,0,0,0,0,0,0,0,0,0,0,0,0,0,0,0,0,0,0,0,0,0,0,0,0,0,0,0,0,0,0,0,0,0,0,0,0,0,0,0,0,0,0,0,0,0,0,
0,0,0,0,0,0,0,0,0,0,0,0,0,0,0,0,0,0,0,0,0,0,0,0,0,0,0,0,0,0,0,0,0,0,0,0,0,0,0,0,0,0,0,0,0,0,0,0,0,0,0,0,0,0,0,0,0,0,0,0,0,0,0,0,0,0,0,0,0,0,0,0,0,0,0,0,0,0,0,0,0,0,0,0,0,0,0,0,0,0,0,0,0,0,0,0,0,0,0,0,0,0,0,0,0,
0,0,0,0,0,0,0,0,0,0,0,0,0,0,0,0,0,0,0,0,0,0,0,0,0,0,0,0,0,0,0,0,0,0,0,0,0,0,0,0,0,0,0,0,0,0,0,0,0,0,0,0,0,0,0,0,0,0,0,0,0,0,0,0,0,0,0,0,0,0,0,0,0,0,0,0,0,0,0,0,0,0,0,0,0,0,0,0,0,0,0,0,0,0,0,0,0,0,0,0,0,0,0,0,0,
0,0,0,0,0,0,0,0,0,0,0,0,0,0,0,0,0,0,0,0,0,0,0,0,0,0,0,0,0,0,0,0,0,0,0,0,0,0,0,0,0,0,0,0,0,0,0,0,0,0,0,0,0,0,0,0,0,0,0,0,0,0,0,0,0,0,0,0,0,0,0,0,0,0,0,0,0,0,0,0,0,0,0,0,0,0,0,0,0,0,0,0,0,0,0,0,0,0,0,0,0,0,0,0,0,
0,0,0,0,0,0,0,0,0,0,0,0,0,0,0,0,0,0,0,0,0,0,0,0,0,0,0,0,0,0,0,0,0,0,0,0,0,0,0,0,0,0,0,0,0,0,0,0,0,0,0,0,0,0,0,0,0,0,0,0,0,0,0,0,0,0,0,0,0,0,0,0,0,0,0,0,0,0,0,0,0,0,0,0,0,0,0,0,0,0,0,0,0,0,0,0,0,0,0,0,0,0,0,0,0,
0,0,0,0,0,0,0,0,0,0,0,0,0,0,0,0,0,0,0,0,0,0,0,0,0,0,0,0,0,0,0,0,0,0,0,0,0,0,0,0,0,0,0,0,0,0,0,0,0,0,0,0,0,0,0,0,0,0,0,0,0,0,0,0,0,0,0,0,0,0,0,0,0,0,0,0,0,0,0,0,0,0,0,0,0,0,0,0,0,0,0,0,0,0,0,0,0,0,0,0,0,0,0,0,0,
0,0,0,0,0,0,0,0,0,0,0,0,0,0,0,0,0,0,0,0,0,0,0,0,0,0,0,0,0,0,0,0,0,0,0,0,0,0,0,0,0,0,0,0,0,0,0,0,0,0,0,0,0,0,0,0,0,0,0,0,0,0,0,0,0,0,0,0,0,0,0,0,0,0,0,0,0,0,0,0,0,0,0,0,0,0,0,0,0,0,0,0,0,0,0,0,0,0,0,0,0,0,0,0,0,
0,0,0,0,0,0,0,0,0,0,0,0,0,0,0,0,0,0,0,0,0,0,0,0,0,0,0,0,0,0,0,0,0,0,0,0,0,0,0,0,0,0,0,0,0,0,0,0,0,0,0,0,0,0,0,0,0,0,0,0,0,0,0,0,0,0,0,0,0,0,0,0,0,0,0,0,0,0,0,0,0,0,0,0,0,0,0,0,0,0,0,0,0,0,0,0,0,0,0,0,0,0,0,0,0,
0,0,0,0,0,0,0,0,0,0,0,0,0,0,0,0,0,0,0,0,0,0,0,0,0,0,0,0,0,0,0,0,0,0,0,0,0,0,0,0,0,0,0,0,0,0,0,0,0,0,0,0,0,0,0,0,0,0,0,0,0,0,0,0,0,0,0,0,0,0,0,0,0,0,0,0,0,0,0,0,0,0,0,0,0,0,0,0,0,0,0,0,0,0,0,0,0,0,0,0,0,0,0,0,0,
0,0,0,0,0,0,0,0,0,0,0,0,0,0,0,0,0,0,0,0,0,0,0,0,0,0,0,0,0,0,0,0,0,0,0,0,0,0,0,0,0,0,0,0,0,0,0,0,0,0,0,0,0,0,0,0,0,0,0,0,0,0,0,0,0,0,0,0,0,0,0,0,0,0,0,0,0,0,0,0,0,0,0,0,0,0,0,0,0,0,0,0,0,0,0,0,0,0,0,0,0,0,0,0,0,
0,0,0,0,0,0,0,0,0,0,0,0,0,0,0,0,0,0,0,0,0,0,0,0,0,0,0,0,0,0,0,0,0,0,0,0,0,0,0,0,0,0,0,0,0,0,0,0,0,0,0,0,0,0,0,0,0,0,0,0,0,0,0,0,0,0,0,0,0,0,0,0,0,0,0,0,0,0,0,0,0,0,0,0,0,0,0,0,0,0,0,0,0,0,0,0,0,0,0,0,0,0,0,0,0,
0,0,0,0,0,0,0,0,0,0,0,0,0,0,0,0,0,0,0,0,0,0,0,0,0,0,0,0,0,0,0,0,0,0,0,0,0,0,0,0,0,0,0,0,0,0,0,0,0,0,0,0,0,0,0,0,0,0,0,0,0,0,0,0,0,0,0,0,0,0,0,0,0,0,0,0,0,0,0,0,0,0,0,0,0,0,0,0,0,0,0,0,0,0,0,0,0,0,0,0,0,0,0,0,0,
0,0,0,0,0,0,0,0,0,0,0,0,0,0,0,0,0,0,0,0,0,0,0,0,0,0,0,0,0,0,0,0,0,0,0,0,0,0,0,0,0,0,0,0,0,0,0,0,0,0,0,0,0,0,0,0,0,0,0,0,0,0,0,0,0,0,0,0,0,0,0,0,0,0,0,0,0,0,0,0,0,0,0,0,0,0,0,0,0,0,0,0,0,0,0,0,0,0,0,0,0,0,0,0,0,
0,0,0,0,0,0,0,0,0,0,0,0,0,0,0,0,0,0,0,0,0,0,0,0,0,0,0,0,0,0,0,0,0,0,0,0,0,0,0,0,0,0,0,0,0,0,0,0,0,0,0,0,0,0,0,0,0,0,0,0,0,0,0,0,0,0,0,0,0,0,0,0,0,0,0,0,0,0,0,0,0,0,0,0,0,0,0,0,0,0,0,0,0,0,0,0,0,0,0,0,0,0,0,0,0,
0,0,0,0,0,0,0,0,0,0,0,0,0,0,0,0,0,0,0,0,0,0,0,0,0,0,0,0,0,0,0,0,0,0,0,0,0,0,0,0,0,0,0,0,0,0,0,0,0,0,0,0,0,0,0,0,0,0,0,0,0,0,0,0,0,0,0,0,0,0,0,0,0,0,0,0,0,0,0,0,0,0,0,0,0,0,0,0,0,0,0,0,0,0,0,0,0,0,0,0,0,0,0,0,0,
0,0,0,0,0,0,0,0,0,0,0,0,0,0,0,0,0,0,0,0,0,0,0,0,0,0,0,0,0,0,0,0,0,0,0,0,0,0,0,0,0,0,0,0,0,0,0,0,0,0,0,0,0,0,0,0,0,0,0,0,0,0,0,0,0,0,0,0,0,0,0,0,0,0,0,0,0,0,0,0,0,0,0,0,0,0,0,0,0,0,0,0,0,0,0,0,0,0,0,0,0,0,0,0,0,
0,0,0,0,0,0,0,0,0,0,0,0,0,0,0,0,0,0,0,0,0,0,0,0,0,0,0,0,0,0,0,0,0,0,0,0,0,0,0,0,0,0,0,0,0,0,0,0,0,0,0,0,0,0,0,0,0,0,0,0,0,0,0,0,0,0,0,0,0,0,0,0,0,0,0,0,0,0,0,0,0,0,0,0,0,0,0,0,0,0,0,0,0,0,0,0,0,0,0,0,0,0,0,0,0
</data>
  </layer>
  <layer id="11" name="entity" width="105" height="60">
   <data encoding="csv">
0,0,0,0,0,0,0,0,0,0,0,0,0,0,0,0,0,0,0,0,0,0,0,0,0,0,0,0,0,0,0,0,0,0,0,0,0,0,0,0,0,0,0,0,0,0,0,0,0,0,0,0,0,0,0,0,0,0,0,0,0,0,0,0,0,0,0,0,0,0,0,0,0,0,0,0,0,0,0,0,0,0,0,0,0,0,0,0,0,0,0,0,0,0,0,0,0,0,0,0,0,0,0,0,0,
0,0,0,0,0,0,0,0,0,0,0,0,0,0,0,0,0,0,0,0,0,0,0,0,0,0,0,0,0,0,0,0,0,0,0,0,0,0,0,0,0,0,0,0,0,0,0,0,0,0,0,0,0,0,0,0,0,0,0,0,0,0,0,0,0,0,0,0,0,0,0,0,0,0,0,0,0,0,0,0,0,0,0,0,0,0,0,0,0,0,0,0,0,0,0,0,0,0,0,0,0,0,0,0,0,
0,0,0,0,0,0,0,0,0,0,0,0,0,0,0,0,0,0,0,0,0,0,0,0,0,0,0,0,0,0,0,0,0,0,0,0,0,0,0,0,0,0,0,0,0,0,0,0,0,0,0,0,0,0,0,0,0,0,0,0,0,0,0,0,0,0,0,0,0,0,0,0,0,0,0,0,0,0,0,0,0,0,0,0,0,0,0,0,0,0,0,0,0,0,0,0,0,0,0,0,0,0,0,0,0,
0,0,0,0,0,0,0,0,0,0,0,0,0,0,0,0,0,0,0,0,0,0,0,0,0,0,0,0,0,0,0,0,0,0,0,0,0,0,0,0,0,0,0,0,0,0,0,0,0,0,0,0,0,0,0,0,0,0,0,0,0,0,0,0,0,0,0,0,0,0,0,0,0,0,0,0,0,0,0,0,0,0,0,0,0,0,0,0,0,0,0,0,0,0,0,0,0,0,0,0,0,0,0,0,0,
0,0,0,0,0,0,0,0,0,0,0,0,0,0,0,0,0,0,0,0,0,0,0,0,0,0,0,0,0,0,0,0,0,0,0,0,0,0,0,0,0,0,0,0,0,0,0,0,0,0,0,0,0,0,0,0,0,0,0,0,0,0,0,0,0,0,0,0,0,0,0,0,0,0,0,0,0,0,0,0,0,0,0,0,0,0,0,0,0,0,0,0,0,0,0,0,0,0,0,0,0,0,0,0,0,
0,0,0,0,0,0,0,0,0,0,0,0,0,0,0,0,0,0,0,0,0,0,0,0,0,0,0,0,0,0,0,0,0,0,0,0,0,0,0,0,0,0,0,0,0,0,0,0,0,0,0,0,0,0,0,0,0,0,0,0,0,0,0,0,0,0,0,0,0,0,0,0,0,0,0,0,0,0,0,0,0,0,0,0,0,0,0,0,0,0,0,0,0,0,0,0,0,0,0,0,0,0,0,0,0,
0,0,0,0,0,0,0,0,0,0,0,0,0,0,0,0,0,0,0,0,0,0,0,0,0,0,0,0,0,0,0,0,0,0,0,0,0,0,0,0,0,0,0,0,0,0,0,0,0,0,0,0,0,0,0,0,0,0,0,0,0,0,0,0,0,0,0,0,0,0,0,0,0,0,0,0,0,0,0,0,0,0,0,0,0,0,0,0,0,0,0,0,0,0,0,0,0,0,0,0,0,0,0,0,0,
0,0,0,0,0,0,0,0,0,0,0,0,0,0,0,0,0,0,0,0,0,0,0,0,0,0,0,0,0,0,0,0,0,0,0,0,0,0,0,0,0,0,0,0,0,0,0,0,0,0,0,0,0,0,0,0,0,0,0,0,0,0,0,0,0,0,0,0,0,0,0,0,0,0,0,0,0,0,0,0,0,0,0,0,0,0,0,0,0,0,0,0,0,0,0,0,0,0,0,0,0,0,0,0,0,
0,0,0,0,0,0,0,0,0,0,0,0,0,0,0,0,0,0,0,0,0,0,0,0,0,0,0,0,0,0,0,0,0,0,0,0,0,0,0,0,0,0,0,0,0,0,0,0,0,0,0,0,0,0,0,0,0,0,0,0,0,0,0,0,0,0,0,0,0,0,0,0,0,0,0,0,0,0,0,0,0,0,0,0,0,0,0,0,0,0,0,0,0,0,0,0,0,0,0,0,0,0,0,0,0,
0,0,0,0,0,0,0,0,0,0,0,0,0,0,0,0,0,0,0,0,0,0,0,0,0,0,0,0,0,0,0,0,0,0,0,0,0,0,0,0,0,0,0,0,0,0,0,0,0,0,0,0,0,0,0,0,0,0,0,0,0,0,0,0,0,0,0,0,0,0,0,0,0,0,0,0,0,0,0,0,0,0,0,0,0,0,0,0,0,0,0,0,0,0,0,0,0,0,0,0,0,0,0,0,0,
0,0,0,0,0,0,0,0,0,0,0,0,0,0,0,0,0,0,0,0,0,0,0,0,0,0,0,0,0,0,0,0,0,0,0,0,0,0,0,0,0,0,0,0,0,0,0,0,0,0,0,0,0,0,0,0,0,0,0,0,0,0,0,0,0,0,0,0,0,0,0,0,0,0,0,0,0,0,0,0,0,0,0,0,0,0,0,0,0,0,0,0,0,0,0,0,0,0,0,0,0,0,0,0,0,
0,0,0,0,0,0,0,0,0,0,0,0,0,0,0,0,0,0,0,0,0,0,0,0,0,0,0,0,0,0,0,0,0,0,0,0,0,0,0,0,0,0,0,0,0,0,0,0,0,0,0,0,0,0,0,0,0,0,0,0,0,0,0,0,0,0,0,0,0,0,0,0,0,0,0,0,0,0,0,0,0,0,0,0,0,0,0,0,0,0,0,0,0,0,0,0,0,0,0,0,0,0,0,0,0,
0,0,0,0,0,0,0,0,0,0,0,0,0,0,0,0,0,0,0,0,0,0,0,0,0,0,0,0,0,0,0,0,0,0,0,0,0,0,0,0,0,0,0,0,0,0,0,0,0,0,0,0,0,0,0,0,0,0,0,0,0,0,0,0,0,0,0,0,0,0,0,0,0,0,0,0,0,0,0,0,0,0,0,0,0,0,0,0,0,0,0,0,0,0,0,0,0,0,0,0,0,0,0,0,0,
0,0,0,0,0,0,0,0,0,0,0,0,0,0,0,0,0,0,0,0,0,0,0,0,0,0,0,0,0,0,0,0,0,0,0,0,0,0,0,0,0,0,0,0,0,0,0,0,0,0,0,0,0,0,0,0,0,0,0,0,0,0,0,0,0,0,0,0,0,0,0,0,0,0,0,0,0,0,0,0,0,0,0,0,0,0,0,0,0,0,0,0,0,0,0,0,0,0,0,0,0,0,0,0,0,
0,0,0,0,0,0,0,0,0,0,0,0,0,0,0,0,0,0,0,0,0,0,0,0,0,0,0,0,0,0,0,0,0,0,0,0,0,0,0,0,0,0,0,0,0,0,0,0,0,0,0,0,0,0,0,0,0,0,0,0,0,0,0,0,0,0,0,0,0,0,0,0,0,0,0,0,0,0,0,0,0,0,0,0,0,0,0,0,0,0,0,0,0,0,0,0,0,0,0,0,0,0,0,0,0,
0,0,0,0,0,0,0,0,0,0,0,0,0,0,0,0,0,0,0,0,0,0,0,0,0,0,0,0,0,0,0,0,0,0,0,0,0,0,0,0,0,0,0,0,0,0,0,0,0,0,0,0,0,0,0,0,0,0,0,0,0,0,0,0,0,0,0,0,0,0,0,0,0,0,0,0,0,0,0,0,0,0,0,0,0,0,0,0,0,0,0,0,0,0,0,0,0,0,0,0,0,0,0,0,0,
0,0,0,0,0,0,0,0,0,0,0,0,0,0,0,0,0,0,0,0,0,0,0,0,0,0,0,0,0,0,0,0,0,0,0,0,0,0,0,0,0,0,0,0,0,0,0,0,0,0,0,0,0,0,0,0,0,0,0,0,0,0,0,0,0,0,0,0,0,0,0,0,0,0,0,0,0,0,0,0,0,0,0,0,0,0,0,0,0,0,0,0,0,0,0,0,0,0,0,0,0,0,0,0,0,
0,0,0,0,0,0,0,0,0,0,0,0,0,0,0,0,0,0,0,0,0,0,0,0,0,0,0,0,0,0,0,0,0,0,0,0,0,0,0,0,0,0,0,0,0,0,0,0,0,0,0,0,0,0,0,0,0,0,0,0,0,0,0,0,0,0,0,0,0,0,0,0,0,0,0,0,0,0,0,0,0,0,0,0,0,0,0,0,0,0,0,0,0,0,0,0,0,0,0,0,0,0,0,0,0,
0,0,0,0,0,0,0,0,0,0,0,0,0,0,0,0,0,0,0,0,0,0,0,0,0,0,0,0,0,0,0,0,0,0,0,0,0,0,0,0,0,0,0,0,0,0,0,0,0,0,0,0,0,0,0,0,0,0,0,0,0,0,0,0,0,0,0,0,0,0,0,0,0,0,0,0,0,0,0,0,0,0,0,0,0,0,0,0,0,0,0,0,0,0,0,0,0,0,0,0,0,0,0,0,0,
0,0,0,0,0,0,0,0,0,0,0,0,0,0,0,0,0,0,0,0,0,0,0,0,0,0,0,0,0,0,0,0,0,0,0,0,0,0,0,0,0,0,0,0,0,0,0,0,0,0,0,0,0,0,0,0,0,0,0,0,0,0,0,0,0,0,0,0,0,0,0,0,0,0,0,0,0,0,0,0,0,0,0,0,0,0,0,0,0,0,0,0,0,0,0,0,0,0,0,0,0,0,0,0,0,
0,0,0,0,0,0,0,0,0,0,0,0,0,0,0,0,0,0,0,0,0,0,0,0,0,0,0,0,0,0,0,0,0,0,0,0,0,0,0,0,0,0,0,0,0,0,0,0,0,0,0,0,0,0,0,0,0,0,0,0,0,0,0,0,0,0,0,0,0,0,0,0,0,0,0,0,0,0,0,0,0,0,0,0,0,0,0,0,0,0,0,0,0,0,0,0,0,0,0,0,0,0,0,0,0,
0,0,0,0,0,0,0,0,0,0,0,0,0,0,0,0,0,0,0,0,0,0,0,0,0,0,0,0,0,0,0,0,0,0,0,0,0,0,0,0,0,0,0,0,0,0,0,0,0,0,0,0,0,0,0,0,0,0,0,0,0,0,0,0,0,0,0,0,0,0,0,0,0,0,0,0,0,0,0,0,0,0,0,0,0,0,0,0,0,0,0,0,0,0,0,0,0,0,0,0,0,0,0,0,0,
0,0,0,0,0,0,0,0,0,0,0,0,0,0,0,0,0,0,0,0,0,0,0,0,0,0,0,0,0,0,0,0,0,0,0,0,0,0,0,0,0,0,0,0,0,0,0,0,0,0,0,0,0,0,0,0,0,0,0,0,0,0,0,0,0,0,0,0,0,0,0,0,0,0,0,0,0,0,0,0,0,0,0,0,0,0,0,0,0,0,0,0,0,0,0,0,0,0,0,0,0,0,0,0,0,
0,0,0,0,0,0,0,0,0,0,0,0,0,0,0,0,0,0,0,0,0,0,0,0,0,0,0,0,0,0,0,0,0,0,0,0,0,0,0,0,0,0,0,0,0,0,0,0,0,0,0,0,0,0,0,0,0,0,0,0,0,0,0,0,0,0,0,0,0,0,0,0,0,0,0,0,0,0,0,0,0,0,0,0,0,0,0,0,0,0,0,0,0,0,0,0,0,0,0,0,0,0,0,0,0,
0,0,0,0,0,0,0,0,0,0,0,0,0,0,0,0,0,0,0,0,0,0,0,0,0,0,0,0,0,0,0,0,0,0,0,0,0,0,0,0,0,0,0,0,0,0,0,0,0,0,0,0,0,0,0,0,0,0,0,0,0,0,0,0,0,0,0,0,0,0,0,0,0,0,0,0,0,0,0,0,0,0,0,0,0,0,0,0,0,0,0,0,0,0,0,0,0,0,0,0,0,0,0,0,0,
0,0,0,0,0,0,0,0,0,0,0,0,0,0,0,0,0,0,0,0,0,0,0,0,0,0,0,0,0,0,0,0,0,0,0,0,0,0,0,0,0,0,0,0,0,0,0,0,0,0,0,0,0,0,0,0,0,0,0,0,0,0,0,0,0,0,0,0,0,0,0,0,0,0,0,0,0,0,0,0,0,0,0,0,0,0,0,0,0,0,0,0,0,0,0,0,0,0,0,0,0,0,0,0,0,
0,0,0,0,0,0,0,0,0,0,0,0,0,0,0,0,0,0,0,0,0,0,0,0,0,0,0,0,0,0,0,0,0,0,0,0,0,0,0,0,0,0,0,0,0,0,0,0,0,0,0,0,0,0,0,0,0,0,0,0,0,0,0,0,0,0,0,0,0,0,0,0,0,0,0,0,0,0,0,0,0,0,0,0,0,0,0,0,0,0,0,0,0,0,0,0,0,0,0,0,0,0,0,0,0,
0,0,0,0,0,0,0,0,0,0,0,0,0,0,0,0,0,0,0,0,0,0,0,0,0,0,0,0,0,0,0,0,0,0,0,0,0,0,0,0,0,0,0,0,0,0,0,0,0,0,0,0,0,0,0,0,0,0,0,0,0,0,0,0,0,0,0,0,0,0,0,0,0,0,0,0,0,0,0,0,0,0,0,0,0,0,0,0,0,0,0,0,0,0,0,0,0,0,0,0,0,0,0,0,0,
0,0,0,0,0,0,0,0,0,0,0,0,0,0,0,0,0,0,0,0,0,0,0,0,0,0,0,0,0,0,0,0,0,0,0,0,0,0,0,0,0,0,0,0,0,0,0,0,0,0,0,0,0,0,0,0,0,0,0,0,0,0,0,0,0,0,0,0,0,0,0,0,0,0,0,0,0,0,0,0,0,0,0,0,0,0,0,0,0,0,0,0,0,0,0,0,0,0,0,0,0,0,0,0,0,
0,0,0,0,0,0,0,0,0,0,0,0,0,0,0,0,0,0,0,0,0,0,0,0,0,0,0,0,0,0,0,0,0,0,0,0,0,0,0,0,0,0,0,0,0,0,0,0,0,0,0,0,0,0,0,0,0,0,0,0,0,0,0,0,0,0,0,0,0,0,0,0,0,0,0,0,0,0,0,0,0,0,0,0,0,0,0,0,0,0,0,0,0,0,0,0,0,0,0,0,0,0,0,0,0,
0,0,0,0,0,0,0,0,0,0,0,0,0,0,0,0,0,0,0,0,0,0,0,0,0,0,0,0,0,0,0,0,0,0,0,0,0,0,0,0,0,0,0,0,0,0,0,0,0,0,0,0,0,0,0,0,0,0,0,0,0,0,0,0,0,0,0,0,0,0,0,0,0,0,0,0,0,0,0,0,0,0,0,0,0,0,0,0,0,0,0,0,0,0,0,0,0,0,0,0,0,0,0,0,0,
0,0,0,0,0,0,0,0,0,0,0,0,0,0,0,0,0,0,0,0,0,0,0,0,0,0,0,0,0,0,0,0,0,0,0,0,0,0,0,0,0,0,0,0,0,0,0,0,0,0,0,0,0,0,0,0,0,0,0,0,0,0,0,0,0,0,0,0,0,0,0,0,0,0,0,0,0,0,0,0,0,0,0,0,0,0,0,0,0,0,0,0,0,0,0,0,0,0,0,0,0,0,0,0,0,
0,0,0,0,0,0,0,0,0,0,0,0,0,0,0,0,0,0,0,0,0,0,0,0,0,0,0,0,0,0,0,0,0,0,0,0,0,0,0,0,0,0,0,0,0,0,0,0,0,0,0,0,0,0,0,0,0,0,0,0,0,0,0,0,0,0,0,0,0,0,0,0,0,0,0,0,0,0,0,0,0,0,0,0,0,0,0,0,0,0,0,0,0,0,0,0,0,0,0,0,0,0,0,0,0,
0,0,0,0,0,0,0,0,0,0,0,0,0,0,0,0,0,0,0,0,0,0,0,0,0,0,0,0,0,0,0,0,0,0,0,0,0,0,0,0,0,0,0,0,0,0,0,0,0,0,0,0,0,0,0,0,0,0,0,0,0,0,0,0,0,0,0,0,0,0,0,0,0,0,0,0,0,0,0,0,0,0,0,0,0,0,0,0,0,0,0,0,0,0,0,0,0,0,0,0,0,0,0,0,0,
0,0,0,0,0,0,0,0,0,0,0,0,0,0,0,0,0,0,0,0,0,0,0,0,0,0,0,0,0,0,0,0,0,0,0,0,0,0,0,0,0,0,0,0,0,0,0,0,0,0,0,0,0,0,0,0,0,0,0,0,0,0,0,0,0,0,0,0,0,0,0,0,0,0,0,0,0,0,0,0,0,0,0,0,0,0,0,0,0,0,0,0,0,0,0,0,0,0,0,0,0,0,0,0,0,
0,0,0,0,0,0,0,0,0,0,0,0,0,0,0,0,0,0,0,0,0,0,0,0,0,0,0,0,0,0,0,0,0,0,0,0,0,0,0,0,0,0,0,0,0,0,0,0,0,0,0,0,0,0,0,0,0,0,0,0,0,0,0,0,0,0,0,0,0,0,0,0,0,0,0,0,0,0,0,0,0,0,0,0,0,0,0,0,0,0,0,0,0,0,0,0,0,0,0,0,0,0,0,0,0,
0,0,0,0,0,0,0,0,0,0,0,0,0,0,0,0,0,0,0,0,0,0,0,0,0,0,0,0,0,0,0,0,0,0,0,0,0,0,0,0,0,0,0,0,0,0,0,0,0,0,0,0,0,0,0,0,0,0,0,0,0,0,0,0,0,0,0,0,0,0,0,0,0,0,0,0,0,0,0,0,0,0,0,0,0,0,0,0,0,0,0,0,0,0,0,0,0,0,0,0,0,0,0,0,0,
0,0,0,0,0,0,0,0,0,0,0,0,0,0,0,0,0,0,0,0,0,0,0,0,0,0,0,0,0,0,0,0,0,0,0,0,0,0,0,0,0,0,0,0,0,0,0,0,0,0,0,0,0,0,0,0,0,0,0,0,0,0,0,0,0,0,0,0,0,0,0,0,0,0,0,0,0,0,0,0,0,0,0,0,0,0,0,0,0,0,0,0,0,0,0,0,0,0,0,0,0,0,0,0,0,
0,0,0,0,0,0,0,0,0,0,0,0,0,0,0,0,0,0,0,0,0,0,0,0,0,0,0,0,0,0,0,0,0,0,0,0,0,0,0,0,0,0,0,0,0,0,0,0,0,0,0,0,0,0,0,0,0,0,0,0,0,0,0,0,0,0,0,0,0,0,0,0,0,0,0,0,0,0,0,0,0,0,0,0,0,0,0,0,0,0,0,0,0,0,0,0,0,0,0,0,0,0,0,0,0,
0,0,0,0,0,0,0,0,0,0,0,0,0,0,0,0,0,0,0,0,0,0,0,0,0,0,0,0,0,0,0,0,0,0,0,0,0,0,0,0,0,0,0,0,0,0,0,0,0,0,0,0,0,0,0,0,0,0,0,0,0,0,0,0,0,0,0,0,0,0,0,0,0,0,0,0,0,0,0,0,0,0,0,0,0,0,0,0,0,0,0,0,0,0,0,0,0,0,0,0,0,0,0,0,0,
0,0,0,0,0,0,0,0,0,0,0,0,0,0,0,0,0,0,0,0,0,0,0,0,0,0,0,0,0,0,0,0,0,0,0,0,0,0,0,0,0,0,0,0,0,0,0,0,0,0,0,0,0,0,0,0,0,0,0,0,0,0,0,0,0,0,0,0,0,0,0,0,0,0,0,0,0,0,0,0,0,0,0,0,0,0,0,0,0,0,0,0,0,0,0,0,0,0,0,0,0,0,0,0,0,
0,0,0,0,0,0,0,0,0,0,0,0,0,0,0,0,0,0,0,0,0,0,0,0,0,0,0,0,0,0,0,0,0,0,0,0,0,0,0,0,0,0,0,0,0,0,0,0,0,0,0,0,0,0,0,0,0,0,0,0,0,0,0,0,0,0,0,0,0,0,0,0,0,0,0,0,0,0,0,0,0,0,0,0,0,0,0,0,0,0,0,0,0,0,0,0,0,0,0,0,0,0,0,0,0,
0,0,0,0,0,0,0,0,0,0,0,0,0,0,0,0,0,0,0,0,0,0,0,0,0,0,0,0,0,0,0,0,0,0,0,0,0,0,0,0,0,0,0,0,0,0,0,0,0,0,0,0,0,0,0,0,0,0,0,0,0,0,0,0,0,0,0,0,0,0,0,0,0,0,0,0,0,0,0,0,0,0,0,0,0,0,0,0,0,0,0,0,0,0,0,0,0,0,0,0,0,0,0,0,0,
0,0,0,0,0,0,0,0,0,0,0,0,0,0,0,0,0,0,0,0,0,0,0,0,0,0,0,0,0,0,0,0,0,0,0,0,0,0,0,0,0,0,0,0,0,0,0,0,0,0,0,0,0,0,0,0,0,0,0,0,0,0,0,0,0,0,0,0,0,0,0,0,0,0,0,0,0,0,0,0,0,0,0,0,0,0,0,0,0,0,0,0,0,0,0,0,0,0,0,0,0,0,0,0,0,
0,0,0,0,0,0,0,0,0,0,0,0,0,0,0,0,0,0,0,0,0,0,0,0,0,0,0,0,0,0,0,0,0,0,0,0,0,0,0,0,0,0,0,0,0,0,0,0,0,0,0,0,0,0,0,0,0,0,0,0,0,0,0,0,0,0,0,0,0,0,0,0,0,0,0,0,0,0,0,0,0,0,0,0,0,0,0,0,0,0,0,0,0,0,0,0,0,0,0,0,0,0,0,0,0,
0,0,0,0,0,0,0,0,0,0,0,0,0,0,0,0,0,0,0,0,0,0,0,0,0,0,0,0,0,0,0,0,0,0,0,0,0,0,0,0,0,0,0,0,0,0,0,0,0,0,0,0,0,0,0,0,0,0,0,0,0,0,0,0,0,0,0,0,0,0,0,0,0,0,0,0,0,0,0,0,0,0,0,0,0,0,0,0,0,0,0,0,0,0,0,0,0,0,0,0,0,0,0,0,0,
0,0,0,0,0,0,0,0,0,0,0,0,0,0,0,0,0,0,0,0,0,0,0,0,0,0,0,0,0,0,0,0,0,0,0,0,0,0,0,0,0,0,0,0,0,0,0,0,0,0,0,0,0,0,0,0,0,0,0,0,0,0,0,0,0,0,0,0,0,0,0,0,0,0,0,0,0,0,0,0,0,0,0,0,0,0,0,0,0,0,0,0,0,0,0,0,0,0,0,0,0,0,0,0,0,
0,0,0,0,0,0,0,0,0,0,0,0,0,0,0,0,0,0,0,0,0,0,0,0,0,0,0,0,0,0,0,0,0,0,0,0,0,0,0,0,0,0,0,0,0,0,0,0,0,0,0,0,0,0,0,0,0,0,0,0,0,0,0,0,0,0,0,0,0,0,0,0,0,0,0,0,0,0,0,0,0,0,0,0,0,0,0,0,0,0,0,0,0,0,0,0,0,0,0,0,0,0,0,0,0,
0,0,0,0,0,0,0,0,0,0,0,0,0,0,0,0,0,0,0,0,0,0,0,0,0,0,0,0,0,0,0,0,0,0,0,0,0,0,0,0,0,0,0,0,0,0,0,0,0,0,0,0,0,0,0,0,0,0,0,0,0,0,0,0,0,0,0,0,0,0,0,0,0,0,0,0,0,0,0,0,0,0,0,0,0,0,0,0,0,0,0,0,0,0,0,0,0,0,0,0,0,0,0,0,0,
0,0,0,0,0,0,0,0,0,0,0,0,0,0,0,0,0,0,0,0,0,0,0,0,0,0,0,0,0,0,0,0,0,0,0,0,0,0,0,0,0,0,0,0,0,0,0,0,0,0,0,0,0,0,0,0,0,0,0,0,0,0,0,0,0,0,0,0,0,0,0,0,0,0,0,0,0,0,0,0,0,0,0,0,0,0,0,0,0,0,0,0,0,0,0,0,0,0,0,0,0,0,0,0,0,
0,0,0,0,0,0,0,0,0,0,0,0,0,0,0,0,0,0,0,0,0,0,0,0,0,0,0,0,0,0,0,0,0,0,0,0,0,0,0,0,0,0,0,0,0,0,0,0,0,0,0,0,0,0,0,0,0,0,0,0,0,0,0,0,0,0,0,0,0,0,0,0,0,0,0,0,0,0,0,0,0,0,0,0,0,0,0,0,0,0,0,0,0,0,0,0,0,0,0,0,0,0,0,0,0,
0,0,0,0,0,0,0,0,0,0,0,0,0,0,0,0,0,0,0,0,0,0,0,0,0,0,0,0,0,0,0,0,0,0,0,0,0,0,0,0,0,0,0,0,0,0,0,0,0,0,0,0,0,0,0,0,0,0,0,0,0,0,0,0,0,0,0,0,0,0,0,0,0,0,0,0,0,0,0,0,0,0,0,0,0,0,0,0,0,0,0,0,0,0,0,0,0,0,0,0,0,0,0,0,0,
0,0,0,0,0,0,0,0,0,0,0,0,0,0,0,0,0,0,0,0,0,0,0,0,0,0,0,0,0,0,0,0,0,0,0,0,0,0,0,0,0,0,0,0,0,0,0,0,0,0,0,0,0,0,0,0,0,0,0,0,0,0,0,0,0,0,0,0,0,0,0,0,0,0,0,0,0,0,0,0,0,0,0,0,0,0,0,0,0,0,0,0,0,0,0,0,0,0,0,0,0,0,0,0,0,
0,0,0,0,0,0,0,0,0,0,0,0,0,0,0,0,0,0,0,0,0,0,0,0,0,0,0,0,0,0,0,0,0,0,0,0,0,0,0,0,0,0,0,0,0,0,0,0,0,0,0,0,0,0,0,0,0,0,0,0,0,0,0,0,0,0,0,0,0,0,0,0,0,0,0,0,0,0,0,0,0,0,0,0,0,0,0,0,0,0,0,0,0,0,0,0,0,0,0,0,0,0,0,0,0,
0,0,0,0,0,0,0,0,0,0,0,0,0,0,0,0,0,0,0,0,0,0,0,0,0,0,0,0,0,0,0,0,0,0,0,0,0,0,0,0,0,0,0,0,0,0,0,0,0,0,0,0,0,0,0,0,0,0,0,0,0,0,0,0,0,0,0,0,0,0,0,0,0,0,0,0,0,0,0,0,0,0,0,0,0,0,0,0,0,0,0,0,0,0,0,0,0,0,0,0,0,0,0,0,0,
0,0,0,0,0,0,0,0,0,0,0,0,0,0,0,0,0,0,0,0,0,0,0,0,0,0,0,0,0,0,0,0,0,0,0,0,0,0,0,0,0,0,0,0,0,0,0,0,0,0,0,0,0,0,0,0,0,0,0,0,0,0,0,0,0,0,0,0,0,0,0,0,0,0,0,0,0,0,0,0,0,0,0,0,0,0,0,0,0,0,0,0,0,0,0,0,0,0,0,0,0,0,0,0,0,
0,0,0,0,0,0,0,0,0,0,0,0,0,0,0,0,0,0,0,0,0,0,0,0,0,0,0,0,0,0,0,0,0,0,0,0,0,0,0,0,0,0,0,0,0,0,0,0,0,0,0,0,0,0,0,0,0,0,0,0,0,0,0,0,0,0,0,0,0,0,0,0,0,0,0,0,0,0,0,0,0,0,0,0,0,0,0,0,0,0,0,0,0,0,0,0,0,0,0,0,0,0,0,0,0,
0,0,0,0,0,0,0,0,0,0,0,0,0,0,0,0,0,0,0,0,0,0,0,0,0,0,0,0,0,0,0,0,0,0,0,0,0,0,0,0,0,0,0,0,0,0,0,0,0,0,0,0,0,0,0,0,0,0,0,0,0,0,0,0,0,0,0,0,0,0,0,0,0,0,0,0,0,0,0,0,0,0,0,0,0,0,0,0,0,0,0,0,0,0,0,0,0,0,0,0,0,0,0,0,0,
0,0,0,0,0,0,0,0,0,0,0,0,0,0,0,0,0,0,0,0,0,0,0,0,0,0,0,0,0,0,0,0,0,0,0,0,0,0,0,0,0,0,0,0,0,0,0,0,0,0,0,0,0,0,0,0,0,0,0,0,0,0,0,0,0,0,0,0,0,0,0,0,0,0,0,0,0,0,0,0,0,0,0,0,0,0,0,0,0,0,0,0,0,0,0,0,0,0,0,0,0,0,0,0,0,
0,0,0,0,0,0,0,0,0,0,0,0,0,0,0,0,0,0,0,0,0,0,0,0,0,0,0,0,0,0,0,0,0,0,0,0,0,0,0,0,0,0,0,0,0,0,0,0,0,0,0,0,0,0,0,0,0,0,0,0,0,0,0,0,0,0,0,0,0,0,0,0,0,0,0,0,0,0,0,0,0,0,0,0,0,0,0,0,0,0,0,0,0,0,0,0,0,0,0,0,0,0,0,0,0
</data>
  </layer>
  <layer id="6" name="top" width="105" height="60">
   <data encoding="csv">
0,0,0,0,0,0,0,0,0,0,0,0,0,0,0,0,0,0,0,0,0,0,0,0,0,0,0,0,0,0,0,0,0,0,0,0,0,0,0,5562,5563,5564,0,0,0,0,0,0,0,0,0,5562,5563,5564,0,0,0,0,0,0,0,0,0,0,0,0,0,0,5588,5589,5590,5591,5592,0,0,0,0,0,0,0,0,0,0,0,0,0,22765,22766,22767,22768,22769,0,0,22765,22766,22767,22768,22769,0,0,0,0,0,0,0,
0,0,0,0,0,0,0,0,0,0,0,0,297,0,0,0,0,0,0,0,0,0,0,300,0,0,0,0,0,0,0,0,0,0,0,0,0,0,0,5702,5703,5704,22096,22097,22098,22099,22100,22101,22102,22103,22104,5702,5703,5704,0,0,0,0,0,0,0,0,0,0,0,0,0,0,5728,5729,5730,5731,5732,0,0,0,0,0,0,0,0,0,0,0,0,0,22905,22906,22907,22908,22909,0,0,22905,22906,22907,22908,22909,0,0,0,0,0,0,0,
0,0,0,0,0,0,0,0,0,0,0,0,0,0,0,0,0,0,0,0,0,0,0,0,0,0,0,0,0,0,0,0,0,0,0,0,0,0,0,0,0,0,22236,22237,22238,22239,22240,22241,22242,22243,22244,0,0,0,0,0,0,0,0,0,0,0,0,0,0,0,0,0,5868,5869,5870,5871,5872,0,0,0,0,0,0,0,0,0,0,0,0,0,23045,23046,23047,23048,23049,0,0,23045,23046,23047,23048,23049,0,0,0,0,0,0,0,
0,0,0,0,0,0,0,0,0,0,0,0,313,0,0,0,0,0,0,0,0,0,0,0,0,0,0,0,0,0,0,0,0,0,0,0,0,0,0,0,0,0,22376,22377,22378,22379,22380,22381,22382,22383,22384,0,0,0,0,0,0,0,0,0,0,0,0,0,0,0,0,0,6008,6009,6010,6011,6012,0,0,0,0,0,0,0,0,0,0,0,0,0,23185,23186,23187,23188,23189,0,0,23185,23186,23187,23188,23189,0,0,0,0,0,0,0,
0,0,0,0,0,0,0,0,0,0,0,0,0,0,0,0,0,0,0,0,0,0,0,5562,5563,5564,0,0,0,0,0,0,0,0,0,0,0,0,0,0,0,0,22516,22517,22518,22519,22520,22521,22522,22523,22524,0,0,0,5562,5563,5564,0,0,0,0,0,0,0,0,0,0,0,6148,6149,6150,6151,6152,0,0,0,0,0,0,0,0,0,0,0,0,0,0,0,0,0,0,0,0,0,0,0,0,0,0,0,0,0,0,0,0,
0,0,0,0,0,0,0,0,0,0,0,0,0,0,0,0,0,0,0,0,0,0,0,5702,5703,5704,0,0,0,0,0,0,0,0,0,0,0,0,0,0,0,0,22656,22657,22658,22659,22660,22661,22662,22663,22664,0,0,0,5702,5703,5704,0,0,0,0,0,0,0,0,0,0,0,6288,6289,6290,6291,6292,0,0,0,0,0,0,0,0,0,0,0,0,0,0,0,0,0,0,0,0,0,0,0,0,0,0,0,0,0,0,0,0,
0,0,0,0,0,0,0,0,0,0,0,0,0,0,0,0,0,0,0,0,0,0,0,0,0,0,0,0,0,0,0,0,0,0,0,0,0,0,0,0,0,0,0,0,0,0,0,0,0,0,0,0,0,0,0,0,0,0,0,0,0,0,0,0,0,0,0,0,6428,6429,6430,6431,6432,0,0,0,0,0,0,0,0,0,0,0,0,0,0,0,0,0,0,0,0,0,0,0,0,0,0,0,0,0,0,0,0,
0,0,0,0,0,0,0,0,0,0,0,0,281,0,0,0,0,0,0,0,0,0,0,0,0,0,0,0,0,0,0,0,0,0,0,284,0,0,0,0,0,0,0,0,0,0,0,0,281,0,0,0,0,0,0,0,0,0,0,0,0,0,0,0,0,0,0,0,6568,6569,6570,6571,6572,0,0,0,0,0,0,0,5562,5563,5564,0,0,0,0,0,0,0,0,0,0,0,0,0,0,0,0,0,0,0,0,0,0,
0,0,0,0,0,0,0,0,0,0,0,0,0,0,0,0,0,0,0,0,0,0,0,0,0,0,0,0,0,0,0,0,0,0,0,0,0,0,0,0,0,0,0,0,0,0,0,0,289,0,0,0,0,0,0,0,0,0,0,0,0,0,0,0,0,0,0,0,6708,6709,6710,6711,6712,0,0,0,0,0,0,0,5702,5703,5704,0,0,0,0,0,0,0,0,0,0,0,0,0,0,0,0,0,0,0,0,0,0,
0,0,0,0,0,0,0,0,0,0,0,0,0,0,0,0,0,0,0,0,0,0,0,0,0,0,0,0,0,0,0,0,0,0,0,0,0,0,0,0,0,0,0,0,0,0,0,0,0,0,0,0,0,0,0,0,0,0,0,0,0,0,0,0,0,0,0,0,0,0,0,0,0,0,0,0,0,0,0,0,0,0,0,0,0,0,0,0,0,0,0,0,0,17603,17604,17605,17606,17607,17608,17609,17610,0,0,0,0,
0,0,0,0,0,0,0,0,0,0,0,0,0,0,0,0,0,0,0,0,0,0,0,5562,5563,5564,0,0,0,0,0,0,0,0,0,0,0,0,0,0,0,0,5418,5419,5420,0,0,0,5418,5419,5420,0,0,0,0,0,0,0,0,0,0,0,0,0,0,0,0,0,0,0,0,0,0,0,0,0,0,0,0,0,0,0,0,0,0,0,0,0,0,0,0,0,0,17743,17744,17745,17746,17747,17748,17749,17750,0,0,0,0,
0,0,0,0,0,0,0,0,0,0,0,0,0,0,0,0,0,0,0,0,0,0,0,5702,5703,5704,0,0,0,0,0,0,0,0,0,0,0,0,0,0,0,0,5558,5559,5560,0,0,0,5558,5559,5560,0,0,0,0,0,0,0,0,0,0,0,0,0,0,0,0,0,0,0,0,0,0,0,0,0,0,0,0,0,0,0,0,17909,17910,17911,17912,17913,0,0,0,0,0,17883,17884,17885,17886,17887,17888,17889,17890,0,0,0,0,
0,0,0,0,0,0,0,0,0,0,0,0,0,0,0,0,0,0,0,0,0,0,0,0,0,0,0,0,0,0,0,0,0,0,0,0,0,0,0,0,0,0,0,0,0,0,0,0,0,0,0,0,0,0,0,0,0,0,0,0,0,0,0,0,0,0,0,0,0,0,0,0,0,0,0,0,0,0,0,0,0,0,0,18049,18050,18051,18052,18053,0,0,0,0,0,18023,18024,18025,18026,18027,18028,18029,18030,0,0,0,0,
0,0,0,0,0,0,0,0,0,0,0,0,0,0,0,316,0,0,0,0,0,0,0,0,0,0,0,0,0,0,0,0,0,0,0,0,0,0,0,0,0,0,320,0,0,0,0,0,0,0,0,0,0,0,0,0,0,0,0,0,0,0,0,0,0,0,0,0,0,0,0,0,0,0,0,0,0,0,0,0,0,0,0,18189,18190,18191,18192,18193,0,0,0,0,0,18163,18164,18165,18166,18167,18168,18169,18170,0,0,0,0,
0,0,0,0,0,284,0,0,0,0,0,0,0,0,0,0,0,0,0,0,0,0,0,0,0,0,0,0,0,0,0,324,0,0,0,0,0,0,0,0,0,0,0,0,737,0,0,0,741,0,0,0,0,0,0,0,0,0,0,0,0,0,0,0,0,0,0,0,0,0,0,0,0,0,0,0,0,0,0,0,0,0,0,18329,18330,18331,18332,18333,0,0,0,0,0,18303,18304,18305,18306,18307,18308,18309,18310,0,0,0,0,
0,0,0,0,0,0,0,0,0,0,0,0,0,0,0,0,0,0,0,0,0,0,0,0,0,0,0,0,332,0,0,332,0,0,0,0,0,0,0,0,0,0,0,0,0,0,0,0,0,0,0,0,0,0,0,0,0,0,0,0,0,0,0,0,0,0,0,0,0,0,0,0,0,0,0,0,0,0,0,0,0,0,0,0,0,0,0,0,0,0,0,0,0,0,0,0,0,0,0,0,0,0,0,0,0,
5562,5563,5564,0,0,0,0,0,0,0,0,0,0,0,0,0,0,0,0,0,0,0,0,0,0,0,0,0,0,0,0,0,0,0,0,0,0,0,0,0,0,0,0,0,0,0,0,0,0,0,0,0,0,0,0,0,0,0,0,0,0,0,0,0,0,0,0,0,0,0,0,0,0,0,0,0,0,0,0,0,0,0,0,0,0,0,0,0,0,0,0,0,0,0,0,0,0,0,0,0,0,0,0,0,0,
5702,5703,5704,0,0,0,0,0,0,0,0,0,0,0,0,0,0,0,0,0,0,0,0,0,0,0,0,0,0,0,0,0,0,0,0,0,0,0,0,0,0,0,0,0,0,0,0,0,0,0,0,0,0,0,0,0,0,0,0,0,0,0,0,0,0,0,0,0,0,0,0,0,0,0,0,0,0,0,0,0,0,0,0,0,0,0,0,5562,5563,5564,0,0,0,17597,17598,17599,17600,17601,0,0,0,0,0,0,0,
0,0,0,0,0,0,0,0,0,0,0,0,0,0,0,0,0,0,0,0,0,0,0,0,0,0,0,0,0,0,0,0,0,0,0,0,0,0,0,0,0,0,0,0,0,0,0,0,0,0,0,0,0,0,0,0,0,0,0,0,0,0,0,0,0,0,0,0,0,0,0,0,0,0,0,0,0,0,0,0,0,0,0,0,0,0,0,5702,5703,5704,0,0,0,17737,17738,17739,17740,17741,0,0,0,0,0,0,0,
0,0,0,0,0,0,0,0,0,0,0,0,0,0,0,0,0,0,0,0,0,0,0,0,0,0,0,0,0,0,0,0,0,0,0,0,0,0,0,0,0,0,0,0,0,0,0,0,0,0,0,0,0,0,0,0,0,0,0,0,0,0,0,0,0,5562,5563,5564,0,0,0,0,0,0,0,0,0,0,0,0,0,0,0,0,0,0,0,0,0,0,0,0,0,17877,17878,17879,17880,17881,0,0,0,0,0,0,0,
0,0,0,0,0,0,0,0,0,281,0,0,0,0,0,0,0,0,0,0,0,0,0,0,0,0,0,0,0,0,281,0,0,0,0,0,0,0,0,0,0,0,0,0,0,0,0,0,0,0,0,0,0,0,0,0,0,0,5562,5563,5564,0,0,0,0,5702,5703,5704,0,0,0,0,0,0,0,0,0,0,0,0,0,0,0,0,0,0,0,0,0,0,0,0,0,18017,18018,18019,18020,18021,0,0,0,0,0,0,0,
0,0,0,0,0,0,0,0,0,0,0,0,0,0,0,0,0,0,0,0,0,0,0,0,0,0,0,0,0,0,0,0,0,0,0,0,0,0,0,0,0,0,0,0,0,0,0,0,0,0,0,0,0,0,0,0,0,0,5702,5703,5704,0,0,0,0,0,0,0,0,0,0,0,0,0,0,0,0,0,0,0,0,0,0,0,0,0,0,0,0,0,0,0,0,18157,18158,18159,18160,18161,0,0,0,0,0,0,0,
0,0,0,0,0,0,0,0,0,0,0,0,0,0,0,0,0,0,0,0,316,0,0,0,0,0,0,0,0,0,0,0,0,316,0,0,0,0,0,0,0,0,0,0,0,0,0,0,0,0,0,0,0,0,0,0,0,0,0,0,0,0,0,0,0,0,0,0,0,0,0,0,0,0,0,0,0,0,0,0,0,0,0,0,0,0,0,0,0,0,0,0,0,18297,18298,18299,18300,18301,0,0,0,0,0,0,0,
0,5562,5563,5564,0,0,0,0,0,0,0,0,0,0,0,0,0,0,0,0,0,0,0,0,0,0,0,0,0,0,0,0,0,0,0,0,0,0,0,0,0,0,0,0,0,0,0,0,0,0,0,0,0,0,0,0,0,0,0,0,0,0,0,0,0,0,0,0,0,0,0,0,0,0,0,0,0,0,0,0,0,0,0,5418,5419,5420,0,5418,5419,5420,0,0,0,0,0,0,0,0,0,0,0,0,0,0,0,
0,5702,5703,5704,0,0,0,0,0,0,0,0,0,0,0,0,0,0,0,0,0,0,0,0,0,0,0,0,0,0,0,0,0,0,0,0,0,0,0,0,0,0,0,0,0,0,0,0,0,0,0,0,0,0,0,0,0,0,0,0,0,17915,17916,17917,17918,17919,0,0,0,0,0,0,0,0,0,0,0,0,0,0,0,0,0,5558,5559,5560,0,5558,5559,5560,0,0,0,0,0,0,0,0,0,0,0,0,0,0,0,
0,0,0,0,0,0,0,0,0,0,0,0,0,0,0,0,0,0,0,0,0,0,0,0,0,0,0,0,0,0,0,0,0,0,0,0,0,0,0,0,0,0,0,0,0,0,0,0,0,0,0,0,0,0,0,0,0,0,0,0,0,18055,18056,18057,18058,18059,0,0,0,0,0,0,0,0,0,0,0,0,0,0,0,0,0,0,0,0,0,0,0,0,0,0,0,0,0,0,0,0,0,0,0,0,0,0,0,
0,0,0,0,0,0,0,0,0,0,0,0,0,0,0,0,0,0,0,0,0,0,0,0,0,0,0,0,0,0,0,0,0,0,0,0,0,0,0,0,0,0,0,0,0,0,0,0,0,0,0,0,0,0,0,0,0,0,0,0,0,13000,18196,18197,18198,13000,0,0,0,0,0,0,0,0,0,0,0,0,0,0,0,0,0,0,0,0,0,21864,21865,21866,21867,21868,21869,21870,21871,0,0,0,0,0,0,0,0,0,0,
0,0,0,0,0,0,0,0,0,0,0,0,0,0,0,0,0,0,0,0,0,0,0,0,0,0,0,0,0,0,0,0,0,0,0,0,0,0,0,0,0,0,0,0,0,0,0,0,0,0,0,0,0,0,0,0,0,0,0,0,0,13140,18336,18337,18338,13140,0,0,0,0,0,0,0,0,0,0,0,0,0,0,0,0,0,0,0,0,0,22004,22005,22006,22007,22008,22009,22010,22011,0,0,0,0,0,0,0,0,0,0,
0,5562,5563,5564,0,0,0,0,0,0,0,0,0,0,0,0,0,0,0,0,0,0,0,0,0,0,0,0,0,0,0,0,0,0,0,0,0,0,0,0,0,0,0,0,0,0,0,0,0,0,0,0,0,0,0,0,0,0,0,0,0,0,0,0,0,0,0,0,0,0,0,0,0,0,0,0,0,0,0,0,0,0,0,0,0,0,0,22144,22145,22146,22147,22148,22149,22150,22151,0,0,0,0,0,0,0,0,0,0,
0,5702,5703,5704,0,0,0,0,0,0,0,0,0,0,0,0,0,0,0,0,0,0,0,0,0,0,0,0,0,0,0,0,0,0,0,0,0,0,0,0,3074,3075,3076,3077,3078,3079,3080,0,0,0,0,0,0,0,0,0,0,0,0,0,0,0,0,0,0,0,0,0,0,0,0,0,0,0,0,0,0,0,0,0,0,0,0,0,0,0,0,22284,22285,22286,22287,22288,22289,22290,22291,0,0,0,0,0,0,0,0,0,0,
0,0,0,0,0,0,0,0,0,0,0,0,0,0,0,0,0,0,0,0,0,0,0,0,0,0,0,0,0,0,281,0,0,0,0,0,0,0,0,0,3082,3083,3084,3085,3086,3087,3088,0,0,0,0,0,0,0,0,0,0,0,0,0,0,0,0,0,0,0,0,0,0,0,0,0,0,0,0,0,0,0,0,0,0,0,0,0,0,0,0,22424,22425,22426,22427,22428,22429,22430,22431,0,0,0,0,0,0,0,0,0,0,
0,0,0,0,0,0,0,0,0,0,0,0,0,0,0,0,0,0,0,0,13315,13316,0,0,0,0,0,0,0,0,0,0,0,0,0,0,0,0,0,0,3090,3091,3092,3093,3094,3095,3096,0,0,0,0,0,0,0,0,0,0,0,0,0,0,0,0,0,0,0,0,0,0,0,0,0,0,0,0,0,0,0,0,0,0,0,0,0,0,0,0,22564,22565,22566,22567,22568,22569,22570,22571,0,0,0,0,0,0,0,0,0,0,
0,0,0,0,0,0,0,0,0,0,0,0,0,0,0,0,0,0,0,0,13455,13456,0,0,0,0,12895,12896,0,0,0,0,0,0,0,0,0,0,0,0,3098,3099,3100,3101,3102,3103,3104,0,0,0,0,0,0,0,0,0,0,0,0,0,0,0,0,0,0,0,0,0,0,0,0,0,0,0,0,0,0,0,0,0,0,0,0,0,0,0,0,22704,22705,22706,22707,22708,22709,22710,22711,0,0,0,0,0,0,0,0,0,0,
0,0,0,0,0,0,0,0,0,0,0,0,0,0,0,0,0,0,0,0,0,0,10816,10817,10818,10819,13035,13036,0,0,0,0,0,0,0,0,0,0,0,0,3106,3107,3108,3109,3110,3111,3112,0,0,0,0,0,0,0,0,0,0,0,0,0,0,0,0,0,0,0,0,0,0,0,0,0,0,0,0,0,0,0,0,0,0,0,0,0,0,0,0,22844,22845,22846,22847,22848,22849,22850,22851,0,0,0,0,0,0,0,0,0,0,
0,0,0,0,0,0,0,0,0,0,0,0,0,0,0,0,0,0,0,0,0,0,10956,10957,10958,10959,0,0,0,0,0,0,0,0,0,0,0,0,0,0,0,0,0,0,0,0,0,0,0,0,0,0,0,0,0,0,0,0,0,0,0,0,0,0,13002,13003,13004,13005,0,0,0,0,0,0,0,0,0,0,0,0,0,0,0,0,0,0,0,22984,22985,22986,22987,22988,22989,22990,22991,0,0,0,0,0,0,0,0,0,0,
0,0,0,0,0,0,0,0,0,361,0,0,364,0,0,0,0,0,0,0,0,0,11096,11097,11098,11099,0,0,0,0,0,0,0,0,0,0,0,0,0,0,0,0,0,0,0,0,0,0,0,0,0,0,0,0,0,0,0,0,0,0,0,0,0,0,13142,13143,13144,13145,0,0,0,0,0,0,0,0,0,0,0,0,0,0,0,0,0,0,0,23124,23125,23126,23127,23128,23129,23130,23131,0,0,0,0,0,0,0,0,0,0,
0,0,0,0,0,0,0,0,0,0,0,0,0,0,0,0,0,0,0,0,0,12895,12896,0,0,13315,13316,0,0,0,0,0,0,0,0,0,0,0,0,0,0,0,0,0,0,0,0,0,0,0,0,0,0,0,0,0,0,0,0,0,0,0,0,0,0,0,0,0,0,0,0,0,0,0,0,0,0,0,0,0,0,0,0,0,0,0,0,23264,23265,23266,23267,23268,23269,23270,23271,0,0,0,0,0,0,0,0,0,0,
0,0,0,0,0,0,0,0,0,0,0,0,0,0,0,0,0,0,0,0,0,13035,13036,0,0,13455,13456,0,0,0,0,0,0,0,0,0,13006,13007,13008,13009,0,0,0,0,0,0,0,0,0,0,0,0,0,0,0,0,0,0,0,0,0,0,0,0,0,0,0,0,0,0,0,0,0,0,0,0,0,0,0,0,0,0,0,0,0,0,0,0,0,0,0,0,0,0,0,0,0,0,0,0,0,0,0,0,0,
0,0,0,0,0,0,0,0,0,0,0,0,0,393,0,0,396,0,0,0,0,0,0,0,0,0,0,0,0,0,0,0,0,0,0,0,13146,13147,13148,13149,0,0,0,0,0,0,0,0,0,0,0,0,0,0,0,0,0,0,0,0,0,0,0,0,0,0,0,0,0,0,0,0,0,0,0,0,0,0,0,0,0,0,0,0,0,0,0,0,0,0,0,0,0,0,0,0,0,0,0,0,0,0,0,0,0,
0,0,0,0,0,0,0,0,0,0,0,0,0,0,0,0,0,0,0,0,0,0,0,0,0,0,0,0,0,0,0,0,0,0,0,0,0,0,0,0,0,0,0,0,0,0,0,0,22089,22090,22091,22092,22093,0,0,0,0,0,0,0,0,0,0,0,0,0,0,0,0,0,0,0,0,0,0,0,0,0,0,0,0,0,0,0,0,0,0,0,0,0,0,0,0,0,0,22765,22766,22767,22768,22769,0,0,0,0,0,
0,0,0,0,0,0,5562,5563,5564,0,0,0,0,0,0,0,0,0,0,0,0,0,0,0,0,0,0,0,0,0,0,0,0,0,0,0,0,0,0,0,0,0,0,0,0,0,0,0,22229,22230,22231,22232,22233,0,0,0,0,0,0,0,0,0,0,0,0,0,0,0,0,0,0,0,0,0,0,0,0,0,0,0,0,0,0,0,0,0,0,0,0,0,0,0,0,0,0,22905,22906,22907,22908,22909,0,0,0,0,0,
0,0,0,0,0,0,5702,5703,5704,0,0,0,0,0,0,0,0,0,0,0,0,0,0,0,0,0,0,0,0,0,0,0,895,0,0,0,0,0,0,0,0,0,0,0,0,0,0,0,22369,22370,22371,22372,22373,0,0,0,0,0,0,0,0,0,0,0,0,0,0,0,0,0,0,0,0,0,0,0,0,0,0,0,0,0,0,0,0,0,0,0,0,0,0,0,0,0,0,23045,23046,23047,23048,23049,0,0,0,0,0,
0,5562,5563,5564,0,0,0,0,0,0,0,0,0,0,0,0,0,0,0,0,0,0,0,0,0,0,0,0,0,0,0,0,0,0,0,0,0,0,0,0,0,0,0,0,0,0,0,0,22509,22510,22511,22512,22513,0,0,0,0,0,0,0,0,0,0,0,0,0,0,0,0,0,0,0,0,0,0,0,0,0,0,0,0,0,0,0,0,0,0,0,0,0,0,0,0,0,0,23185,23186,23187,23188,23189,0,0,0,0,0,
0,5702,5703,5704,0,0,0,0,0,0,0,0,0,0,0,0,0,0,0,0,0,0,0,0,0,0,0,0,0,0,0,0,0,0,0,0,0,0,0,0,0,0,0,0,0,0,0,0,22649,22650,22651,22652,22653,0,0,0,0,0,0,0,0,0,0,0,0,0,0,0,0,0,0,0,0,0,0,0,0,0,0,0,0,0,0,0,0,0,0,0,0,0,0,0,0,0,0,0,0,0,0,0,0,0,0,0,0,
0,0,0,0,0,0,0,0,0,0,0,0,0,0,0,0,0,0,0,0,0,0,0,0,0,0,0,0,0,0,0,0,0,0,0,0,0,0,0,0,0,0,0,0,0,0,0,0,22789,22790,22791,22792,22793,0,0,0,0,0,0,0,0,0,0,0,0,0,0,0,0,0,0,0,0,0,0,0,0,0,0,0,0,0,0,0,0,0,0,0,0,0,0,0,0,0,0,0,0,0,0,0,0,0,0,0,0,
0,0,22218,22219,22220,22221,22222,22223,22224,22225,22226,0,0,0,0,0,0,0,0,0,0,0,0,0,0,0,0,0,0,0,0,0,0,0,0,0,0,0,0,0,0,0,0,0,0,0,0,0,22929,22930,22931,22932,22933,0,0,0,0,0,0,0,0,0,0,0,0,0,0,0,0,0,0,0,0,0,0,0,0,0,0,0,0,0,0,0,0,0,0,0,0,0,0,0,0,0,0,0,0,0,0,0,0,0,0,0,0,
0,0,22358,22359,22360,22361,22362,22363,22364,22365,22366,0,0,0,0,0,0,0,0,0,0,0,0,0,0,0,0,0,0,0,0,0,0,0,0,0,0,0,0,0,0,0,0,0,0,0,0,0,23069,23070,23071,23072,23073,0,0,0,0,0,0,0,0,0,0,0,0,0,0,0,0,0,0,0,0,0,0,0,0,0,0,0,0,0,0,0,0,0,0,0,0,0,0,0,0,0,0,0,0,0,0,0,0,0,0,0,0,
0,0,0,0,0,0,0,0,0,0,0,0,5562,5563,5564,0,0,0,0,0,0,0,0,0,0,0,0,0,0,0,0,0,0,0,0,0,0,0,0,0,0,0,0,0,0,0,0,0,23209,23210,23211,23212,23213,0,0,0,0,0,0,0,0,0,0,0,0,0,0,0,0,0,0,0,0,0,0,0,0,0,0,0,0,0,0,0,0,0,0,0,0,0,0,0,0,0,0,0,0,0,0,0,0,0,0,0,0,
0,0,0,0,0,0,0,0,0,0,0,0,5702,5703,5704,0,0,0,0,0,0,0,0,0,0,0,0,0,0,0,0,0,0,0,0,0,0,0,0,0,0,0,0,0,0,5562,5563,5564,0,0,0,0,0,0,0,0,0,0,0,0,0,0,0,0,0,0,0,0,0,0,0,0,0,0,0,0,0,0,0,0,0,0,0,0,0,0,0,0,0,0,0,0,0,0,0,0,0,0,0,0,0,0,0,0,0,
0,0,0,0,0,0,0,0,0,0,0,0,0,0,0,0,0,0,0,0,0,0,0,0,0,0,0,0,0,0,0,0,0,0,0,0,0,0,0,0,0,0,0,0,0,5702,5703,5704,0,13006,13007,13008,13009,0,0,0,0,0,0,0,0,0,0,0,0,0,0,0,0,0,0,0,0,0,0,0,0,0,0,0,0,0,0,0,0,0,0,0,0,0,0,0,0,0,0,0,0,0,0,0,0,0,0,0,0,
0,0,0,0,0,0,0,0,0,0,0,0,0,0,0,0,0,0,0,0,0,0,0,0,0,0,0,0,0,0,0,0,0,0,0,0,0,0,0,0,0,0,0,0,0,0,0,0,0,13146,13147,13148,13149,0,0,0,0,0,0,0,0,0,0,0,0,0,0,0,0,0,0,0,0,0,0,0,0,0,0,0,0,0,0,0,0,0,0,0,0,0,0,0,0,0,0,0,0,0,0,0,0,0,0,0,0,
0,0,0,0,0,0,0,0,0,0,0,0,0,0,0,0,0,0,0,0,0,0,0,0,0,0,0,0,0,0,0,0,0,0,0,0,0,0,0,0,0,0,0,0,0,0,0,0,0,0,0,0,0,0,0,0,0,0,0,0,0,0,0,0,0,0,0,0,0,0,0,0,0,0,0,0,0,0,0,0,0,0,0,0,0,0,0,0,0,0,0,0,0,0,0,0,0,0,0,0,0,0,0,0,0,
0,0,0,0,0,0,0,0,0,0,0,0,5562,5563,5564,0,0,0,0,0,0,0,0,0,0,0,0,0,0,0,0,0,0,0,0,0,0,0,0,0,0,0,0,0,0,0,0,0,0,0,0,0,0,0,0,0,0,0,0,0,0,0,0,0,0,0,0,0,0,0,0,0,0,0,0,0,0,0,0,0,0,0,0,0,0,0,0,0,0,0,0,0,0,0,0,0,0,0,0,0,0,0,0,0,0,
0,0,0,0,0,0,0,0,0,0,0,0,5702,5703,5704,0,0,0,0,0,0,0,0,0,0,0,0,0,0,0,0,0,0,0,0,0,0,0,0,0,0,0,0,0,0,0,0,0,0,0,0,0,0,0,0,0,0,0,0,0,0,0,0,0,0,0,0,0,0,0,0,0,0,0,0,0,0,0,0,0,0,0,0,0,0,0,0,0,0,0,0,0,0,0,0,0,0,0,0,0,0,0,0,0,0,
0,0,0,0,0,0,0,0,0,0,0,0,0,0,0,0,0,0,0,0,0,0,0,0,0,0,0,0,0,0,0,0,0,0,0,0,0,0,0,0,0,0,0,0,0,0,0,0,0,0,0,0,0,0,0,0,0,0,0,0,0,0,0,0,0,0,0,0,0,0,0,0,0,0,0,0,0,0,0,0,0,0,0,0,0,0,0,0,0,0,0,0,0,0,0,0,0,0,0,0,0,0,0,0,0,
0,5562,5563,5564,0,13002,13003,13004,13005,0,0,0,0,0,0,0,0,0,0,0,0,0,0,0,0,0,0,0,0,0,0,0,0,0,0,0,0,0,0,0,0,5562,5563,5564,0,0,5562,5563,5564,0,0,0,0,0,0,0,0,0,0,0,0,0,0,0,0,0,0,0,0,0,0,0,0,0,0,0,0,0,0,0,0,0,0,0,0,0,0,0,0,0,0,0,0,0,0,0,0,0,0,0,0,0,0,0,0,
0,5702,5703,5704,0,13142,13143,13144,13145,0,0,0,0,0,0,0,0,0,0,0,0,0,0,0,0,0,0,0,0,0,0,0,0,0,0,0,0,0,0,0,0,5702,5703,5704,0,0,5702,5703,5704,0,0,0,0,0,0,0,0,0,0,0,0,0,0,0,0,0,0,0,0,0,0,0,0,0,0,0,0,0,0,0,0,0,0,0,0,0,0,0,0,0,0,0,0,0,0,0,0,0,0,0,0,0,0,0,0,
0,0,0,0,0,0,0,0,0,0,0,0,0,0,0,0,0,0,0,0,0,0,0,0,0,0,0,0,0,0,0,0,0,0,0,0,0,0,0,0,0,0,0,0,0,0,0,0,0,0,0,0,0,0,0,0,0,0,0,0,0,0,0,0,0,0,0,0,0,0,0,0,0,0,0,0,0,0,0,0,0,0,0,0,0,0,0,0,0,0,0,0,0,0,0,0,0,0,0,0,0,0,0,0,0,
0,0,0,0,0,0,0,0,0,0,0,0,0,0,0,0,0,0,0,0,0,0,0,0,0,0,0,0,0,0,0,0,0,0,0,0,0,0,0,0,0,0,0,0,0,0,0,0,0,0,0,0,0,0,0,0,0,0,0,0,0,0,0,0,0,0,0,0,0,0,0,0,0,0,0,0,0,0,0,0,0,0,0,0,0,0,0,0,0,0,0,0,0,0,0,0,0,0,0,0,0,0,0,0,0,
0,0,0,0,0,0,0,0,0,0,0,0,0,0,0,0,0,0,0,0,0,0,0,0,0,0,0,0,0,0,0,0,0,0,0,0,0,0,0,0,0,0,0,0,0,0,0,0,0,0,0,0,0,0,0,0,0,0,0,0,0,0,0,0,0,0,0,0,0,0,0,0,0,0,0,0,0,0,0,0,0,0,0,0,0,0,0,0,0,0,0,0,0,0,0,0,0,0,0,0,0,0,0,0,0
</data>
  </layer>
 </group>
 <group id="21" name="Object">
  <objectgroup id="30" name="jeux">
   <object id="813" name="game tetris" x="94" y="753.333" width="20" height="23.3333"/>
   <object id="815" name="game space" x="798.667" y="761" width="20" height="23.3333"/>
   <object id="816" name="game pacman" x="1436.33" y="586.167" width="20" height="23.3333"/>
  </objectgroup>
  <objectgroup id="29" name="collisions">
   <object id="681" name="collision" type="collision" x="81.5" y="913" width="6.66667" height="30.25"/>
   <object id="683" name="collision" type="collision" x="133.333" y="912.667" width="7.41667" height="27.25"/>
   <object id="685" name="collision" type="collision" x="34.5833" y="921.667" width="10" height="15.8333"/>
   <object id="686" name="collision" type="collision" x="210" y="873.167" width="10.5833" height="16.1667"/>
   <object id="689" name="collision" type="collision" x="209.167" y="792.75" width="10.6667" height="17.3333"/>
   <object id="694" name="collision" type="collision" x="33.6667" y="714.083" width="10.6667" height="17.3333"/>
   <object id="695" name="collision" type="collision" x="113.417" y="680.083" width="10.6667" height="17.3333"/>
   <object id="696" name="collision" type="collision" x="18.6667" y="299" width="10.6667" height="17.3333"/>
   <object id="697" name="collision" type="collision" x="33" y="409.667" width="10.6667" height="17.3333"/>
   <object id="698" name="collision" type="collision" x="58" y="221.333" width="10.6667" height="17.3333"/>
   <object id="699" name="collision" type="collision" x="58.6667" y="189.667" width="10.6667" height="17.3333"/>
   <object id="700" name="collision" type="collision" x="26.6667" y="173.667" width="10.6667" height="17.3333"/>
   <object id="701" name="collision" type="collision" x="74.6667" y="157.667" width="10.6667" height="17.3333"/>
   <object id="702" name="collision" type="collision" x="90.6667" y="126.333" width="10.6667" height="17.3333"/>
   <object id="703" name="collision" type="collision" x="9.66665" y="126.333" width="10.6667" height="17.3333"/>
   <object id="704" name="collision" type="collision" x="9.66665" y="94.3333" width="10.6667" height="17.3333"/>
   <object id="705" name="collision" type="collision" x="42" y="93.3334" width="10.6667" height="17.3333"/>
   <object id="706" name="collision" type="collision" x="107.333" y="94.3334" width="10.6667" height="17.3333"/>
   <object id="707" name="collision" type="collision" x="123.333" y="62.6667" width="10.6667" height="17.3333"/>
   <object id="708" name="collision" type="collision" x="75" y="61.3333" width="10.6667" height="17.3333"/>
   <object id="709" name="collision" type="collision" x="26.6666" y="62.6667" width="10.6667" height="17.3333"/>
   <object id="710" name="collision" type="collision" x="27" y="31.6667" width="10.6667" height="17.3333"/>
   <object id="711" name="collision" type="collision" x="155.333" y="226" width="27.3334" height="45.3333"/>
   <object id="712" name="collision" type="collision" x="208" y="227.333" width="108.667" height="45.3333"/>
   <object id="713" name="collision" type="collision" x="176" y="277.167" width="78.6667" height="8.3333"/>
   <object id="714" name="collision" type="collision" x="307.5" y="272" width="28.5" height="12.3333"/>
   <object id="715" name="collision" type="collision" x="329.333" y="208" width="5.6667" height="78.6666"/>
   <object id="716" name="collision" type="collision" x="320" y="206.667" width="10.6667" height="17.3333"/>
   <object id="717" name="collision" type="collision" x="175.333" y="228" width="73.3334" height="11.3333"/>
   <object id="718" name="collision" type="collision" x="240" y="212.167" width="38" height="9.8333"/>
   <object id="719" name="collision" type="collision" x="145.333" y="372" width="77.3334" height="11.3333"/>
   <object id="720" name="collision" type="collision" x="286" y="371" width="64.6667" height="12.3333"/>
   <object id="721" name="collision" type="collision" x="345" y="371.333" width="5.6667" height="74.6666"/>
   <object id="722" name="collision" type="collision" x="318.667" y="432.667" width="26" height="12.3333"/>
   <object id="723" name="collision" type="collision" x="146.667" y="376.667" width="3.6667" height="85.3333"/>
   <object id="724" name="collision" type="collision" x="146.833" y="451.5" width="77.1667" height="10.3333"/>
   <object id="725" name="collision" type="collision" x="193.666" y="385.333" width="108.667" height="45.3333"/>
   <object id="726" name="collision" type="collision" x="461.666" y="222.667" width="108.667" height="45.3333"/>
   <object id="727" name="collision" type="collision" x="175.333" y="577.333" width="82.6667" height="12.8333"/>
   <object id="728" name="collision" type="collision" x="175.333" y="482" width="82.6667" height="14"/>
   <object id="729" name="collision" type="collision" x="547.667" y="274" width="62.3334" height="11.3333"/>
   <object id="730" name="collision" type="collision" x="435" y="274" width="64.3334" height="10.3333"/>
   <object id="731" name="collision" type="collision" x="451.333" y="213.5" width="47.3334" height="11.8333"/>
   <object id="732" name="collision" type="collision" x="556" y="207.333" width="28" height="17.3333"/>
   <object id="733" name="collision" type="collision" x="578.667" y="225.333" width="28" height="17.3333"/>
   <object id="734" name="collision" type="collision" x="444.667" y="373.333" width="10.6667" height="74.6666"/>
   <object id="735" name="collision" type="collision" x="447.333" y="210.667" width="10.6667" height="74.6666"/>
   <object id="736" name="collision" type="collision" x="176" y="492.667" width="6.1667" height="87.9999"/>
   <object id="737" name="collision" type="collision" x="289.667" y="450.833" width="26" height="10.3333"/>
   <object id="738" name="collision" type="collision" x="425.667" y="222" width="27.3334" height="45.3333"/>
   <object id="739" name="collision" type="collision" x="384" y="204.667" width="10.6667" height="17.3333"/>
   <object id="740" name="collision" type="collision" x="245.333" y="558" width="10.6667" height="34.6666"/>
   <object id="741" name="collision" type="collision" x="250" y="484" width="4.1667" height="29.3333"/>
   <object id="742" name="collision" type="collision" x="447.667" y="448" width="32.6667" height="13.3333"/>
   <object id="743" name="collision" type="collision" x="448.333" y="368" width="31.3333" height="17.3333"/>
   <object id="744" name="collision" type="collision" x="510.333" y="448" width="48" height="11.3333"/>
   <object id="745" name="collision" type="collision" x="507" y="340.667" width="48.0003" height="106"/>
   <object id="746" name="collision" type="collision" x="570" y="368" width="7.33337" height="45.9999"/>
   <object id="747" name="collision" type="collision" x="552.333" y="368.667" width="23.3333" height="17.3333"/>
   <object id="748" name="collision" type="collision" x="336.333" y="562" width="15.3333" height="26.6666"/>
   <object id="749" name="collision" type="collision" x="417" y="561.333" width="15.3333" height="30.6666"/>
   <object id="750" name="collision" type="collision" x="580" y="624.208" width="6.66667" height="30.25"/>
   <object id="751" name="collision" type="collision" x="629.333" y="625.542" width="6.66667" height="30.25"/>
   <object id="752" name="collision" type="collision" x="787.333" y="818.875" width="6.66667" height="30.25"/>
   <object id="753" name="collision" type="collision" x="836.667" y="818.875" width="6.66667" height="30.25"/>
   <object id="755" name="collision" type="collision" x="739.375" y="810.583" width="10.5833" height="16.1667"/>
   <object id="756" name="collision" type="collision" x="754.708" y="924.583" width="10.5833" height="16.1667"/>
   <object id="757" name="collision" type="collision" x="673.375" y="925.25" width="10.5833" height="16.1667"/>
   <object id="758" name="collision" type="collision" x="1346.71" y="411.25" width="10.5833" height="16.1667"/>
   <object id="759" name="collision" type="collision" x="1411.38" y="409.917" width="10.5833" height="16.1667"/>
   <object id="760" name="collision" type="collision" x="1410.71" y="313.25" width="10.5833" height="16.1667"/>
   <object id="761" name="collision" type="collision" x="1297.38" y="153.25" width="10.5833" height="16.1667"/>
   <object id="762" name="collision" type="collision" x="1124.71" y="59.25" width="10.5833" height="52.1667"/>
   <object id="763" name="collision" type="collision" x="1026.04" y="173.25" width="10.5833" height="16.1667"/>
   <object id="764" name="collision" type="collision" x="880.708" y="106.583" width="10.5833" height="16.1667"/>
   <object id="765" name="collision" type="collision" x="835.375" y="42.5833" width="10.5833" height="16.1667"/>
   <object id="766" name="collision" type="collision" x="784.042" y="207.25" width="10.5833" height="16.1667"/>
   <object id="767" name="collision" type="collision" x="690.708" y="204.583" width="10.5833" height="16.1667"/>
   <object id="768" name="collision" type="collision" x="715.875" y="234.417" width="3.5833" height="34.8334"/>
   <object id="769" name="collision" type="collision" x="708.042" y="269.25" width="10.5833" height="48.8334"/>
   <object id="770" name="collision" type="collision" x="768.708" y="274.583" width="10.5833" height="43.5"/>
   <object id="771" name="collision" type="collision" x="767.625" y="235.667" width="5.3333" height="34.8334"/>
   <object id="772" name="collision" type="collision" x="642.042" y="162.583" width="29.9166" height="29.5001"/>
   <object id="773" name="collision" type="collision" x="642.708" y="34.5833" width="10.5833" height="26.8334"/>
   <object id="774" name="collision" type="collision" x="800.375" y="163.583" width="29.9166" height="30.8334"/>
   <object id="775" name="collision" type="collision" x="45.7084" y="767.583" width="47.9166" height="92.1667"/>
   <object id="776" name="collision" type="collision" x="113.375" y="770.583" width="47.9166" height="92.1667"/>
   <object id="777" name="collision" type="collision" x="32.6666" y="490" width="10.6667" height="17.3333"/>
   <object id="782" name="collision" type="collision" x="653.333" y="490.875" width="86.6666" height="62.25"/>
   <object id="783" name="collision" type="collision" x="654.042" y="543.917" width="30.5833" height="16.1667"/>
   <object id="784" name="collision" type="collision" x="707.375" y="553.917" width="30.5833" height="16.1667"/>
   <object id="785" name="collision" type="collision" x="818.042" y="750.583" width="30.5833" height="24.8334"/>
   <object id="786" name="collision" type="collision" x="768.042" y="747.25" width="30.5833" height="28.1667"/>
   <object id="787" name="collision" type="collision" x="1078" y="576.208" width="6.66667" height="30.25"/>
   <object id="788" name="collision" type="collision" x="1026" y="575.542" width="6.66667" height="30.25"/>
   <object id="789" name="collision" type="collision" x="1045.33" y="447.542" width="6.66667" height="30.25"/>
   <object id="790" name="collision" type="collision" x="979.333" y="448.875" width="6.66667" height="30.25"/>
   <object id="791" name="collision" type="collision" x="996.785" y="402.997" width="36.606" height="19.7045"/>
   <object id="792" name="collision" type="collision" x="981.091" y="409.299" width="17.3333" height="52.9167"/>
   <object id="793" name="collision" type="collision" x="946.667" y="360" width="10.6667" height="17.3333"/>
   <object id="794" name="collision" type="collision" x="1058" y="347.333" width="10.6667" height="17.3333"/>
   <object id="796" name="collision" type="collision" x="1378.67" y="205.333" width="25.3334" height="50.6666"/>
   <object id="797" name="collision" type="collision" x="1334" y="206.667" width="25.3334" height="50.6666"/>
   <object id="798" name="collision" type="collision" x="1498" y="309.333" width="30.6667" height="74.6666"/>
   <object id="799" name="collision" type="collision" x="1497.33" y="174" width="52.6667" height="79.3333"/>
   <object id="800" name="collision" type="collision" x="1568.67" y="172" width="39.3334" height="83.9999"/>
   <object id="801" name="collision" type="collision" x="1544" y="174" width="25.3334" height="57.9999"/>
   <object id="802" name="collision" type="collision" x="1531.33" y="311.333" width="28.6667" height="50.6666"/>
   <object id="803" name="collision" type="collision" x="1397.33" y="515.333" width="102.667" height="64.6666"/>
   <object id="804" name="collision" type="collision" x="1538" y="654" width="45.3334" height="34.6666"/>
   <object id="805" name="collision" type="collision" x="1506.67" y="25.3334" width="45.3334" height="34.6666"/>
   <object id="806" name="collision" type="collision" x="1394" y="26.6667" width="45.3334" height="34.6666"/>
   <object id="807" name="collision" type="collision" x="1346.67" y="203.333" width="45.3334" height="34.6666"/>
   <object id="808" name="collision" type="collision" x="692.667" y="106" width="100.667" height="45.3333"/>
   <object id="809" name="collision" type="collision" x="690" y="140.667" width="45.3334" height="34.6666"/>
   <object id="810" name="collision" type="collision" x="754" y="140.667" width="45.3334" height="34.6666"/>
   <object id="811" name="collision" type="collision" x="192.667" y="512.667" width="60.0001" height="45.3333"/>
   <object id="812" name="collision" type="collision" x="386" y="106" width="10.6667" height="17.3333"/>
   <object id="828" name="collision" type="collision" x="1031.61" y="410.693" width="19.3333" height="42.25"/>
   <object id="838" name="collision" type="collision" x="598.667" y="229.167" width="10.6667" height="55.1666"/>
   <object id="839" name="collision" type="collision" x="241.167" y="211.667" width="5.6667" height="22.1666"/>
   <object id="853" name="collision" type="collision" x="-18.3333" y="954.875" width="1707.67" height="30.25"/>
   <object id="854" name="collision" type="collision" x="8.36856" y="-10.7923" width="991.517" height="30.25" rotation="90.1506"/>
   <object id="855" name="collision" type="collision" x="-25.835" y="-28.125" width="1707.67" height="30.25"/>
   <object id="858" name="collision" type="collision" x="1704.24" y="-26.125" width="991.517" height="30.25" rotation="90.1506"/>
   <object id="859" name="collision" type="collision" x="1210.67" y="418.125" width="6.66667" height="122.75"/>
   <object id="860" name="collision" type="collision" x="1166.17" y="461.625" width="6.66667" height="41.5"/>
   <object id="861" name="collision" type="collision" x="1150.92" y="500.375" width="6.66667" height="30.25"/>
   <object id="862" name="collision" type="collision" x="1135.67" y="537.375" width="6.66667" height="42"/>
   <object id="863" name="collision" type="collision" x="1194.92" y="542.875" width="6.66667" height="30.25"/>
   <object id="864" name="collision" type="collision" x="1178.42" y="577.125" width="6.66667" height="43.5"/>
   <object id="865" name="collision" type="collision" x="1120.92" y="584.125" width="6.66667" height="30.25"/>
   <object id="866" name="collision" type="collision" x="1102.42" y="622.625" width="6.66667" height="35.5"/>
   <object id="867" name="collision" type="collision" x="1146.42" y="657.625" width="6.66667" height="41.25"/>
   <object id="868" name="collision" type="collision" x="1162.42" y="620.375" width="6.66667" height="30.25"/>
   <object id="869" name="collision" type="collision" x="1162.17" y="727.125" width="6.66667" height="30.25"/>
   <object id="870" name="collision" type="collision" x="1145.42" y="709.625" width="6.66667" height="21"/>
   <object id="871" name="collision" type="collision" x="897.167" y="792.625" width="6.66667" height="92.5"/>
   <object id="872" name="collision" type="collision" x="912.417" y="758.625" width="6.66667" height="30.25"/>
   <object id="873" name="collision" type="collision" x="926.917" y="726.125" width="6.66667" height="30.25"/>
   <object id="874" name="collision" type="collision" x="863.667" y="904.875" width="6.66667" height="40.25"/>
   <object id="875" name="collision" type="collision" x="878.417" y="873.625" width="6.66667" height="30.25"/>
   <object id="876" name="collision" type="collision" x="1449.42" y="869.375" width="6.66667" height="51.5"/>
   <object id="877" name="collision" type="collision" x="1481.67" y="915" width="6.66667" height="42.125"/>
   <object id="878" name="collision" type="collision" x="1456.04" y="914.875" width="24.9167" height="7"/>
   <object id="879" name="collision" type="collision" x="1417.17" y="849.125" width="6.66667" height="24.5"/>
   <object id="880" name="collision" type="collision" x="1424.79" y="866.25" width="24.9167" height="7"/>
   <object id="881" name="collision" type="collision" x="1340.04" y="833.5" width="64.1667" height="7"/>
   <object id="882" name="collision" type="collision" x="1401.67" y="831.5" width="6.66667" height="24.5"/>
   <object id="883" name="collision" type="collision" x="1403.79" y="848.25" width="24.9167" height="7"/>
   <object id="884" name="collision" type="collision" x="1323.79" y="815.5" width="17.6667" height="7"/>
   <object id="885" name="collision" type="collision" x="1305.29" y="800.25" width="20.9167" height="7"/>
   <object id="886" name="collision" type="collision" x="1274.79" y="783.75" width="35.9167" height="7"/>
   <object id="887" name="collision" type="collision" x="1338.42" y="814.75" width="4.66667" height="24.5"/>
   <object id="890" name="collision" type="collision" x="1241.79" y="768.75" width="35.9167" height="7"/>
   <object id="891" name="collision" type="collision" x="1170.04" y="752" width="75.9167" height="7"/>
   <object id="892" name="collision" type="collision" x="1011.37" y="673.833" width="82.4622" height="7"/>
   <object id="893" name="collision" type="collision" x="1088.12" y="653.318" width="6.66667" height="21"/>
   <object id="894" name="collision" type="collision" x="944" y="707.167" width="6.66667" height="21"/>
   <object id="895" name="collision" type="collision" x="936.667" y="664.167" width="6.66667" height="52.3333"/>
   <object id="896" name="collision" type="collision" x="887.333" y="619.167" width="6.66667" height="21"/>
   <object id="897" name="collision" type="collision" x="768" y="617.5" width="6.66667" height="38"/>
   <object id="898" name="collision" type="collision" x="689.667" y="742.833" width="6.66667" height="25"/>
   <object id="899" name="collision" type="collision" x="672.667" y="775.5" width="6.66667" height="55.6667"/>
   <object id="900" name="collision" type="collision" x="657.667" y="839.167" width="6.66667" height="23.6667"/>
   <object id="901" name="collision" type="collision" x="641.333" y="870.5" width="6.66667" height="24.3333"/>
   <object id="902" name="collision" type="collision" x="610.667" y="899.833" width="6.66667" height="58.6667"/>
   <object id="903" name="collision" type="collision" x="613.708" y="895.583" width="34.25" height="6.50003"/>
   <object id="904" name="collision" type="collision" x="664.375" y="830.5" width="14" height="8.25003"/>
   <object id="905" name="collision" type="collision" x="246" y="851.333" width="6.66667" height="58.6667"/>
   <object id="906" name="collision" type="collision" x="230" y="902" width="6.66667" height="58.6667"/>
   <object id="907" name="collision" type="collision" x="260.667" y="782.667" width="6.66667" height="58.6667"/>
   <object id="908" name="collision" type="collision" x="198.667" y="687.333" width="6.66667" height="58.6667"/>
   <object id="909" name="collision" type="collision" x="53.3333" y="586.667" width="6.66667" height="58.6667"/>
   <object id="910" name="collision" type="collision" x="102.667" y="478" width="6.66667" height="58.6667"/>
   <object id="911" name="collision" type="collision" x="210.667" y="84" width="6.66667" height="58.6667"/>
   <object id="912" name="collision" type="collision" x="194.667" y="41.3333" width="6.66667" height="38"/>
   <object id="913" name="collision" type="collision" x="161.333" y="80.6667" width="6.66667" height="38"/>
   <object id="914" name="collision" type="collision" x="84.6667" y="206.667" width="6.66667" height="33.3334"/>
   <object id="915" name="collision" type="collision" x="122.667" y="335.334" width="6.66667" height="17.3334"/>
   <object id="916" name="collision" type="collision" x="134.667" y="226" width="6.66667" height="58.6667"/>
   <object id="917" name="collision" type="collision" x="340.667" y="802" width="6.66667" height="87.3334"/>
   <object id="918" name="collision" type="collision" x="326.667" y="743.333" width="6.66667" height="58.6667"/>
   <object id="919" name="collision" type="collision" x="309.333" y="676.667" width="6.66667" height="58.6667"/>
   <object id="920" name="collision" type="collision" x="1462.67" y="294" width="6.66667" height="131.333"/>
   <object id="921" name="collision" type="collision" x="1574.67" y="580" width="6.66667" height="58.6667"/>
   <object id="922" name="collision" type="collision" x="1557.33" y="516" width="6.66667" height="58.6667"/>
   <object id="923" name="collision" type="collision" x="1622" y="156.667" width="6.66667" height="576"/>
   <object id="924" name="collision" type="collision" x="1606" y="42.6666" width="6.66667" height="109.333"/>
   <object id="925" name="collision" type="collision" x="1590.67" y="-15.3333" width="6.66667" height="58.6667"/>
   <object id="926" name="collision" type="collision" x="1431.33" y="162.667" width="6.66667" height="76.6667"/>
   <object id="927" name="collision" type="collision" x="1444" y="242.75" width="6.66667" height="50.6667"/>
   <object id="928" name="collision" type="collision" x="1347.67" y="67.1667" width="6.66667" height="95.6667"/>
   <object id="929" name="collision" type="collision" x="1334.67" y="11.6667" width="6.66667" height="58.6667"/>
   <object id="931" name="collision" type="collision" x="1253.92" y="738.5" width="325.167" height="7"/>
   <object id="932" name="collision" type="collision" x="1569.92" y="726.5" width="64.1667" height="7"/>
   <object id="933" name="collision" type="collision" x="1386.25" y="160.833" width="44.1667" height="7"/>
   <object id="934" name="collision" type="collision" x="1353.92" y="166.5" width="41.1667" height="7"/>
   <object id="935" name="collision" type="collision" x="972.917" y="227.5" width="91.1667" height="7"/>
   <object id="936" name="collision" type="collision" x="985.917" y="208.5" width="93.1667" height="7"/>
   <object id="937" name="collision" type="collision" x="867.917" y="245.5" width="38.1667" height="7"/>
   <object id="938" name="collision" type="collision" x="708.667" y="758.667" width="6.66667" height="97.6667"/>
   <object id="939" name="collision" type="collision" x="1330.67" y="440.667" width="6.66667" height="79.6667"/>
   <object id="940" name="collision" type="collision" x="1346.67" y="519.667" width="6.66667" height="83.6667"/>
   <object id="941" name="collision" type="collision" x="1362.67" y="597.667" width="6.66667" height="48.6667"/>
   <object id="942" name="collision" type="collision" x="1315.67" y="505.667" width="6.66667" height="67.6667"/>
   <object id="943" name="collision" type="collision" x="1266.67" y="362.667" width="6.66667" height="77.6667"/>
   <object id="944" name="collision" type="collision" x="1283.67" y="369.667" width="6.66667" height="58.6667"/>
   <object id="945" name="collision" type="collision" x="1514.92" y="513.5" width="45.1667" height="7"/>
   <object id="946" name="collision" type="collision" x="1505.67" y="485.667" width="6.66667" height="40.6667"/>
   <object id="963" name="collision" type="collision" x="1152.33" y="417.583" width="6.66667" height="41.5"/>
   <object id="964" name="collision" type="collision" x="1194" y="380.583" width="6.66667" height="41.5"/>
   <object id="965" name="collision" type="collision" x="1152" y="273.917" width="6.66667" height="41.5"/>
   <object id="966" name="collision" type="collision" x="1136.67" y="300.625" width="6.66667" height="122.75"/>
   <object id="967" name="collision" type="collision" x="1192.33" y="309.917" width="6.66667" height="41.5"/>
   <object id="968" name="collision" type="collision" x="1226" y="270.917" width="6.66667" height="31.5"/>
   <object id="969" name="collision" type="collision" x="1178.67" y="346.583" width="6.66667" height="31.5"/>
   <object id="970" name="collision" type="collision" x="1166.33" y="248.917" width="6.66667" height="31.5"/>
   <object id="971" name="collision" type="collision" x="1240.33" y="242.917" width="6.66667" height="31.5"/>
   <object id="972" name="collision" type="collision" x="1209" y="298.917" width="6.66667" height="25.5"/>
   <object id="973" name="collision" type="collision" x="1288.67" y="19.25" width="6.66667" height="67.8333"/>
   <object id="974" name="collision" type="collision" x="1321.33" y="78.9167" width="6.66667" height="45.5"/>
   <object id="975" name="collision" type="collision" x="1241.67" y="156.583" width="6.66667" height="47.1667"/>
   <object id="976" name="collision" type="collision" x="1228.33" y="204.25" width="6.66667" height="44.5"/>
   <object id="977" name="collision" type="collision" x="1180.33" y="202.583" width="6.66667" height="46.8333"/>
   <object id="978" name="collision" type="collision" x="1294.78" y="154.862" width="6.66667" height="46.8333" rotation="90.4767"/>
   <object id="979" name="collision" type="collision" x="1338" y="122.25" width="6.66667" height="46.8333" rotation="90.4767"/>
   <object id="980" name="collision" type="collision" x="1292.33" y="124.75" width="6.66667" height="44.5"/>
   <object id="981" name="collision" type="collision" x="1334.33" y="81.5833" width="6.66667" height="46.8333" rotation="90.4767"/>
   <object id="982" name="collision" type="collision" x="1296.33" y="17.25" width="6.66667" height="46.8333" rotation="90.4767"/>
   <object id="983" name="collision" type="collision" x="1255.33" y="31.9167" width="6.66667" height="46.8333" rotation="90.4767"/>
   <object id="984" name="collision" type="collision" x="1189.67" y="32.9167" width="6.66667" height="63.1605" rotation="90.4767"/>
   <object id="985" name="collision" type="collision" x="1125.99" y="18.3719" width="6.66667" height="61.4884" rotation="90.4767"/>
   <object id="986" name="collision" type="collision" x="1119.33" y="201.583" width="6.66667" height="46.8333" rotation="90.4767"/>
   <object id="987" name="collision" type="collision" x="1174.65" y="186.372" width="6.66667" height="61.4856" rotation="90.4767"/>
   <object id="988" name="collision" type="collision" x="1212.34" y="16.514" width="6.66667" height="26.5062" rotation="90.4767"/>
   <object id="989" name="collision" type="collision" x="1072.33" y="2.91668" width="6.66667" height="38.1753" rotation="90.4767"/>
   <object id="990" name="collision" type="collision" x="1071" y="173.25" width="6.66667" height="39.5"/>
   <object id="991" name="collision" type="collision" x="1021.67" y="109.917" width="6.66667" height="31.5"/>
   <object id="992" name="collision" type="collision" x="1006.33" y="76.25" width="6.66667" height="38.1666"/>
   <object id="993" name="collision" type="collision" x="991.667" y="0.58335" width="6.66667" height="79.1666"/>
   <object id="994" name="collision" type="collision" x="951.03" y="716.386" width="9.03031" height="26.3182"/>
   <object id="995" name="collision" type="collision" x="961.303" y="736.114" width="49.9394" height="7.04547"/>
   <object id="996" name="collision" type="collision" x="1007.67" y="696.295" width="9.03031" height="41.4091"/>
   <object id="997" name="collision" type="collision" x="87.3333" y="522.667" width="6.66667" height="51.3334"/>
   <object id="998" name="collision" type="collision" x="296" y="925.333" width="6.66667" height="30.6667"/>
   <object id="999" name="collision" type="collision" x="221.333" y="626.25" width="60.6667" height="5.49997"/>
   <object id="1000" name="collision" type="collision" x="56.3333" y="573.917" width="30" height="5.49997"/>
   <object id="1001" name="collision" type="collision" x="102.333" y="642.583" width="34.6667" height="5.49997"/>
   <object id="1002" name="collision" type="collision" x="62.6666" y="648.583" width="34.6667" height="5.49997"/>
   <object id="1003" name="collision" type="collision" x="152" y="673.25" width="34.6667" height="5.49997"/>
   <object id="1004" name="collision" type="collision" x="217.333" y="749.917" width="34.6667" height="5.49997"/>
   <object id="1005" name="collision" type="collision" x="297.989" y="923.246" width="57.5689" height="5.49997" rotation="321.191"/>
   <object id="1006" name="collision" type="collision" x="134.667" y="606.583" width="34.6667" height="5.49997"/>
   <object id="1007" name="collision" type="collision" x="130" y="587.917" width="34.6667" height="5.49997"/>
   <object id="1008" name="collision" type="collision" x="134.667" y="337.333" width="6.66667" height="58.6667"/>
   <object id="1009" name="collision" type="collision" x="116.667" y="386.667" width="6.66667" height="58.6667"/>
   <object id="1010" name="collision" type="collision" x="134.667" y="432" width="6.66667" height="58.6667"/>
   <object id="1011" name="collision" type="collision" x="162.667" y="497.333" width="6.66667" height="58.6667"/>
   <object id="1012" name="collision" type="collision" x="70.6667" y="371.333" width="6.66667" height="50"/>
   <object id="1013" name="collision" type="collision" x="181.333" y="637.917" width="34.6667" height="5.49997"/>
   <object id="1014" name="collision" type="collision" x="276.667" y="626.667" width="6.66667" height="32"/>
   <object id="1015" name="collision" type="collision" x="285.217" y="661.15" width="6.66667" height="32" rotation="320.311"/>
   <object id="1016" name="collision" type="collision" x="117.333" y="138.333" width="6.66667" height="38"/>
   <object id="1017" name="collision" type="collision" x="101.333" y="171.667" width="6.66667" height="38"/>
   <object id="1018" name="collision" type="collision" x="182.667" y="148.333" width="6.66667" height="38"/>
   <object id="1019" name="collision" type="collision" x="136.605" y="225.132" width="62.4652" height="5.49997" rotation="314.663"/>
   <object id="1020" name="collision" type="collision" x="124" y="123.917" width="34.6667" height="5.49997"/>
   <object id="1021" name="collision" type="collision" x="35.3333" y="248.583" width="34.6667" height="5.49997"/>
   <object id="1022" name="collision" type="collision" x="3.99998" y="231.917" width="34.6667" height="3.49997"/>
   <object id="1023" name="collision" type="collision" x="21.3333" y="356.583" width="34.6667" height="5.49997"/>
   <object id="1024" name="collision" type="collision" x="-2.66668" y="370.583" width="34.6667" height="5.49997"/>
   <object id="1025" name="collision" type="collision" x="55.3333" y="413.667" width="6.66667" height="23.3334"/>
   <object id="1026" name="collision" type="collision" x="63.4771" y="437.959" width="6.66667" height="37.4344" rotation="315.804"/>
   <object id="1027" name="collision" type="collision" x="139.333" y="486.616" width="6.66667" height="37.4344" rotation="315.804"/>
   <object id="1028" name="collision" type="collision" x="160" y="614.616" width="6.66667" height="37.4344" rotation="315.804"/>
   <object id="1029" name="collision" type="collision" x="152" y="552.667" width="6.66667" height="32"/>
   <object id="1030" name="collision" type="collision" x="127.333" y="649.283" width="6.66667" height="37.4344" rotation="315.804"/>
   <object id="1031" name="collision" type="collision" x="176" y="679.283" width="6.66667" height="37.4344" rotation="315.804"/>
   <object id="1032" name="collision" type="collision" x="238" y="757.949" width="6.66667" height="37.4344" rotation="315.804"/>
   <object id="1033" name="collision" type="collision" x="142" y="53.9495" width="6.66667" height="37.4344" rotation="315.804"/>
   <object id="1034" name="collision" type="collision" x="156.274" y="3.77555" width="6.66667" height="59.9934" rotation="315.804"/>
   <object id="1035" name="collision" type="collision" x="75.3333" y="4.61613" width="6.66667" height="84.9027" rotation="315.804"/>
   <object id="1036" name="collision" type="collision" x="188.667" y="161.25" width="34.6667" height="5.49997" rotation="314.663"/>
   <object id="1037" name="collision" type="collision" x="120" y="272.667" width="6.66667" height="17.3334"/>
   <object id="1046" name="collision" type="collision" x="772.042" y="711.25" width="72.5833" height="34.8334"/>
   <object id="1048" name="collision" type="collision" x="597.333" y="495.542" width="6.66667" height="30.25"/>
   <object id="1049" name="collision" type="collision" x="584" y="442.208" width="6.66667" height="50.9167"/>
   <object id="1050" name="collision" type="collision" x="799.333" y="486.208" width="6.66667" height="30.25"/>
   <object id="1051" name="collision" type="collision" x="786.667" y="529.542" width="6.66667" height="30.25"/>
   <object id="1052" name="collision" type="collision" x="758" y="554.875" width="6.66667" height="30.25"/>
   <object id="1053" name="collision" type="collision" x="722" y="596.875" width="6.66667" height="64.25"/>
   <object id="1054" name="collision" type="collision" x="695.333" y="626.208" width="6.66667" height="30.25"/>
   <object id="1055" name="collision" type="collision" x="432" y="807.542" width="6.66667" height="80.25"/>
   <object id="1056" name="collision" type="collision" x="418.667" y="895.542" width="6.66667" height="30.25"/>
   <object id="1057" name="collision" type="collision" x="402.667" y="923.542" width="6.66667" height="30.25"/>
   <object id="1058" name="collision" type="collision" x="374.667" y="890.208" width="6.66667" height="56.9167"/>
   <object id="1059" name="collision" type="collision" x="388.667" y="856.875" width="6.66667" height="30.25"/>
   <object id="1060" name="collision" type="collision" x="374.667" y="788.208" width="6.66667" height="30.25"/>
   <object id="1061" name="collision" type="collision" x="360" y="742.208" width="6.66667" height="35.5833"/>
   <object id="1062" name="collision" type="collision" x="408" y="761.542" width="6.66667" height="30.25"/>
   <object id="1063" name="collision" type="collision" x="422.875" y="739.417" width="61.5833" height="6.50003"/>
   <object id="1064" name="collision" type="collision" x="509.542" y="712.083" width="34.25" height="6.50003"/>
   <object id="1065" name="collision" type="collision" x="474.875" y="681.417" width="90.25" height="6.50003"/>
   <object id="1066" name="collision" type="collision" x="553.542" y="735.417" width="86.9167" height="6.50003"/>
   <object id="1067" name="collision" type="collision" x="592.875" y="709.417" width="34.25" height="6.50003"/>
   <object id="1068" name="collision" type="collision" x="392.208" y="713.417" width="51.5833" height="6.50003"/>
   <object id="1069" name="collision" type="collision" x="647.542" y="712.083" width="34.25" height="6.50003"/>
   <object id="1070" name="collision" type="collision" x="624.208" y="695.417" width="34.25" height="6.50003"/>
   <object id="1071" name="collision" type="collision" x="680.844" y="707.286" width="64.7063" height="6.50003" rotation="311.72"/>
   <object id="1072" name="collision" type="collision" x="652.314" y="692.083" width="64.7063" height="6.50003" rotation="311.72"/>
   <object id="1073" name="collision" type="collision" x="698.314" y="742.083" width="108.1" height="6.50003" rotation="311.72"/>
   <object id="1074" name="collision" type="collision" x="827.542" y="575.417" width="34.25" height="6.50003"/>
   <object id="1075" name="collision" type="collision" x="822.875" y="593.417" width="34.25" height="6.50003"/>
   <object id="1076" name="collision" type="collision" x="783.433" y="606.753" width="34.25" height="6.50003" rotation="331.138"/>
   <object id="1077" name="collision" type="collision" x="760.875" y="456.083" width="34.25" height="6.50003"/>
   <object id="1078" name="collision" type="collision" x="724.208" y="437.417" width="34.25" height="6.50003"/>
   <object id="1079" name="collision" type="collision" x="661.542" y="455.417" width="56.25" height="6.50003"/>
   <object id="1080" name="collision" type="collision" x="589.542" y="438.75" width="63.5833" height="6.50003"/>
   <object id="1081" name="collision" type="collision" x="780.875" y="904.083" width="58.9167" height="6.50003"/>
   <object id="1082" name="collision" type="collision" x="733.542" y="886.083" width="58.9167" height="6.50003"/>
   <object id="1083" name="collision" type="collision" x="866" y="773.167" width="6.66667" height="97.6667"/>
   <object id="1084" name="collision" type="collision" x="902" y="661.167" width="6.66667" height="97.6667"/>
   <object id="1085" name="collision" type="collision" x="802.785" y="636.648" width="34.25" height="6.50003" rotation="302.717"/>
   <object id="1086" name="collision" type="collision" x="873.542" y="774.083" width="34.25" height="6.50003" rotation="302.717"/>
   <object id="1087" name="collision" type="collision" x="838.875" y="898.083" width="34.25" height="6.50003" rotation="302.717"/>
   <object id="1088" name="collision" type="collision" x="734.791" y="888.598" width="34.25" height="6.50003" rotation="229.72"/>
   <object id="1089" name="collision" type="collision" x="875.364" y="626.655" width="34.25" height="6.50003" rotation="234.983"/>
   <object id="1091" name="collision" type="collision" x="906.208" y="668.083" width="34.25" height="6.50003" rotation="234.983"/>
   <object id="1092" name="collision" type="collision" x="931.542" y="670.083" width="34.25" height="6.50003" rotation="234.983"/>
   <object id="1093" name="collision" type="collision" x="570.208" y="548.75" width="34.25" height="6.50003" rotation="302.717"/>
   <object id="1094" name="collision" type="collision" x="588.875" y="588.75" width="34.25" height="6.50003" rotation="234.983"/>
   <object id="1095" name="collision" type="collision" x="692.875" y="633.417" width="34.25" height="6.50003" rotation="234.983"/>
   <object id="1096" name="collision" type="collision" x="594.875" y="584.083" width="34.25" height="6.50003"/>
   <object id="1097" name="collision" type="collision" x="640.875" y="604.083" width="34.25" height="6.50003"/>
  </objectgroup>
  <objectgroup id="22" name="interface">
   <object id="311" name="switch map_0 1" x="104.833" y="935.333" width="16" height="16"/>
   <object id="312" name="spawn map_0 0" x="107.667" y="889.833">
    <point/>
   </object>
   <object id="817" name="game snake" x="733.333" y="150.333" width="20" height="23.3333"/>
   <object id="818" name="switch map_0 0" x="1039.33" y="596.667" width="34.5" height="16"/>
   <object id="819" name="spawn map_0 1" x="1055" y="546">
    <point/>
   </object>
   <object id="820" name="switch map_0 2" x="798.75" y="842" width="34.5" height="16"/>
   <object id="821" name="spawn map_0 3" x="810.5" y="799.5">
    <point/>
   </object>
   <object id="822" name="switch map_0 3" x="589.25" y="647.5" width="34.5" height="16"/>
   <object id="823" name="spawn map_0 2" x="610" y="621.5">
    <point/>
   </object>
   <object id="825" name="switch teepe_0 0" x="1003.75" y="442" width="23.5" height="16"/>
   <object id="826" name="spawn map_0 4" x="1523" y="78">
    <point/>
   </object>
   <object id="827" name="spawn map_0 5" x="1005" y="460">
    <point/>
   </object>
   <object id="830" name="switch teepe_0 1" x="1519.5" y="58.5" width="20" height="16"/>
   <object id="831" name="switch teepe_1 0" x="1407" y="59" width="20" height="16"/>
   <object id="832" name="spawn map_0 7" x="1410.5" y="80.5">
    <point/>
   </object>
   <object id="833" name="spawn map_0 6" x="1552" y="703.5">
    <point/>
   </object>
   <object id="834" name="switch teepe_1 1" x="1551.5" y="681" width="20" height="16"/>
   <object id="835" name="spawn map_0 8" x="1363.5" y="253.5">
    <point/>
   </object>
   <object id="836" name="switch hermite_0 1" x="1359.51" y="237.694" width="19.476" height="12.6115"/>
   <object id="840" name="water" x="921" y="764" width="317" height="195"/>
   <object id="843" name="water" x="1235.5" y="769.5" width="261" height="180"/>
   <object id="844" name="water" x="1016" y="684.5" width="92.5" height="127"/>
   <object id="845" name="water" x="1153.5" y="426.5" width="86.6667" height="114"/>
   <object id="846" name="water" x="1123.5" y="507" width="101.667" height="60"/>
   <object id="847" name="water" x="1115.83" y="550" width="89.6667" height="65"/>
   <object id="848" name="water" x="1082.17" y="621" width="92" height="60"/>
   <object id="849" name="water" x="1095.83" y="588" width="102" height="60"/>
   <object id="850" name="water" x="1067.17" y="662" width="101.667" height="93"/>
   <object id="851" name="water" x="1131.5" y="735" width="29" height="60"/>
   <object id="852" name="water" x="876.5" y="907" width="42" height="49"/>
   <object id="947" name="water" x="1128.5" y="311" width="80" height="95"/>
   <object id="948" name="water" x="1130.17" y="380" width="97.1667" height="77"/>
   <object id="949" name="water" x="1159.25" y="285.5" width="33.5" height="61.5"/>
   <object id="950" name="water" x="1136.42" y="250.75" width="120.167" height="61.5"/>
   <object id="951" name="water" x="1185.25" y="184.75" width="43.5" height="101.5"/>
   <object id="952" name="water" x="1255.25" y="4.08333" width="51.6667" height="164.333"/>
   <object id="953" name="water" x="1175" y="14.0833" width="67" height="189.167"/>
   <object id="954" name="water" x="1227.5" y="40" width="34" height="115"/>
   <object id="955" name="water" x="1082.5" y="6.66667" width="91.5" height="202.667"/>
   <object id="956" name="water" x="998.5" y="2.5" width="34" height="70"/>
   <object id="957" name="water" x="989.167" y="12" width="72.8333" height="92"/>
   <object id="958" name="water" x="1045.25" y="4" width="46.5" height="150.5"/>
   <object id="959" name="water" x="1010.67" y="83" width="57.3333" height="70"/>
   <object id="960" name="water" x="1052.33" y="136" width="61.6667" height="78.3333"/>
   <object id="961" name="water" x="1290" y="71.1667" width="45.6667" height="66"/>
   <object id="962" name="water" x="936.5" y="715.333" width="86.5" height="84.6667"/>
   <object id="1038" name="switch map_0 10" x="37.3333" y="299.333" width="16" height="16"/>
   <object id="1039" name="spawn map_0 10" x="64.6667" y="126">
    <point/>
   </object>
   <object id="1040" name="spawn map_0 11" x="186.667" y="120">
    <point/>
   </object>
   <object id="1041" name="switch map_0 11" x="2.66667" y="147.333" width="16" height="16"/>
   <object id="1042" name="switch map_0 14" x="359.75" y="564" width="34.5" height="16"/>
   <object id="1043" name="spawn map_0 14" x="707" y="606">
    <point/>
   </object>
   <object id="1045" name="switch map_0 15" x="605.417" y="531.333" width="23.1667" height="16"/>
   <object id="1047" name="spawn map_0 15" x="376.667" y="651.333">
    <point/>
   </object>
  </objectgroup>
 </group>
</map>
